(Exported by FreeCAD)
(Post Processor: linuxcnc_post)
(Output Time:2024-09-14 15:02:36.894512)
(begin preamble)
G17 G54 G40 G49 G80 G90
G21
(begin operation: G54)
(machine units: mm/min)
G54 
G0 Z5.000 
(finish operation: G54)
(begin operation: TC: TC1 6.35mm)
(machine units: mm/min)
(TC: TC1 6.35mm) 
M5
M6 T1 
G43 H1 
(finish operation: TC: TC1 6.35mm)
(begin operation: DressupTag)
(machine units: mm/min)
G0 Z5.000 
G0 X155.845 Y155.245 Z5.000 
G1 X155.845 Y155.245 Z-5.900 F180.000 
G1 X156.169 Y154.866 Z-5.900 F3000.000 
G1 X156.429 Y154.441 Z-5.900 F3000.000 
G1 X156.620 Y153.981 Z-5.900 F3000.000 
G1 X156.736 Y153.497 Z-5.900 F3000.000 
G1 X156.775 Y153.000 Z-5.900 F3000.000 
G1 X156.775 Y-609.000 Z-5.900 F3000.000 
G1 X156.736 Y-609.497 Z-5.900 F3000.000 
G1 X156.620 Y-609.981 Z-5.900 F3000.000 
G1 X156.429 Y-610.441 Z-5.900 F3000.000 
G1 X156.169 Y-610.866 Z-5.900 F3000.000 
G1 X155.845 Y-611.245 Z-5.900 F3000.000 
G1 X155.466 Y-611.569 Z-5.900 F3000.000 
G1 X155.041 Y-611.829 Z-5.900 F3000.000 
G1 X154.581 Y-612.020 Z-5.900 F3000.000 
G1 X154.097 Y-612.136 Z-5.900 F3000.000 
G1 X153.600 Y-612.175 Z-5.900 F3000.000 
G1 X-1218.000 Y-612.175 Z-5.900 F3000.000 
G1 X-1218.497 Y-612.136 Z-5.900 F3000.000 
G1 X-1218.981 Y-612.020 Z-5.900 F3000.000 
G1 X-1219.441 Y-611.829 Z-5.900 F3000.000 
G1 X-1219.866 Y-611.569 Z-5.900 F3000.000 
G1 X-1220.245 Y-611.245 Z-5.900 F3000.000 
G1 X-1220.569 Y-610.866 Z-5.900 F3000.000 
G1 X-1220.829 Y-610.441 Z-5.900 F3000.000 
G1 X-1221.020 Y-609.981 Z-5.900 F3000.000 
G1 X-1221.136 Y-609.497 Z-5.900 F3000.000 
G1 X-1221.175 Y-609.000 Z-5.900 F3000.000 
G1 X-1221.175 Y153.000 Z-5.900 F3000.000 
G1 X-1221.136 Y153.497 Z-5.900 F3000.000 
G1 X-1221.020 Y153.981 Z-5.900 F3000.000 
G1 X-1220.829 Y154.441 Z-5.900 F3000.000 
G1 X-1220.569 Y154.866 Z-5.900 F3000.000 
G1 X-1220.245 Y155.245 Z-5.900 F3000.000 
G1 X-1219.866 Y155.569 Z-5.900 F3000.000 
G1 X-1219.441 Y155.829 Z-5.900 F3000.000 
G1 X-1218.981 Y156.020 Z-5.900 F3000.000 
G1 X-1218.497 Y156.136 Z-5.900 F3000.000 
G1 X-1218.000 Y156.175 Z-5.900 F3000.000 
G1 X153.600 Y156.175 Z-5.900 F3000.000 
G1 X154.097 Y156.136 Z-5.900 F3000.000 
G1 X154.581 Y156.020 Z-5.900 F3000.000 
G1 X155.041 Y155.829 Z-5.900 F3000.000 
G1 X155.466 Y155.569 Z-5.900 F3000.000 
G1 X155.845 Y155.245 Z-5.900 F3000.000 
G1 X155.845 Y155.245 Z-11.900 F180.000 
G1 X156.169 Y154.866 Z-11.900 F3000.000 
G1 X156.429 Y154.441 Z-11.900 F3000.000 
G1 X156.620 Y153.981 Z-11.900 F3000.000 
G1 X156.736 Y153.497 Z-11.900 F3000.000 
G1 X156.775 Y153.000 Z-11.900 F3000.000 
G1 X156.775 Y-609.000 Z-11.900 F3000.000 
G1 X156.736 Y-609.497 Z-11.900 F3000.000 
G1 X156.620 Y-609.981 Z-11.900 F3000.000 
G1 X156.429 Y-610.441 Z-11.900 F3000.000 
G1 X156.169 Y-610.866 Z-11.900 F3000.000 
G1 X155.845 Y-611.245 Z-11.900 F3000.000 
G1 X155.466 Y-611.569 Z-11.900 F3000.000 
G1 X155.041 Y-611.829 Z-11.900 F3000.000 
G1 X154.581 Y-612.020 Z-11.900 F3000.000 
G1 X154.097 Y-612.136 Z-11.900 F3000.000 
G1 X153.600 Y-612.175 Z-11.900 F3000.000 
G1 X-1218.000 Y-612.175 Z-11.900 F3000.000 
G1 X-1218.497 Y-612.136 Z-11.900 F3000.000 
G1 X-1218.981 Y-612.020 Z-11.900 F3000.000 
G1 X-1219.441 Y-611.829 Z-11.900 F3000.000 
G1 X-1219.866 Y-611.569 Z-11.900 F3000.000 
G1 X-1220.245 Y-611.245 Z-11.900 F3000.000 
G1 X-1220.569 Y-610.866 Z-11.900 F3000.000 
G1 X-1220.829 Y-610.441 Z-11.900 F3000.000 
G1 X-1221.020 Y-609.981 Z-11.900 F3000.000 
G1 X-1221.136 Y-609.497 Z-11.900 F3000.000 
G1 X-1221.175 Y-609.000 Z-11.900 F3000.000 
G1 X-1221.175 Y153.000 Z-11.900 F3000.000 
G1 X-1221.136 Y153.497 Z-11.900 F3000.000 
G1 X-1221.020 Y153.981 Z-11.900 F3000.000 
G1 X-1220.829 Y154.441 Z-11.900 F3000.000 
G1 X-1220.569 Y154.866 Z-11.900 F3000.000 
G1 X-1220.245 Y155.245 Z-11.900 F3000.000 
G1 X-1219.866 Y155.569 Z-11.900 F3000.000 
G1 X-1219.441 Y155.829 Z-11.900 F3000.000 
G1 X-1218.981 Y156.020 Z-11.900 F3000.000 
G1 X-1218.497 Y156.136 Z-11.900 F3000.000 
G1 X-1218.000 Y156.175 Z-11.900 F3000.000 
G1 X153.600 Y156.175 Z-11.900 F3000.000 
G1 X154.097 Y156.136 Z-11.900 F3000.000 
G1 X154.581 Y156.020 Z-11.900 F3000.000 
G1 X155.041 Y155.829 Z-11.900 F3000.000 
G1 X155.466 Y155.569 Z-11.900 F3000.000 
G1 X155.845 Y155.245 Z-11.900 F3000.000 
G1 X155.845 Y155.245 Z-11.906 F180.000 
G1 X156.169 Y154.866 Z-11.906 F3000.000 
G1 X156.429 Y154.441 Z-11.906 F3000.000 
G1 X156.620 Y153.981 Z-11.906 F3000.000 
G1 X156.736 Y153.497 Z-11.906 F3000.000 
G1 X156.775 Y153.000 Z-11.906 F3000.000 
G1 X156.775 Y-609.000 Z-11.906 F3000.000 
G1 X156.736 Y-609.497 Z-11.906 F3000.000 
G1 X156.620 Y-609.981 Z-11.906 F3000.000 
G1 X156.429 Y-610.441 Z-11.906 F3000.000 
G1 X156.169 Y-610.866 Z-11.906 F3000.000 
G1 X155.845 Y-611.245 Z-11.906 F3000.000 
G1 X155.466 Y-611.569 Z-11.906 F3000.000 
G1 X155.041 Y-611.829 Z-11.906 F3000.000 
G1 X154.581 Y-612.020 Z-11.906 F3000.000 
G1 X154.097 Y-612.136 Z-11.906 F3000.000 
G1 X153.600 Y-612.175 Z-11.906 F3000.000 
G1 X-1218.000 Y-612.175 Z-11.906 F3000.000 
G1 X-1218.497 Y-612.136 Z-11.906 F3000.000 
G1 X-1218.981 Y-612.020 Z-11.906 F3000.000 
G1 X-1219.441 Y-611.829 Z-11.906 F3000.000 
G1 X-1219.866 Y-611.569 Z-11.906 F3000.000 
G1 X-1220.245 Y-611.245 Z-11.906 F3000.000 
G1 X-1220.569 Y-610.866 Z-11.906 F3000.000 
G1 X-1220.829 Y-610.441 Z-11.906 F3000.000 
G1 X-1221.020 Y-609.981 Z-11.906 F3000.000 
G1 X-1221.136 Y-609.497 Z-11.906 F3000.000 
G1 X-1221.175 Y-609.000 Z-11.906 F3000.000 
G1 X-1221.175 Y153.000 Z-11.906 F3000.000 
G1 X-1221.136 Y153.497 Z-11.906 F3000.000 
G1 X-1221.020 Y153.981 Z-11.906 F3000.000 
G1 X-1220.829 Y154.441 Z-11.906 F3000.000 
G1 X-1220.569 Y154.866 Z-11.906 F3000.000 
G1 X-1220.245 Y155.245 Z-11.906 F3000.000 
G1 X-1219.866 Y155.569 Z-11.906 F3000.000 
G1 X-1219.441 Y155.829 Z-11.906 F3000.000 
G1 X-1218.981 Y156.020 Z-11.906 F3000.000 
G1 X-1218.497 Y156.136 Z-11.906 F3000.000 
G1 X-1218.000 Y156.175 Z-11.906 F3000.000 
G1 X153.600 Y156.175 Z-11.906 F3000.000 
G1 X154.097 Y156.136 Z-11.906 F3000.000 
G1 X154.581 Y156.020 Z-11.906 F3000.000 
G1 X155.041 Y155.829 Z-11.906 F3000.000 
G1 X155.466 Y155.569 Z-11.906 F3000.000 
G1 X155.845 Y155.245 Z-11.906 F3000.000 
G0 X155.845 Y155.245 Z5.000 
(finish operation: DressupTag)
(begin operation: DressupTag001)
(machine units: mm/min)
G0 Z5.000 
G0 X-415.042 Y232.341 Z5.000 
G1 X-415.042 Y232.341 Z-5.900 F180.000 
G1 X-414.560 Y232.216 Z-5.900 F3000.000 
G1 X-414.103 Y232.018 Z-5.900 F3000.000 
G1 X-413.683 Y231.750 Z-5.900 F3000.000 
G1 X-413.310 Y231.420 Z-5.900 F3000.000 
G1 X-412.993 Y231.035 Z-5.900 F3000.000 
G1 X-412.740 Y230.606 Z-5.900 F3000.000 
G1 X-412.557 Y230.143 Z-5.900 F3000.000 
G1 X-412.450 Y229.656 Z-5.900 F3000.000 
G1 X-405.380 Y179.351 Z-5.900 F3000.000 
G1 X-405.349 Y178.909 Z-5.900 F3000.000 
G1 X-405.388 Y178.412 Z-5.900 F3000.000 
G1 X-405.504 Y177.928 Z-5.900 F3000.000 
G1 X-405.695 Y177.467 Z-5.900 F3000.000 
G1 X-405.955 Y177.042 Z-5.900 F3000.000 
G1 X-406.279 Y176.664 Z-5.900 F3000.000 
G1 X-406.658 Y176.340 Z-5.900 F3000.000 
G1 X-407.082 Y176.080 Z-5.900 F3000.000 
G1 X-407.543 Y175.889 Z-5.900 F3000.000 
G1 X-408.027 Y175.773 Z-5.900 F3000.000 
G1 X-408.524 Y175.734 Z-5.900 F3000.000 
G1 X-1178.012 Y175.734 Z-5.900 F3000.000 
G1 X-1178.564 Y175.782 Z-5.900 F3000.000 
G1 X-1179.046 Y175.907 Z-5.900 F3000.000 
G1 X-1179.503 Y176.105 Z-5.900 F3000.000 
G1 X-1179.923 Y176.373 Z-5.900 F3000.000 
G1 X-1180.296 Y176.703 Z-5.900 F3000.000 
G1 X-1180.613 Y177.088 Z-5.900 F3000.000 
G1 X-1180.866 Y177.517 Z-5.900 F3000.000 
G1 X-1181.049 Y177.980 Z-5.900 F3000.000 
G1 X-1181.156 Y178.467 Z-5.900 F3000.000 
G1 X-1197.064 Y291.654 Z-5.900 F3000.000 
G1 X-1197.085 Y292.352 Z-5.900 F3000.000 
G1 X-1197.006 Y292.844 Z-5.900 F3000.000 
G1 X-1196.851 Y293.317 Z-5.900 F3000.000 
G1 X-1196.624 Y293.761 Z-5.900 F3000.000 
G1 X-1196.330 Y294.163 Z-5.900 F3000.000 
G1 X-1195.977 Y294.515 Z-5.900 F3000.000 
G1 X-1195.573 Y294.807 Z-5.900 F3000.000 
G1 X-1195.129 Y295.032 Z-5.900 F3000.000 
G1 X-1194.655 Y295.185 Z-5.900 F3000.000 
G1 X-1194.162 Y295.262 Z-5.900 F3000.000 
G1 X-1193.664 Y295.261 Z-5.900 F3000.000 
G1 X-415.338 Y232.379 Z-5.900 F3000.000 
G1 X-415.042 Y232.341 Z-5.900 F3000.000 
G1 X-415.042 Y232.341 Z-11.900 F180.000 
G1 X-414.560 Y232.216 Z-11.900 F3000.000 
G1 X-414.103 Y232.018 Z-11.900 F3000.000 
G1 X-413.683 Y231.750 Z-11.900 F3000.000 
G1 X-413.310 Y231.420 Z-11.900 F3000.000 
G1 X-412.993 Y231.035 Z-11.900 F3000.000 
G1 X-412.740 Y230.606 Z-11.900 F3000.000 
G1 X-412.557 Y230.143 Z-11.900 F3000.000 
G1 X-412.450 Y229.656 Z-11.900 F3000.000 
G1 X-405.380 Y179.351 Z-11.900 F3000.000 
G1 X-405.349 Y178.909 Z-11.900 F3000.000 
G1 X-405.388 Y178.412 Z-11.900 F3000.000 
G1 X-405.504 Y177.928 Z-11.900 F3000.000 
G1 X-405.695 Y177.467 Z-11.900 F3000.000 
G1 X-405.955 Y177.042 Z-11.900 F3000.000 
G1 X-406.279 Y176.664 Z-11.900 F3000.000 
G1 X-406.658 Y176.340 Z-11.900 F3000.000 
G1 X-407.082 Y176.080 Z-11.900 F3000.000 
G1 X-407.543 Y175.889 Z-11.900 F3000.000 
G1 X-408.027 Y175.773 Z-11.900 F3000.000 
G1 X-408.524 Y175.734 Z-11.900 F3000.000 
G1 X-1178.012 Y175.734 Z-11.900 F3000.000 
G1 X-1178.564 Y175.782 Z-11.900 F3000.000 
G1 X-1179.046 Y175.907 Z-11.900 F3000.000 
G1 X-1179.503 Y176.105 Z-11.900 F3000.000 
G1 X-1179.923 Y176.373 Z-11.900 F3000.000 
G1 X-1180.296 Y176.703 Z-11.900 F3000.000 
G1 X-1180.613 Y177.088 Z-11.900 F3000.000 
G1 X-1180.866 Y177.517 Z-11.900 F3000.000 
G1 X-1181.049 Y177.980 Z-11.900 F3000.000 
G1 X-1181.156 Y178.467 Z-11.900 F3000.000 
G1 X-1197.064 Y291.654 Z-11.900 F3000.000 
G1 X-1197.085 Y292.352 Z-11.900 F3000.000 
G1 X-1197.006 Y292.844 Z-11.900 F3000.000 
G1 X-1196.851 Y293.317 Z-11.900 F3000.000 
G1 X-1196.624 Y293.761 Z-11.900 F3000.000 
G1 X-1196.330 Y294.163 Z-11.900 F3000.000 
G1 X-1195.977 Y294.515 Z-11.900 F3000.000 
G1 X-1195.573 Y294.807 Z-11.900 F3000.000 
G1 X-1195.129 Y295.032 Z-11.900 F3000.000 
G1 X-1194.655 Y295.185 Z-11.900 F3000.000 
G1 X-1194.162 Y295.262 Z-11.900 F3000.000 
G1 X-1193.664 Y295.261 Z-11.900 F3000.000 
G1 X-415.338 Y232.379 Z-11.900 F3000.000 
G1 X-415.042 Y232.341 Z-11.900 F3000.000 
G1 X-415.042 Y232.341 Z-11.906 F180.000 
G1 X-414.560 Y232.216 Z-11.906 F3000.000 
G1 X-414.103 Y232.018 Z-11.906 F3000.000 
G1 X-413.683 Y231.750 Z-11.906 F3000.000 
G1 X-413.310 Y231.420 Z-11.906 F3000.000 
G1 X-412.993 Y231.035 Z-11.906 F3000.000 
G1 X-412.740 Y230.606 Z-11.906 F3000.000 
G1 X-412.557 Y230.143 Z-11.906 F3000.000 
G1 X-412.450 Y229.656 Z-11.906 F3000.000 
G1 X-405.380 Y179.351 Z-11.906 F3000.000 
G1 X-405.349 Y178.909 Z-11.906 F3000.000 
G1 X-405.388 Y178.412 Z-11.906 F3000.000 
G1 X-405.504 Y177.928 Z-11.906 F3000.000 
G1 X-405.695 Y177.467 Z-11.906 F3000.000 
G1 X-405.955 Y177.042 Z-11.906 F3000.000 
G1 X-406.279 Y176.664 Z-11.906 F3000.000 
G1 X-406.658 Y176.340 Z-11.906 F3000.000 
G1 X-407.082 Y176.080 Z-11.906 F3000.000 
G1 X-407.543 Y175.889 Z-11.906 F3000.000 
G1 X-408.027 Y175.773 Z-11.906 F3000.000 
G1 X-408.524 Y175.734 Z-11.906 F3000.000 
G1 X-1178.012 Y175.734 Z-11.906 F3000.000 
G1 X-1178.564 Y175.782 Z-11.906 F3000.000 
G1 X-1179.046 Y175.907 Z-11.906 F3000.000 
G1 X-1179.503 Y176.105 Z-11.906 F3000.000 
G1 X-1179.923 Y176.373 Z-11.906 F3000.000 
G1 X-1180.296 Y176.703 Z-11.906 F3000.000 
G1 X-1180.613 Y177.088 Z-11.906 F3000.000 
G1 X-1180.866 Y177.517 Z-11.906 F3000.000 
G1 X-1181.049 Y177.980 Z-11.906 F3000.000 
G1 X-1181.156 Y178.467 Z-11.906 F3000.000 
G1 X-1197.064 Y291.654 Z-11.906 F3000.000 
G1 X-1197.085 Y292.352 Z-11.906 F3000.000 
G1 X-1197.006 Y292.844 Z-11.906 F3000.000 
G1 X-1196.851 Y293.317 Z-11.906 F3000.000 
G1 X-1196.624 Y293.761 Z-11.906 F3000.000 
G1 X-1196.330 Y294.163 Z-11.906 F3000.000 
G1 X-1195.977 Y294.515 Z-11.906 F3000.000 
G1 X-1195.573 Y294.807 Z-11.906 F3000.000 
G1 X-1195.129 Y295.032 Z-11.906 F3000.000 
G1 X-1194.655 Y295.185 Z-11.906 F3000.000 
G1 X-1194.162 Y295.262 Z-11.906 F3000.000 
G1 X-1193.664 Y295.261 Z-11.906 F3000.000 
G1 X-415.338 Y232.379 Z-11.906 F3000.000 
G1 X-415.042 Y232.341 Z-11.906 F3000.000 
G0 X-415.042 Y232.341 Z5.000 
(finish operation: DressupTag001)
(begin operation: DressupTag002)
(machine units: mm/min)
G0 Z5.000 
G0 X827.831 Y528.123 Z5.000 
G1 X827.831 Y528.123 Z-5.900 F180.000 
G1 X843.739 Y414.935 Z-5.900 F3000.000 
G1 X843.759 Y414.238 Z-5.900 F3000.000 
G1 X843.680 Y413.746 Z-5.900 F3000.000 
G1 X843.525 Y413.272 Z-5.900 F3000.000 
G1 X843.298 Y412.829 Z-5.900 F3000.000 
G1 X843.005 Y412.427 Z-5.900 F3000.000 
G1 X842.652 Y412.075 Z-5.900 F3000.000 
G1 X842.248 Y411.783 Z-5.900 F3000.000 
G1 X841.804 Y411.558 Z-5.900 F3000.000 
G1 X841.329 Y411.405 Z-5.900 F3000.000 
G1 X840.837 Y411.328 Z-5.900 F3000.000 
G1 X840.339 Y411.329 Z-5.900 F3000.000 
G1 X62.013 Y474.211 Z-5.900 F3000.000 
G1 X61.717 Y474.249 Z-5.900 F3000.000 
G1 X61.235 Y474.374 Z-5.900 F3000.000 
G1 X60.778 Y474.572 Z-5.900 F3000.000 
G1 X60.358 Y474.840 Z-5.900 F3000.000 
G1 X59.985 Y475.170 Z-5.900 F3000.000 
G1 X59.668 Y475.554 Z-5.900 F3000.000 
G1 X59.415 Y475.984 Z-5.900 F3000.000 
G1 X59.232 Y476.447 Z-5.900 F3000.000 
G1 X59.124 Y476.934 Z-5.900 F3000.000 
G1 X52.054 Y527.239 Z-5.900 F3000.000 
G1 X52.024 Y527.681 Z-5.900 F3000.000 
G1 X52.063 Y528.178 Z-5.900 F3000.000 
G1 X52.179 Y528.662 Z-5.900 F3000.000 
G1 X52.370 Y529.123 Z-5.900 F3000.000 
G1 X52.630 Y529.547 Z-5.900 F3000.000 
G1 X52.954 Y529.926 Z-5.900 F3000.000 
G1 X53.332 Y530.250 Z-5.900 F3000.000 
G1 X53.757 Y530.510 Z-5.900 F3000.000 
G1 X54.217 Y530.701 Z-5.900 F3000.000 
G1 X54.702 Y530.817 Z-5.900 F3000.000 
G1 X55.199 Y530.856 Z-5.900 F3000.000 
G1 X824.687 Y530.856 Z-5.900 F3000.000 
G1 X825.239 Y530.808 Z-5.900 F3000.000 
G1 X825.721 Y530.683 Z-5.900 F3000.000 
G1 X826.178 Y530.485 Z-5.900 F3000.000 
G1 X826.598 Y530.217 Z-5.900 F3000.000 
G1 X826.971 Y529.887 Z-5.900 F3000.000 
G1 X827.288 Y529.502 Z-5.900 F3000.000 
G1 X827.541 Y529.073 Z-5.900 F3000.000 
G1 X827.723 Y528.609 Z-5.900 F3000.000 
G1 X827.831 Y528.123 Z-5.900 F3000.000 
G1 X827.831 Y528.123 Z-11.900 F180.000 
G1 X843.739 Y414.935 Z-11.900 F3000.000 
G1 X843.759 Y414.238 Z-11.900 F3000.000 
G1 X843.680 Y413.746 Z-11.900 F3000.000 
G1 X843.525 Y413.272 Z-11.900 F3000.000 
G1 X843.298 Y412.829 Z-11.900 F3000.000 
G1 X843.005 Y412.427 Z-11.900 F3000.000 
G1 X842.652 Y412.075 Z-11.900 F3000.000 
G1 X842.248 Y411.783 Z-11.900 F3000.000 
G1 X841.804 Y411.558 Z-11.900 F3000.000 
G1 X841.329 Y411.405 Z-11.900 F3000.000 
G1 X840.837 Y411.328 Z-11.900 F3000.000 
G1 X840.339 Y411.329 Z-11.900 F3000.000 
G1 X62.013 Y474.211 Z-11.900 F3000.000 
G1 X61.717 Y474.249 Z-11.900 F3000.000 
G1 X61.235 Y474.374 Z-11.900 F3000.000 
G1 X60.778 Y474.572 Z-11.900 F3000.000 
G1 X60.358 Y474.840 Z-11.900 F3000.000 
G1 X59.985 Y475.170 Z-11.900 F3000.000 
G1 X59.668 Y475.554 Z-11.900 F3000.000 
G1 X59.415 Y475.984 Z-11.900 F3000.000 
G1 X59.232 Y476.447 Z-11.900 F3000.000 
G1 X59.124 Y476.934 Z-11.900 F3000.000 
G1 X52.054 Y527.239 Z-11.900 F3000.000 
G1 X52.024 Y527.681 Z-11.900 F3000.000 
G1 X52.063 Y528.178 Z-11.900 F3000.000 
G1 X52.179 Y528.662 Z-11.900 F3000.000 
G1 X52.370 Y529.123 Z-11.900 F3000.000 
G1 X52.630 Y529.547 Z-11.900 F3000.000 
G1 X52.954 Y529.926 Z-11.900 F3000.000 
G1 X53.332 Y530.250 Z-11.900 F3000.000 
G1 X53.757 Y530.510 Z-11.900 F3000.000 
G1 X54.217 Y530.701 Z-11.900 F3000.000 
G1 X54.702 Y530.817 Z-11.900 F3000.000 
G1 X55.199 Y530.856 Z-11.900 F3000.000 
G1 X824.687 Y530.856 Z-11.900 F3000.000 
G1 X825.239 Y530.808 Z-11.900 F3000.000 
G1 X825.721 Y530.683 Z-11.900 F3000.000 
G1 X826.178 Y530.485 Z-11.900 F3000.000 
G1 X826.598 Y530.217 Z-11.900 F3000.000 
G1 X826.971 Y529.887 Z-11.900 F3000.000 
G1 X827.288 Y529.502 Z-11.900 F3000.000 
G1 X827.541 Y529.073 Z-11.900 F3000.000 
G1 X827.723 Y528.609 Z-11.900 F3000.000 
G1 X827.831 Y528.123 Z-11.900 F3000.000 
G1 X827.831 Y528.123 Z-11.906 F180.000 
G1 X843.739 Y414.935 Z-11.906 F3000.000 
G1 X843.759 Y414.238 Z-11.906 F3000.000 
G1 X843.680 Y413.746 Z-11.906 F3000.000 
G1 X843.525 Y413.272 Z-11.906 F3000.000 
G1 X843.298 Y412.829 Z-11.906 F3000.000 
G1 X843.005 Y412.427 Z-11.906 F3000.000 
G1 X842.652 Y412.075 Z-11.906 F3000.000 
G1 X842.248 Y411.783 Z-11.906 F3000.000 
G1 X841.804 Y411.558 Z-11.906 F3000.000 
G1 X841.329 Y411.405 Z-11.906 F3000.000 
G1 X840.837 Y411.328 Z-11.906 F3000.000 
G1 X840.339 Y411.329 Z-11.906 F3000.000 
G1 X62.013 Y474.211 Z-11.906 F3000.000 
G1 X61.717 Y474.249 Z-11.906 F3000.000 
G1 X61.235 Y474.374 Z-11.906 F3000.000 
G1 X60.778 Y474.572 Z-11.906 F3000.000 
G1 X60.358 Y474.840 Z-11.906 F3000.000 
G1 X59.985 Y475.170 Z-11.906 F3000.000 
G1 X59.668 Y475.554 Z-11.906 F3000.000 
G1 X59.415 Y475.984 Z-11.906 F3000.000 
G1 X59.232 Y476.447 Z-11.906 F3000.000 
G1 X59.124 Y476.934 Z-11.906 F3000.000 
G1 X52.054 Y527.239 Z-11.906 F3000.000 
G1 X52.024 Y527.681 Z-11.906 F3000.000 
G1 X52.063 Y528.178 Z-11.906 F3000.000 
G1 X52.179 Y528.662 Z-11.906 F3000.000 
G1 X52.370 Y529.123 Z-11.906 F3000.000 
G1 X52.630 Y529.547 Z-11.906 F3000.000 
G1 X52.954 Y529.926 Z-11.906 F3000.000 
G1 X53.332 Y530.250 Z-11.906 F3000.000 
G1 X53.757 Y530.510 Z-11.906 F3000.000 
G1 X54.217 Y530.701 Z-11.906 F3000.000 
G1 X54.702 Y530.817 Z-11.906 F3000.000 
G1 X55.199 Y530.856 Z-11.906 F3000.000 
G1 X824.687 Y530.856 Z-11.906 F3000.000 
G1 X825.239 Y530.808 Z-11.906 F3000.000 
G1 X825.721 Y530.683 Z-11.906 F3000.000 
G1 X826.178 Y530.485 Z-11.906 F3000.000 
G1 X826.598 Y530.217 Z-11.906 F3000.000 
G1 X826.971 Y529.887 Z-11.906 F3000.000 
G1 X827.288 Y529.502 Z-11.906 F3000.000 
G1 X827.541 Y529.073 Z-11.906 F3000.000 
G1 X827.723 Y528.609 Z-11.906 F3000.000 
G1 X827.831 Y528.123 Z-11.906 F3000.000 
G0 X827.831 Y528.123 Z5.000 
(finish operation: DressupTag002)
(begin operation: DressupTag003)
(machine units: mm/min)
G0 Z5.000 
G0 X295.910 Y183.070 Z5.000 
G1 X295.910 Y183.070 Z-5.900 F180.000 
G1 X296.092 Y182.887 Z-5.900 F3000.000 
G1 X296.384 Y182.484 Z-5.900 F3000.000 
G1 X296.609 Y182.039 Z-5.900 F3000.000 
G1 X296.762 Y181.565 Z-5.900 F3000.000 
G1 X296.839 Y181.073 Z-5.900 F3000.000 
G1 X296.838 Y180.575 Z-5.900 F3000.000 
G1 X233.956 Y-597.751 Z-5.900 F3000.000 
G1 X233.918 Y-598.047 Z-5.900 F3000.000 
G1 X233.794 Y-598.529 Z-5.900 F3000.000 
G1 X233.595 Y-598.986 Z-5.900 F3000.000 
G1 X233.327 Y-599.406 Z-5.900 F3000.000 
G1 X232.997 Y-599.780 Z-5.900 F3000.000 
G1 X232.613 Y-600.096 Z-5.900 F3000.000 
G1 X232.183 Y-600.349 Z-5.900 F3000.000 
G1 X231.720 Y-600.532 Z-5.900 F3000.000 
G1 X231.233 Y-600.640 Z-5.900 F3000.000 
G1 X180.928 Y-607.710 Z-5.900 F3000.000 
G1 X180.486 Y-607.741 Z-5.900 F3000.000 
G1 X179.989 Y-607.702 Z-5.900 F3000.000 
G1 X179.505 Y-607.585 Z-5.900 F3000.000 
G1 X179.045 Y-607.395 Z-5.900 F3000.000 
G1 X178.620 Y-607.134 Z-5.900 F3000.000 
G1 X178.241 Y-606.811 Z-5.900 F3000.000 
G1 X177.917 Y-606.432 Z-5.900 F3000.000 
G1 X177.657 Y-606.007 Z-5.900 F3000.000 
G1 X177.466 Y-605.547 Z-5.900 F3000.000 
G1 X177.350 Y-605.062 Z-5.900 F3000.000 
G1 X177.311 Y-604.566 Z-5.900 F3000.000 
G1 X177.311 Y164.923 Z-5.900 F3000.000 
G1 X177.359 Y165.474 Z-5.900 F3000.000 
G1 X177.484 Y165.957 Z-5.900 F3000.000 
G1 X177.683 Y166.414 Z-5.900 F3000.000 
G1 X177.950 Y166.834 Z-5.900 F3000.000 
G1 X178.280 Y167.207 Z-5.900 F3000.000 
G1 X178.665 Y167.524 Z-5.900 F3000.000 
G1 X179.094 Y167.777 Z-5.900 F3000.000 
G1 X179.558 Y167.959 Z-5.900 F3000.000 
G1 X180.044 Y168.067 Z-5.900 F3000.000 
G1 X293.232 Y183.975 Z-5.900 F3000.000 
G1 X293.929 Y183.995 Z-5.900 F3000.000 
G1 X294.421 Y183.916 Z-5.900 F3000.000 
G1 X294.895 Y183.761 Z-5.900 F3000.000 
G1 X295.338 Y183.534 Z-5.900 F3000.000 
G1 X295.741 Y183.240 Z-5.900 F3000.000 
G1 X295.910 Y183.070 Z-5.900 F3000.000 
G1 X295.910 Y183.070 Z-11.900 F180.000 
G1 X296.092 Y182.887 Z-11.900 F3000.000 
G1 X296.384 Y182.484 Z-11.900 F3000.000 
G1 X296.609 Y182.039 Z-11.900 F3000.000 
G1 X296.762 Y181.565 Z-11.900 F3000.000 
G1 X296.839 Y181.073 Z-11.900 F3000.000 
G1 X296.838 Y180.575 Z-11.900 F3000.000 
G1 X233.956 Y-597.751 Z-11.900 F3000.000 
G1 X233.918 Y-598.047 Z-11.900 F3000.000 
G1 X233.794 Y-598.529 Z-11.900 F3000.000 
G1 X233.595 Y-598.986 Z-11.900 F3000.000 
G1 X233.327 Y-599.406 Z-11.900 F3000.000 
G1 X232.997 Y-599.780 Z-11.900 F3000.000 
G1 X232.613 Y-600.096 Z-11.900 F3000.000 
G1 X232.183 Y-600.349 Z-11.900 F3000.000 
G1 X231.720 Y-600.532 Z-11.900 F3000.000 
G1 X231.233 Y-600.640 Z-11.900 F3000.000 
G1 X180.928 Y-607.710 Z-11.900 F3000.000 
G1 X180.486 Y-607.741 Z-11.900 F3000.000 
G1 X179.989 Y-607.702 Z-11.900 F3000.000 
G1 X179.505 Y-607.585 Z-11.900 F3000.000 
G1 X179.045 Y-607.395 Z-11.900 F3000.000 
G1 X178.620 Y-607.134 Z-11.900 F3000.000 
G1 X178.241 Y-606.811 Z-11.900 F3000.000 
G1 X177.917 Y-606.432 Z-11.900 F3000.000 
G1 X177.657 Y-606.007 Z-11.900 F3000.000 
G1 X177.466 Y-605.547 Z-11.900 F3000.000 
G1 X177.350 Y-605.062 Z-11.900 F3000.000 
G1 X177.311 Y-604.566 Z-11.900 F3000.000 
G1 X177.311 Y164.923 Z-11.900 F3000.000 
G1 X177.359 Y165.474 Z-11.900 F3000.000 
G1 X177.484 Y165.957 Z-11.900 F3000.000 
G1 X177.683 Y166.414 Z-11.900 F3000.000 
G1 X177.950 Y166.834 Z-11.900 F3000.000 
G1 X178.280 Y167.207 Z-11.900 F3000.000 
G1 X178.665 Y167.524 Z-11.900 F3000.000 
G1 X179.094 Y167.777 Z-11.900 F3000.000 
G1 X179.558 Y167.959 Z-11.900 F3000.000 
G1 X180.044 Y168.067 Z-11.900 F3000.000 
G1 X293.232 Y183.975 Z-11.900 F3000.000 
G1 X293.929 Y183.995 Z-11.900 F3000.000 
G1 X294.421 Y183.916 Z-11.900 F3000.000 
G1 X294.895 Y183.761 Z-11.900 F3000.000 
G1 X295.338 Y183.534 Z-11.900 F3000.000 
G1 X295.741 Y183.240 Z-11.900 F3000.000 
G1 X295.910 Y183.070 Z-11.900 F3000.000 
G1 X295.910 Y183.070 Z-11.906 F180.000 
G1 X296.092 Y182.887 Z-11.906 F3000.000 
G1 X296.384 Y182.484 Z-11.906 F3000.000 
G1 X296.609 Y182.039 Z-11.906 F3000.000 
G1 X296.762 Y181.565 Z-11.906 F3000.000 
G1 X296.839 Y181.073 Z-11.906 F3000.000 
G1 X296.838 Y180.575 Z-11.906 F3000.000 
G1 X233.956 Y-597.751 Z-11.906 F3000.000 
G1 X233.918 Y-598.047 Z-11.906 F3000.000 
G1 X233.794 Y-598.529 Z-11.906 F3000.000 
G1 X233.595 Y-598.986 Z-11.906 F3000.000 
G1 X233.327 Y-599.406 Z-11.906 F3000.000 
G1 X232.997 Y-599.780 Z-11.906 F3000.000 
G1 X232.613 Y-600.096 Z-11.906 F3000.000 
G1 X232.183 Y-600.349 Z-11.906 F3000.000 
G1 X231.720 Y-600.532 Z-11.906 F3000.000 
G1 X231.233 Y-600.640 Z-11.906 F3000.000 
G1 X180.928 Y-607.710 Z-11.906 F3000.000 
G1 X180.486 Y-607.741 Z-11.906 F3000.000 
G1 X179.989 Y-607.702 Z-11.906 F3000.000 
G1 X179.505 Y-607.585 Z-11.906 F3000.000 
G1 X179.045 Y-607.395 Z-11.906 F3000.000 
G1 X178.620 Y-607.134 Z-11.906 F3000.000 
G1 X178.241 Y-606.811 Z-11.906 F3000.000 
G1 X177.917 Y-606.432 Z-11.906 F3000.000 
G1 X177.657 Y-606.007 Z-11.906 F3000.000 
G1 X177.466 Y-605.547 Z-11.906 F3000.000 
G1 X177.350 Y-605.062 Z-11.906 F3000.000 
G1 X177.311 Y-604.566 Z-11.906 F3000.000 
G1 X177.311 Y164.923 Z-11.906 F3000.000 
G1 X177.359 Y165.474 Z-11.906 F3000.000 
G1 X177.484 Y165.957 Z-11.906 F3000.000 
G1 X177.683 Y166.414 Z-11.906 F3000.000 
G1 X177.950 Y166.834 Z-11.906 F3000.000 
G1 X178.280 Y167.207 Z-11.906 F3000.000 
G1 X178.665 Y167.524 Z-11.906 F3000.000 
G1 X179.094 Y167.777 Z-11.906 F3000.000 
G1 X179.558 Y167.959 Z-11.906 F3000.000 
G1 X180.044 Y168.067 Z-11.906 F3000.000 
G1 X293.232 Y183.975 Z-11.906 F3000.000 
G1 X293.929 Y183.995 Z-11.906 F3000.000 
G1 X294.421 Y183.916 Z-11.906 F3000.000 
G1 X294.895 Y183.761 Z-11.906 F3000.000 
G1 X295.338 Y183.534 Z-11.906 F3000.000 
G1 X295.741 Y183.240 Z-11.906 F3000.000 
G1 X295.910 Y183.070 Z-11.906 F3000.000 
G0 X295.910 Y183.070 Z5.000 
(finish operation: DressupTag003)
(begin operation: DressupTag004)
(machine units: mm/min)
G0 Z5.000 
G0 X580.672 Y197.544 Z5.000 
G1 X580.672 Y197.544 Z-5.900 F180.000 
G1 X580.996 Y197.165 Z-5.900 F3000.000 
G1 X581.256 Y196.740 Z-5.900 F3000.000 
G1 X581.447 Y196.280 Z-5.900 F3000.000 
G1 X581.563 Y195.795 Z-5.900 F3000.000 
G1 X581.602 Y195.299 Z-5.900 F3000.000 
G1 X581.602 Y-574.190 Z-5.900 F3000.000 
G1 X581.554 Y-574.741 Z-5.900 F3000.000 
G1 X581.429 Y-575.224 Z-5.900 F3000.000 
G1 X581.230 Y-575.680 Z-5.900 F3000.000 
G1 X580.963 Y-576.101 Z-5.900 F3000.000 
G1 X580.633 Y-576.474 Z-5.900 F3000.000 
G1 X580.248 Y-576.791 Z-5.900 F3000.000 
G1 X579.819 Y-577.044 Z-5.900 F3000.000 
G1 X579.355 Y-577.226 Z-5.900 F3000.000 
G1 X578.869 Y-577.334 Z-5.900 F3000.000 
G1 X465.681 Y-593.241 Z-5.900 F3000.000 
G1 X464.984 Y-593.262 Z-5.900 F3000.000 
G1 X464.492 Y-593.183 Z-5.900 F3000.000 
G1 X464.018 Y-593.028 Z-5.900 F3000.000 
G1 X463.575 Y-592.801 Z-5.900 F3000.000 
G1 X463.172 Y-592.507 Z-5.900 F3000.000 
G1 X462.821 Y-592.154 Z-5.900 F3000.000 
G1 X462.529 Y-591.751 Z-5.900 F3000.000 
G1 X462.304 Y-591.306 Z-5.900 F3000.000 
G1 X462.151 Y-590.832 Z-5.900 F3000.000 
G1 X462.074 Y-590.340 Z-5.900 F3000.000 
G1 X462.075 Y-589.842 Z-5.900 F3000.000 
G1 X524.957 Y188.484 Z-5.900 F3000.000 
G1 X524.995 Y188.780 Z-5.900 F3000.000 
G1 X525.119 Y189.262 Z-5.900 F3000.000 
G1 X525.318 Y189.719 Z-5.900 F3000.000 
G1 X525.586 Y190.140 Z-5.900 F3000.000 
G1 X525.916 Y190.513 Z-5.900 F3000.000 
G1 X526.300 Y190.830 Z-5.900 F3000.000 
G1 X526.730 Y191.082 Z-5.900 F3000.000 
G1 X527.193 Y191.265 Z-5.900 F3000.000 
G1 X527.680 Y191.373 Z-5.900 F3000.000 
G1 X577.985 Y198.443 Z-5.900 F3000.000 
G1 X578.427 Y198.474 Z-5.900 F3000.000 
G1 X578.924 Y198.435 Z-5.900 F3000.000 
G1 X579.408 Y198.318 Z-5.900 F3000.000 
G1 X579.869 Y198.128 Z-5.900 F3000.000 
G1 X580.293 Y197.867 Z-5.900 F3000.000 
G1 X580.672 Y197.544 Z-5.900 F3000.000 
G1 X580.672 Y197.544 Z-11.900 F180.000 
G1 X580.996 Y197.165 Z-11.900 F3000.000 
G1 X581.256 Y196.740 Z-11.900 F3000.000 
G1 X581.447 Y196.280 Z-11.900 F3000.000 
G1 X581.563 Y195.795 Z-11.900 F3000.000 
G1 X581.602 Y195.299 Z-11.900 F3000.000 
G1 X581.602 Y-574.190 Z-11.900 F3000.000 
G1 X581.554 Y-574.741 Z-11.900 F3000.000 
G1 X581.429 Y-575.224 Z-11.900 F3000.000 
G1 X581.230 Y-575.680 Z-11.900 F3000.000 
G1 X580.963 Y-576.101 Z-11.900 F3000.000 
G1 X580.633 Y-576.474 Z-11.900 F3000.000 
G1 X580.248 Y-576.791 Z-11.900 F3000.000 
G1 X579.819 Y-577.044 Z-11.900 F3000.000 
G1 X579.355 Y-577.226 Z-11.900 F3000.000 
G1 X578.869 Y-577.334 Z-11.900 F3000.000 
G1 X465.681 Y-593.241 Z-11.900 F3000.000 
G1 X464.984 Y-593.262 Z-11.900 F3000.000 
G1 X464.492 Y-593.183 Z-11.900 F3000.000 
G1 X464.018 Y-593.028 Z-11.900 F3000.000 
G1 X463.575 Y-592.801 Z-11.900 F3000.000 
G1 X463.172 Y-592.507 Z-11.900 F3000.000 
G1 X462.821 Y-592.154 Z-11.900 F3000.000 
G1 X462.529 Y-591.751 Z-11.900 F3000.000 
G1 X462.304 Y-591.306 Z-11.900 F3000.000 
G1 X462.151 Y-590.832 Z-11.900 F3000.000 
G1 X462.074 Y-590.340 Z-11.900 F3000.000 
G1 X462.075 Y-589.842 Z-11.900 F3000.000 
G1 X524.957 Y188.484 Z-11.900 F3000.000 
G1 X524.995 Y188.780 Z-11.900 F3000.000 
G1 X525.119 Y189.262 Z-11.900 F3000.000 
G1 X525.318 Y189.719 Z-11.900 F3000.000 
G1 X525.586 Y190.140 Z-11.900 F3000.000 
G1 X525.916 Y190.513 Z-11.900 F3000.000 
G1 X526.300 Y190.830 Z-11.900 F3000.000 
G1 X526.730 Y191.082 Z-11.900 F3000.000 
G1 X527.193 Y191.265 Z-11.900 F3000.000 
G1 X527.680 Y191.373 Z-11.900 F3000.000 
G1 X577.985 Y198.443 Z-11.900 F3000.000 
G1 X578.427 Y198.474 Z-11.900 F3000.000 
G1 X578.924 Y198.435 Z-11.900 F3000.000 
G1 X579.408 Y198.318 Z-11.900 F3000.000 
G1 X579.869 Y198.128 Z-11.900 F3000.000 
G1 X580.293 Y197.867 Z-11.900 F3000.000 
G1 X580.672 Y197.544 Z-11.900 F3000.000 
G1 X580.672 Y197.544 Z-11.906 F180.000 
G1 X580.996 Y197.165 Z-11.906 F3000.000 
G1 X581.256 Y196.740 Z-11.906 F3000.000 
G1 X581.447 Y196.280 Z-11.906 F3000.000 
G1 X581.563 Y195.795 Z-11.906 F3000.000 
G1 X581.602 Y195.299 Z-11.906 F3000.000 
G1 X581.602 Y-574.190 Z-11.906 F3000.000 
G1 X581.554 Y-574.741 Z-11.906 F3000.000 
G1 X581.429 Y-575.224 Z-11.906 F3000.000 
G1 X581.230 Y-575.680 Z-11.906 F3000.000 
G1 X580.963 Y-576.101 Z-11.906 F3000.000 
G1 X580.633 Y-576.474 Z-11.906 F3000.000 
G1 X580.248 Y-576.791 Z-11.906 F3000.000 
G1 X579.819 Y-577.044 Z-11.906 F3000.000 
G1 X579.355 Y-577.226 Z-11.906 F3000.000 
G1 X578.869 Y-577.334 Z-11.906 F3000.000 
G1 X465.681 Y-593.241 Z-11.906 F3000.000 
G1 X464.984 Y-593.262 Z-11.906 F3000.000 
G1 X464.492 Y-593.183 Z-11.906 F3000.000 
G1 X464.018 Y-593.028 Z-11.906 F3000.000 
G1 X463.575 Y-592.801 Z-11.906 F3000.000 
G1 X463.172 Y-592.507 Z-11.906 F3000.000 
G1 X462.821 Y-592.154 Z-11.906 F3000.000 
G1 X462.529 Y-591.751 Z-11.906 F3000.000 
G1 X462.304 Y-591.306 Z-11.906 F3000.000 
G1 X462.151 Y-590.832 Z-11.906 F3000.000 
G1 X462.074 Y-590.340 Z-11.906 F3000.000 
G1 X462.075 Y-589.842 Z-11.906 F3000.000 
G1 X524.957 Y188.484 Z-11.906 F3000.000 
G1 X524.995 Y188.780 Z-11.906 F3000.000 
G1 X525.119 Y189.262 Z-11.906 F3000.000 
G1 X525.318 Y189.719 Z-11.906 F3000.000 
G1 X525.586 Y190.140 Z-11.906 F3000.000 
G1 X525.916 Y190.513 Z-11.906 F3000.000 
G1 X526.300 Y190.830 Z-11.906 F3000.000 
G1 X526.730 Y191.082 Z-11.906 F3000.000 
G1 X527.193 Y191.265 Z-11.906 F3000.000 
G1 X527.680 Y191.373 Z-11.906 F3000.000 
G1 X577.985 Y198.443 Z-11.906 F3000.000 
G1 X578.427 Y198.474 Z-11.906 F3000.000 
G1 X578.924 Y198.435 Z-11.906 F3000.000 
G1 X579.408 Y198.318 Z-11.906 F3000.000 
G1 X579.869 Y198.128 Z-11.906 F3000.000 
G1 X580.293 Y197.867 Z-11.906 F3000.000 
G1 X580.672 Y197.544 Z-11.906 F3000.000 
G0 X580.672 Y197.544 Z5.000 
(finish operation: DressupTag004)
(begin operation: DressupTag005)
(machine units: mm/min)
G0 Z5.000 
G0 X367.671 Y183.381 Z5.000 
G1 X367.671 Y183.381 Z-5.900 F180.000 
G1 X367.995 Y183.003 Z-5.900 F3000.000 
G1 X368.255 Y182.578 Z-5.900 F3000.000 
G1 X368.446 Y182.117 Z-5.900 F3000.000 
G1 X368.562 Y181.633 Z-5.900 F3000.000 
G1 X368.601 Y181.136 Z-5.900 F3000.000 
G1 X368.601 Y-588.352 Z-5.900 F3000.000 
G1 X368.553 Y-588.904 Z-5.900 F3000.000 
G1 X368.428 Y-589.386 Z-5.900 F3000.000 
G1 X368.229 Y-589.843 Z-5.900 F3000.000 
G1 X367.962 Y-590.263 Z-5.900 F3000.000 
G1 X367.632 Y-590.636 Z-5.900 F3000.000 
G1 X367.247 Y-590.953 Z-5.900 F3000.000 
G1 X366.818 Y-591.206 Z-5.900 F3000.000 
G1 X366.354 Y-591.389 Z-5.900 F3000.000 
G1 X365.868 Y-591.496 Z-5.900 F3000.000 
G1 X252.680 Y-607.404 Z-5.900 F3000.000 
G1 X251.983 Y-607.424 Z-5.900 F3000.000 
G1 X251.491 Y-607.345 Z-5.900 F3000.000 
G1 X251.017 Y-607.191 Z-5.900 F3000.000 
G1 X250.574 Y-606.963 Z-5.900 F3000.000 
G1 X250.171 Y-606.670 Z-5.900 F3000.000 
G1 X249.820 Y-606.317 Z-5.900 F3000.000 
G1 X249.528 Y-605.913 Z-5.900 F3000.000 
G1 X249.303 Y-605.469 Z-5.900 F3000.000 
G1 X249.150 Y-604.995 Z-5.900 F3000.000 
G1 X249.073 Y-604.502 Z-5.900 F3000.000 
G1 X249.074 Y-604.004 Z-5.900 F3000.000 
G1 X311.956 Y174.322 Z-5.900 F3000.000 
G1 X311.994 Y174.618 Z-5.900 F3000.000 
G1 X312.118 Y175.100 Z-5.900 F3000.000 
G1 X312.317 Y175.557 Z-5.900 F3000.000 
G1 X312.585 Y175.977 Z-5.900 F3000.000 
G1 X312.915 Y176.350 Z-5.900 F3000.000 
G1 X313.299 Y176.667 Z-5.900 F3000.000 
G1 X313.729 Y176.920 Z-5.900 F3000.000 
G1 X314.192 Y177.103 Z-5.900 F3000.000 
G1 X314.679 Y177.210 Z-5.900 F3000.000 
G1 X364.984 Y184.280 Z-5.900 F3000.000 
G1 X365.426 Y184.311 Z-5.900 F3000.000 
G1 X365.923 Y184.272 Z-5.900 F3000.000 
G1 X366.407 Y184.156 Z-5.900 F3000.000 
G1 X366.867 Y183.965 Z-5.900 F3000.000 
G1 X367.292 Y183.705 Z-5.900 F3000.000 
G1 X367.671 Y183.381 Z-5.900 F3000.000 
G1 X367.671 Y183.381 Z-11.900 F180.000 
G1 X367.995 Y183.003 Z-11.900 F3000.000 
G1 X368.255 Y182.578 Z-11.900 F3000.000 
G1 X368.446 Y182.117 Z-11.900 F3000.000 
G1 X368.562 Y181.633 Z-11.900 F3000.000 
G1 X368.601 Y181.136 Z-11.900 F3000.000 
G1 X368.601 Y-588.352 Z-11.900 F3000.000 
G1 X368.553 Y-588.904 Z-11.900 F3000.000 
G1 X368.428 Y-589.386 Z-11.900 F3000.000 
G1 X368.229 Y-589.843 Z-11.900 F3000.000 
G1 X367.962 Y-590.263 Z-11.900 F3000.000 
G1 X367.632 Y-590.636 Z-11.900 F3000.000 
G1 X367.247 Y-590.953 Z-11.900 F3000.000 
G1 X366.818 Y-591.206 Z-11.900 F3000.000 
G1 X366.354 Y-591.389 Z-11.900 F3000.000 
G1 X365.868 Y-591.496 Z-11.900 F3000.000 
G1 X252.680 Y-607.404 Z-11.900 F3000.000 
G1 X251.983 Y-607.424 Z-11.900 F3000.000 
G1 X251.491 Y-607.345 Z-11.900 F3000.000 
G1 X251.017 Y-607.191 Z-11.900 F3000.000 
G1 X250.574 Y-606.963 Z-11.900 F3000.000 
G1 X250.171 Y-606.670 Z-11.900 F3000.000 
G1 X249.820 Y-606.317 Z-11.900 F3000.000 
G1 X249.528 Y-605.913 Z-11.900 F3000.000 
G1 X249.303 Y-605.469 Z-11.900 F3000.000 
G1 X249.150 Y-604.995 Z-11.900 F3000.000 
G1 X249.073 Y-604.502 Z-11.900 F3000.000 
G1 X249.074 Y-604.004 Z-11.900 F3000.000 
G1 X311.956 Y174.322 Z-11.900 F3000.000 
G1 X311.994 Y174.618 Z-11.900 F3000.000 
G1 X312.118 Y175.100 Z-11.900 F3000.000 
G1 X312.317 Y175.557 Z-11.900 F3000.000 
G1 X312.585 Y175.977 Z-11.900 F3000.000 
G1 X312.915 Y176.350 Z-11.900 F3000.000 
G1 X313.299 Y176.667 Z-11.900 F3000.000 
G1 X313.729 Y176.920 Z-11.900 F3000.000 
G1 X314.192 Y177.103 Z-11.900 F3000.000 
G1 X314.679 Y177.210 Z-11.900 F3000.000 
G1 X364.984 Y184.280 Z-11.900 F3000.000 
G1 X365.426 Y184.311 Z-11.900 F3000.000 
G1 X365.923 Y184.272 Z-11.900 F3000.000 
G1 X366.407 Y184.156 Z-11.900 F3000.000 
G1 X366.867 Y183.965 Z-11.900 F3000.000 
G1 X367.292 Y183.705 Z-11.900 F3000.000 
G1 X367.671 Y183.381 Z-11.900 F3000.000 
G1 X367.671 Y183.381 Z-11.906 F180.000 
G1 X367.995 Y183.003 Z-11.906 F3000.000 
G1 X368.255 Y182.578 Z-11.906 F3000.000 
G1 X368.446 Y182.117 Z-11.906 F3000.000 
G1 X368.562 Y181.633 Z-11.906 F3000.000 
G1 X368.601 Y181.136 Z-11.906 F3000.000 
G1 X368.601 Y-588.352 Z-11.906 F3000.000 
G1 X368.553 Y-588.904 Z-11.906 F3000.000 
G1 X368.428 Y-589.386 Z-11.906 F3000.000 
G1 X368.229 Y-589.843 Z-11.906 F3000.000 
G1 X367.962 Y-590.263 Z-11.906 F3000.000 
G1 X367.632 Y-590.636 Z-11.906 F3000.000 
G1 X367.247 Y-590.953 Z-11.906 F3000.000 
G1 X366.818 Y-591.206 Z-11.906 F3000.000 
G1 X366.354 Y-591.389 Z-11.906 F3000.000 
G1 X365.868 Y-591.496 Z-11.906 F3000.000 
G1 X252.680 Y-607.404 Z-11.906 F3000.000 
G1 X251.983 Y-607.424 Z-11.906 F3000.000 
G1 X251.491 Y-607.345 Z-11.906 F3000.000 
G1 X251.017 Y-607.191 Z-11.906 F3000.000 
G1 X250.574 Y-606.963 Z-11.906 F3000.000 
G1 X250.171 Y-606.670 Z-11.906 F3000.000 
G1 X249.820 Y-606.317 Z-11.906 F3000.000 
G1 X249.528 Y-605.913 Z-11.906 F3000.000 
G1 X249.303 Y-605.469 Z-11.906 F3000.000 
G1 X249.150 Y-604.995 Z-11.906 F3000.000 
G1 X249.073 Y-604.502 Z-11.906 F3000.000 
G1 X249.074 Y-604.004 Z-11.906 F3000.000 
G1 X311.956 Y174.322 Z-11.906 F3000.000 
G1 X311.994 Y174.618 Z-11.906 F3000.000 
G1 X312.118 Y175.100 Z-11.906 F3000.000 
G1 X312.317 Y175.557 Z-11.906 F3000.000 
G1 X312.585 Y175.977 Z-11.906 F3000.000 
G1 X312.915 Y176.350 Z-11.906 F3000.000 
G1 X313.299 Y176.667 Z-11.906 F3000.000 
G1 X313.729 Y176.920 Z-11.906 F3000.000 
G1 X314.192 Y177.103 Z-11.906 F3000.000 
G1 X314.679 Y177.210 Z-11.906 F3000.000 
G1 X364.984 Y184.280 Z-11.906 F3000.000 
G1 X365.426 Y184.311 Z-11.906 F3000.000 
G1 X365.923 Y184.272 Z-11.906 F3000.000 
G1 X366.407 Y184.156 Z-11.906 F3000.000 
G1 X366.867 Y183.965 Z-11.906 F3000.000 
G1 X367.292 Y183.705 Z-11.906 F3000.000 
G1 X367.671 Y183.381 Z-11.906 F3000.000 
G0 X367.671 Y183.381 Z5.000 
(finish operation: DressupTag005)
(begin operation: DressupTag006)
(machine units: mm/min)
G0 Z5.000 
G0 X838.128 Y394.357 Z5.000 
G1 X838.128 Y394.357 Z-5.900 F180.000 
G1 X838.610 Y394.232 Z-5.900 F3000.000 
G1 X839.067 Y394.033 Z-5.900 F3000.000 
G1 X839.487 Y393.766 Z-5.900 F3000.000 
G1 X839.861 Y393.435 Z-5.900 F3000.000 
G1 X840.178 Y393.051 Z-5.900 F3000.000 
G1 X840.430 Y392.622 Z-5.900 F3000.000 
G1 X840.613 Y392.158 Z-5.900 F3000.000 
G1 X840.721 Y391.672 Z-5.900 F3000.000 
G1 X847.791 Y341.366 Z-5.900 F3000.000 
G1 X847.822 Y340.924 Z-5.900 F3000.000 
G1 X847.783 Y340.428 Z-5.900 F3000.000 
G1 X847.666 Y339.943 Z-5.900 F3000.000 
G1 X847.476 Y339.483 Z-5.900 F3000.000 
G1 X847.215 Y339.058 Z-5.900 F3000.000 
G1 X846.892 Y338.679 Z-5.900 F3000.000 
G1 X846.513 Y338.356 Z-5.900 F3000.000 
G1 X846.088 Y338.095 Z-5.900 F3000.000 
G1 X845.628 Y337.905 Z-5.900 F3000.000 
G1 X845.143 Y337.788 Z-5.900 F3000.000 
G1 X844.647 Y337.749 Z-5.900 F3000.000 
G1 X75.158 Y337.749 Z-5.900 F3000.000 
G1 X74.607 Y337.797 Z-5.900 F3000.000 
G1 X74.124 Y337.922 Z-5.900 F3000.000 
G1 X73.668 Y338.121 Z-5.900 F3000.000 
G1 X73.247 Y338.389 Z-5.900 F3000.000 
G1 X72.874 Y338.719 Z-5.900 F3000.000 
G1 X72.557 Y339.103 Z-5.900 F3000.000 
G1 X72.304 Y339.532 Z-5.900 F3000.000 
G1 X72.122 Y339.996 Z-5.900 F3000.000 
G1 X72.014 Y340.482 Z-5.900 F3000.000 
G1 X56.107 Y453.670 Z-5.900 F3000.000 
G1 X56.086 Y454.368 Z-5.900 F3000.000 
G1 X56.165 Y454.859 Z-5.900 F3000.000 
G1 X56.320 Y455.333 Z-5.900 F3000.000 
G1 X56.547 Y455.776 Z-5.900 F3000.000 
G1 X56.841 Y456.179 Z-5.900 F3000.000 
G1 X57.194 Y456.530 Z-5.900 F3000.000 
G1 X57.597 Y456.822 Z-5.900 F3000.000 
G1 X58.042 Y457.048 Z-5.900 F3000.000 
G1 X58.516 Y457.201 Z-5.900 F3000.000 
G1 X59.008 Y457.278 Z-5.900 F3000.000 
G1 X59.506 Y457.277 Z-5.900 F3000.000 
G1 X837.832 Y394.395 Z-5.900 F3000.000 
G1 X838.128 Y394.357 Z-5.900 F3000.000 
G1 X838.128 Y394.357 Z-11.900 F180.000 
G1 X838.610 Y394.232 Z-11.900 F3000.000 
G1 X839.067 Y394.033 Z-11.900 F3000.000 
G1 X839.487 Y393.766 Z-11.900 F3000.000 
G1 X839.861 Y393.435 Z-11.900 F3000.000 
G1 X840.178 Y393.051 Z-11.900 F3000.000 
G1 X840.430 Y392.622 Z-11.900 F3000.000 
G1 X840.613 Y392.158 Z-11.900 F3000.000 
G1 X840.721 Y391.672 Z-11.900 F3000.000 
G1 X847.791 Y341.366 Z-11.900 F3000.000 
G1 X847.822 Y340.924 Z-11.900 F3000.000 
G1 X847.783 Y340.428 Z-11.900 F3000.000 
G1 X847.666 Y339.943 Z-11.900 F3000.000 
G1 X847.476 Y339.483 Z-11.900 F3000.000 
G1 X847.215 Y339.058 Z-11.900 F3000.000 
G1 X846.892 Y338.679 Z-11.900 F3000.000 
G1 X846.513 Y338.356 Z-11.900 F3000.000 
G1 X846.088 Y338.095 Z-11.900 F3000.000 
G1 X845.628 Y337.905 Z-11.900 F3000.000 
G1 X845.143 Y337.788 Z-11.900 F3000.000 
G1 X844.647 Y337.749 Z-11.900 F3000.000 
G1 X75.158 Y337.749 Z-11.900 F3000.000 
G1 X74.607 Y337.797 Z-11.900 F3000.000 
G1 X74.124 Y337.922 Z-11.900 F3000.000 
G1 X73.668 Y338.121 Z-11.900 F3000.000 
G1 X73.247 Y338.389 Z-11.900 F3000.000 
G1 X72.874 Y338.719 Z-11.900 F3000.000 
G1 X72.557 Y339.103 Z-11.900 F3000.000 
G1 X72.304 Y339.532 Z-11.900 F3000.000 
G1 X72.122 Y339.996 Z-11.900 F3000.000 
G1 X72.014 Y340.482 Z-11.900 F3000.000 
G1 X56.107 Y453.670 Z-11.900 F3000.000 
G1 X56.086 Y454.368 Z-11.900 F3000.000 
G1 X56.165 Y454.859 Z-11.900 F3000.000 
G1 X56.320 Y455.333 Z-11.900 F3000.000 
G1 X56.547 Y455.776 Z-11.900 F3000.000 
G1 X56.841 Y456.179 Z-11.900 F3000.000 
G1 X57.194 Y456.530 Z-11.900 F3000.000 
G1 X57.597 Y456.822 Z-11.900 F3000.000 
G1 X58.042 Y457.048 Z-11.900 F3000.000 
G1 X58.516 Y457.201 Z-11.900 F3000.000 
G1 X59.008 Y457.278 Z-11.900 F3000.000 
G1 X59.506 Y457.277 Z-11.900 F3000.000 
G1 X837.832 Y394.395 Z-11.900 F3000.000 
G1 X838.128 Y394.357 Z-11.900 F3000.000 
G1 X838.128 Y394.357 Z-11.906 F180.000 
G1 X838.610 Y394.232 Z-11.906 F3000.000 
G1 X839.067 Y394.033 Z-11.906 F3000.000 
G1 X839.487 Y393.766 Z-11.906 F3000.000 
G1 X839.861 Y393.435 Z-11.906 F3000.000 
G1 X840.178 Y393.051 Z-11.906 F3000.000 
G1 X840.430 Y392.622 Z-11.906 F3000.000 
G1 X840.613 Y392.158 Z-11.906 F3000.000 
G1 X840.721 Y391.672 Z-11.906 F3000.000 
G1 X847.791 Y341.366 Z-11.906 F3000.000 
G1 X847.822 Y340.924 Z-11.906 F3000.000 
G1 X847.783 Y340.428 Z-11.906 F3000.000 
G1 X847.666 Y339.943 Z-11.906 F3000.000 
G1 X847.476 Y339.483 Z-11.906 F3000.000 
G1 X847.215 Y339.058 Z-11.906 F3000.000 
G1 X846.892 Y338.679 Z-11.906 F3000.000 
G1 X846.513 Y338.356 Z-11.906 F3000.000 
G1 X846.088 Y338.095 Z-11.906 F3000.000 
G1 X845.628 Y337.905 Z-11.906 F3000.000 
G1 X845.143 Y337.788 Z-11.906 F3000.000 
G1 X844.647 Y337.749 Z-11.906 F3000.000 
G1 X75.158 Y337.749 Z-11.906 F3000.000 
G1 X74.607 Y337.797 Z-11.906 F3000.000 
G1 X74.124 Y337.922 Z-11.906 F3000.000 
G1 X73.668 Y338.121 Z-11.906 F3000.000 
G1 X73.247 Y338.389 Z-11.906 F3000.000 
G1 X72.874 Y338.719 Z-11.906 F3000.000 
G1 X72.557 Y339.103 Z-11.906 F3000.000 
G1 X72.304 Y339.532 Z-11.906 F3000.000 
G1 X72.122 Y339.996 Z-11.906 F3000.000 
G1 X72.014 Y340.482 Z-11.906 F3000.000 
G1 X56.107 Y453.670 Z-11.906 F3000.000 
G1 X56.086 Y454.368 Z-11.906 F3000.000 
G1 X56.165 Y454.859 Z-11.906 F3000.000 
G1 X56.320 Y455.333 Z-11.906 F3000.000 
G1 X56.547 Y455.776 Z-11.906 F3000.000 
G1 X56.841 Y456.179 Z-11.906 F3000.000 
G1 X57.194 Y456.530 Z-11.906 F3000.000 
G1 X57.597 Y456.822 Z-11.906 F3000.000 
G1 X58.042 Y457.048 Z-11.906 F3000.000 
G1 X58.516 Y457.201 Z-11.906 F3000.000 
G1 X59.008 Y457.278 Z-11.906 F3000.000 
G1 X59.506 Y457.277 Z-11.906 F3000.000 
G1 X837.832 Y394.395 Z-11.906 F3000.000 
G1 X838.128 Y394.357 Z-11.906 F3000.000 
G0 X838.128 Y394.357 Z5.000 
(finish operation: DressupTag006)
(begin operation: DressupTag007)
(machine units: mm/min)
G0 Z5.000 
G0 X503.645 Y197.381 Z5.000 
G1 X503.645 Y197.381 Z-5.900 F180.000 
G1 X503.826 Y197.199 Z-5.900 F3000.000 
G1 X504.118 Y196.795 Z-5.900 F3000.000 
G1 X504.344 Y196.351 Z-5.900 F3000.000 
G1 X504.497 Y195.877 Z-5.900 F3000.000 
G1 X504.574 Y195.384 Z-5.900 F3000.000 
G1 X504.573 Y194.886 Z-5.900 F3000.000 
G1 X441.690 Y-583.440 Z-5.900 F3000.000 
G1 X441.653 Y-583.736 Z-5.900 F3000.000 
G1 X441.528 Y-584.218 Z-5.900 F3000.000 
G1 X441.329 Y-584.675 Z-5.900 F3000.000 
G1 X441.061 Y-585.095 Z-5.900 F3000.000 
G1 X440.731 Y-585.468 Z-5.900 F3000.000 
G1 X440.347 Y-585.785 Z-5.900 F3000.000 
G1 X439.918 Y-586.038 Z-5.900 F3000.000 
G1 X439.454 Y-586.221 Z-5.900 F3000.000 
G1 X438.968 Y-586.328 Z-5.900 F3000.000 
G1 X388.662 Y-593.398 Z-5.900 F3000.000 
G1 X388.220 Y-593.429 Z-5.900 F3000.000 
G1 X387.724 Y-593.390 Z-5.900 F3000.000 
G1 X387.239 Y-593.274 Z-5.900 F3000.000 
G1 X386.779 Y-593.083 Z-5.900 F3000.000 
G1 X386.354 Y-592.823 Z-5.900 F3000.000 
G1 X385.975 Y-592.499 Z-5.900 F3000.000 
G1 X385.652 Y-592.121 Z-5.900 F3000.000 
G1 X385.391 Y-591.696 Z-5.900 F3000.000 
G1 X385.201 Y-591.235 Z-5.900 F3000.000 
G1 X385.084 Y-590.751 Z-5.900 F3000.000 
G1 X385.045 Y-590.254 Z-5.900 F3000.000 
G1 X385.045 Y179.234 Z-5.900 F3000.000 
G1 X385.093 Y179.786 Z-5.900 F3000.000 
G1 X385.218 Y180.268 Z-5.900 F3000.000 
G1 X385.417 Y180.725 Z-5.900 F3000.000 
G1 X385.685 Y181.145 Z-5.900 F3000.000 
G1 X386.015 Y181.518 Z-5.900 F3000.000 
G1 X386.399 Y181.835 Z-5.900 F3000.000 
G1 X386.828 Y182.088 Z-5.900 F3000.000 
G1 X387.292 Y182.271 Z-5.900 F3000.000 
G1 X387.778 Y182.378 Z-5.900 F3000.000 
G1 X500.966 Y198.286 Z-5.900 F3000.000 
G1 X501.664 Y198.306 Z-5.900 F3000.000 
G1 X502.155 Y198.227 Z-5.900 F3000.000 
G1 X502.629 Y198.073 Z-5.900 F3000.000 
G1 X503.072 Y197.845 Z-5.900 F3000.000 
G1 X503.475 Y197.552 Z-5.900 F3000.000 
G1 X503.645 Y197.381 Z-5.900 F3000.000 
G1 X503.645 Y197.381 Z-11.900 F180.000 
G1 X503.826 Y197.199 Z-11.900 F3000.000 
G1 X504.118 Y196.795 Z-11.900 F3000.000 
G1 X504.344 Y196.351 Z-11.900 F3000.000 
G1 X504.497 Y195.877 Z-11.900 F3000.000 
G1 X504.574 Y195.384 Z-11.900 F3000.000 
G1 X504.573 Y194.886 Z-11.900 F3000.000 
G1 X441.690 Y-583.440 Z-11.900 F3000.000 
G1 X441.653 Y-583.736 Z-11.900 F3000.000 
G1 X441.528 Y-584.218 Z-11.900 F3000.000 
G1 X441.329 Y-584.675 Z-11.900 F3000.000 
G1 X441.061 Y-585.095 Z-11.900 F3000.000 
G1 X440.731 Y-585.468 Z-11.900 F3000.000 
G1 X440.347 Y-585.785 Z-11.900 F3000.000 
G1 X439.918 Y-586.038 Z-11.900 F3000.000 
G1 X439.454 Y-586.221 Z-11.900 F3000.000 
G1 X438.968 Y-586.328 Z-11.900 F3000.000 
G1 X388.662 Y-593.398 Z-11.900 F3000.000 
G1 X388.220 Y-593.429 Z-11.900 F3000.000 
G1 X387.724 Y-593.390 Z-11.900 F3000.000 
G1 X387.239 Y-593.274 Z-11.900 F3000.000 
G1 X386.779 Y-593.083 Z-11.900 F3000.000 
G1 X386.354 Y-592.823 Z-11.900 F3000.000 
G1 X385.975 Y-592.499 Z-11.900 F3000.000 
G1 X385.652 Y-592.121 Z-11.900 F3000.000 
G1 X385.391 Y-591.696 Z-11.900 F3000.000 
G1 X385.201 Y-591.235 Z-11.900 F3000.000 
G1 X385.084 Y-590.751 Z-11.900 F3000.000 
G1 X385.045 Y-590.254 Z-11.900 F3000.000 
G1 X385.045 Y179.234 Z-11.900 F3000.000 
G1 X385.093 Y179.786 Z-11.900 F3000.000 
G1 X385.218 Y180.268 Z-11.900 F3000.000 
G1 X385.417 Y180.725 Z-11.900 F3000.000 
G1 X385.685 Y181.145 Z-11.900 F3000.000 
G1 X386.015 Y181.518 Z-11.900 F3000.000 
G1 X386.399 Y181.835 Z-11.900 F3000.000 
G1 X386.828 Y182.088 Z-11.900 F3000.000 
G1 X387.292 Y182.271 Z-11.900 F3000.000 
G1 X387.778 Y182.378 Z-11.900 F3000.000 
G1 X500.966 Y198.286 Z-11.900 F3000.000 
G1 X501.664 Y198.306 Z-11.900 F3000.000 
G1 X502.155 Y198.227 Z-11.900 F3000.000 
G1 X502.629 Y198.073 Z-11.900 F3000.000 
G1 X503.072 Y197.845 Z-11.900 F3000.000 
G1 X503.475 Y197.552 Z-11.900 F3000.000 
G1 X503.645 Y197.381 Z-11.900 F3000.000 
G1 X503.645 Y197.381 Z-11.906 F180.000 
G1 X503.826 Y197.199 Z-11.906 F3000.000 
G1 X504.118 Y196.795 Z-11.906 F3000.000 
G1 X504.344 Y196.351 Z-11.906 F3000.000 
G1 X504.497 Y195.877 Z-11.906 F3000.000 
G1 X504.574 Y195.384 Z-11.906 F3000.000 
G1 X504.573 Y194.886 Z-11.906 F3000.000 
G1 X441.690 Y-583.440 Z-11.906 F3000.000 
G1 X441.653 Y-583.736 Z-11.906 F3000.000 
G1 X441.528 Y-584.218 Z-11.906 F3000.000 
G1 X441.329 Y-584.675 Z-11.906 F3000.000 
G1 X441.061 Y-585.095 Z-11.906 F3000.000 
G1 X440.731 Y-585.468 Z-11.906 F3000.000 
G1 X440.347 Y-585.785 Z-11.906 F3000.000 
G1 X439.918 Y-586.038 Z-11.906 F3000.000 
G1 X439.454 Y-586.221 Z-11.906 F3000.000 
G1 X438.968 Y-586.328 Z-11.906 F3000.000 
G1 X388.662 Y-593.398 Z-11.906 F3000.000 
G1 X388.220 Y-593.429 Z-11.906 F3000.000 
G1 X387.724 Y-593.390 Z-11.906 F3000.000 
G1 X387.239 Y-593.274 Z-11.906 F3000.000 
G1 X386.779 Y-593.083 Z-11.906 F3000.000 
G1 X386.354 Y-592.823 Z-11.906 F3000.000 
G1 X385.975 Y-592.499 Z-11.906 F3000.000 
G1 X385.652 Y-592.121 Z-11.906 F3000.000 
G1 X385.391 Y-591.696 Z-11.906 F3000.000 
G1 X385.201 Y-591.235 Z-11.906 F3000.000 
G1 X385.084 Y-590.751 Z-11.906 F3000.000 
G1 X385.045 Y-590.254 Z-11.906 F3000.000 
G1 X385.045 Y179.234 Z-11.906 F3000.000 
G1 X385.093 Y179.786 Z-11.906 F3000.000 
G1 X385.218 Y180.268 Z-11.906 F3000.000 
G1 X385.417 Y180.725 Z-11.906 F3000.000 
G1 X385.685 Y181.145 Z-11.906 F3000.000 
G1 X386.015 Y181.518 Z-11.906 F3000.000 
G1 X386.399 Y181.835 Z-11.906 F3000.000 
G1 X386.828 Y182.088 Z-11.906 F3000.000 
G1 X387.292 Y182.271 Z-11.906 F3000.000 
G1 X387.778 Y182.378 Z-11.906 F3000.000 
G1 X500.966 Y198.286 Z-11.906 F3000.000 
G1 X501.664 Y198.306 Z-11.906 F3000.000 
G1 X502.155 Y198.227 Z-11.906 F3000.000 
G1 X502.629 Y198.073 Z-11.906 F3000.000 
G1 X503.072 Y197.845 Z-11.906 F3000.000 
G1 X503.475 Y197.552 Z-11.906 F3000.000 
G1 X503.645 Y197.381 Z-11.906 F3000.000 
G0 X503.645 Y197.381 Z5.000 
(finish operation: DressupTag007)
(begin operation: DressupTag008)
(machine units: mm/min)
G0 Z5.000 
G0 X18.623 Y530.042 Z5.000 
G1 X18.623 Y530.042 Z-5.900 F180.000 
G1 X32.902 Y428.442 Z-5.900 F3000.000 
G1 X32.933 Y428.000 Z-5.900 F3000.000 
G1 X32.894 Y427.503 Z-5.900 F3000.000 
G1 X32.778 Y427.019 Z-5.900 F3000.000 
G1 X32.587 Y426.559 Z-5.900 F3000.000 
G1 X32.327 Y426.134 Z-5.900 F3000.000 
G1 X32.003 Y425.755 Z-5.900 F3000.000 
G1 X31.624 Y425.431 Z-5.900 F3000.000 
G1 X31.199 Y425.171 Z-5.900 F3000.000 
G1 X30.739 Y424.980 Z-5.900 F3000.000 
G1 X30.255 Y424.864 Z-5.900 F3000.000 
G1 X29.758 Y424.825 Z-5.900 F3000.000 
G1 X-174.598 Y424.825 Z-5.900 F3000.000 
G1 X-175.095 Y424.825 Z-5.403 F1590.000 
G1 X-181.309 Y424.825 Z-5.403 F3000.000 
G1 X-181.805 Y424.825 Z-5.900 F1590.000 
G1 X-590.517 Y424.825 Z-5.900 F3000.000 
G1 X-591.014 Y424.825 Z-5.403 F1590.000 
G1 X-597.228 Y424.825 Z-5.403 F3000.000 
G1 X-597.725 Y424.825 Z-5.900 F1590.000 
G1 X-1006.437 Y424.825 Z-5.900 F3000.000 
G1 X-1006.934 Y424.825 Z-5.403 F1590.000 
G1 X-1013.147 Y424.825 Z-5.403 F3000.000 
G1 X-1013.644 Y424.825 Z-5.900 F1590.000 
G1 X-1218.000 Y424.825 Z-5.900 F3000.000 
G1 X-1218.442 Y424.856 Z-5.900 F3000.000 
G1 X-1218.928 Y424.964 Z-5.900 F3000.000 
G1 X-1219.392 Y425.146 Z-5.900 F3000.000 
G1 X-1219.821 Y425.399 Z-5.900 F3000.000 
G1 X-1220.206 Y425.716 Z-5.900 F3000.000 
G1 X-1220.536 Y426.089 Z-5.900 F3000.000 
G1 X-1220.803 Y426.509 Z-5.900 F3000.000 
G1 X-1221.002 Y426.966 Z-5.900 F3000.000 
G1 X-1221.127 Y427.449 Z-5.900 F3000.000 
G1 X-1221.175 Y427.945 Z-5.900 F3000.000 
G1 X-1221.144 Y428.442 Z-5.900 F3000.000 
G1 X-1206.865 Y530.042 Z-5.900 F3000.000 
G1 X-1206.741 Y530.581 Z-5.900 F3000.000 
G1 X-1206.550 Y531.041 Z-5.900 F3000.000 
G1 X-1206.290 Y531.466 Z-5.900 F3000.000 
G1 X-1205.966 Y531.845 Z-5.900 F3000.000 
G1 X-1205.587 Y532.169 Z-5.900 F3000.000 
G1 X-1205.162 Y532.429 Z-5.900 F3000.000 
G1 X-1204.702 Y532.620 Z-5.900 F3000.000 
G1 X-1204.218 Y532.736 Z-5.900 F3000.000 
G1 X-1203.721 Y532.775 Z-5.900 F3000.000 
G1 X-1004.125 Y532.775 Z-5.900 F3000.000 
G1 X-1003.628 Y532.775 Z-5.403 F1590.000 
G1 X-997.414 Y532.775 Z-5.403 F3000.000 
G1 X-996.917 Y532.775 Z-5.900 F1590.000 
G1 X-597.725 Y532.775 Z-5.900 F3000.000 
G1 X-597.228 Y532.775 Z-5.403 F1590.000 
G1 X-591.014 Y532.775 Z-5.403 F3000.000 
G1 X-590.517 Y532.775 Z-5.900 F1590.000 
G1 X-191.325 Y532.775 Z-5.900 F3000.000 
G1 X-190.828 Y532.775 Z-5.403 F1590.000 
G1 X-184.614 Y532.775 Z-5.403 F3000.000 
G1 X-184.117 Y532.775 Z-5.900 F1590.000 
G1 X15.479 Y532.775 Z-5.900 F3000.000 
G1 X16.030 Y532.727 Z-5.900 F3000.000 
G1 X16.513 Y532.602 Z-5.900 F3000.000 
G1 X16.970 Y532.403 Z-5.900 F3000.000 
G1 X17.390 Y532.136 Z-5.900 F3000.000 
G1 X17.763 Y531.806 Z-5.900 F3000.000 
G1 X18.080 Y531.421 Z-5.900 F3000.000 
G1 X18.333 Y530.992 Z-5.900 F3000.000 
G1 X18.515 Y530.528 Z-5.900 F3000.000 
G1 X18.623 Y530.042 Z-5.900 F3000.000 
G1 X18.623 Y530.042 Z-11.900 F180.000 
G1 X32.902 Y428.442 Z-11.900 F3000.000 
G1 X32.933 Y428.000 Z-11.900 F3000.000 
G1 X32.894 Y427.503 Z-11.900 F3000.000 
G1 X32.778 Y427.019 Z-11.900 F3000.000 
G1 X32.587 Y426.559 Z-11.900 F3000.000 
G1 X32.327 Y426.134 Z-11.900 F3000.000 
G1 X32.003 Y425.755 Z-11.900 F3000.000 
G1 X31.624 Y425.431 Z-11.900 F3000.000 
G1 X31.199 Y425.171 Z-11.900 F3000.000 
G1 X30.739 Y424.980 Z-11.900 F3000.000 
G1 X30.255 Y424.864 Z-11.900 F3000.000 
G1 X29.758 Y424.825 Z-11.900 F3000.000 
G1 X-168.598 Y424.825 Z-11.900 F3000.000 
G1 X-175.095 Y424.825 Z-5.403 F1590.000 
G1 X-181.309 Y424.825 Z-5.403 F3000.000 
G1 X-187.805 Y424.825 Z-11.900 F1590.000 
G1 X-584.517 Y424.825 Z-11.900 F3000.000 
G1 X-591.014 Y424.825 Z-5.403 F1590.000 
G1 X-597.228 Y424.825 Z-5.403 F3000.000 
G1 X-603.725 Y424.825 Z-11.900 F1590.000 
G1 X-1000.437 Y424.825 Z-11.900 F3000.000 
G1 X-1006.934 Y424.825 Z-5.403 F1590.000 
G1 X-1013.147 Y424.825 Z-5.403 F3000.000 
G1 X-1019.644 Y424.825 Z-11.900 F1590.000 
G1 X-1218.000 Y424.825 Z-11.900 F3000.000 
G1 X-1218.442 Y424.856 Z-11.900 F3000.000 
G1 X-1218.928 Y424.964 Z-11.900 F3000.000 
G1 X-1219.392 Y425.146 Z-11.900 F3000.000 
G1 X-1219.821 Y425.399 Z-11.900 F3000.000 
G1 X-1220.206 Y425.716 Z-11.900 F3000.000 
G1 X-1220.536 Y426.089 Z-11.900 F3000.000 
G1 X-1220.803 Y426.509 Z-11.900 F3000.000 
G1 X-1221.002 Y426.966 Z-11.900 F3000.000 
G1 X-1221.127 Y427.449 Z-11.900 F3000.000 
G1 X-1221.175 Y427.945 Z-11.900 F3000.000 
G1 X-1221.144 Y428.442 Z-11.900 F3000.000 
G1 X-1206.865 Y530.042 Z-11.900 F3000.000 
G1 X-1206.741 Y530.581 Z-11.900 F3000.000 
G1 X-1206.550 Y531.041 Z-11.900 F3000.000 
G1 X-1206.290 Y531.466 Z-11.900 F3000.000 
G1 X-1205.966 Y531.845 Z-11.900 F3000.000 
G1 X-1205.587 Y532.169 Z-11.900 F3000.000 
G1 X-1205.162 Y532.429 Z-11.900 F3000.000 
G1 X-1204.702 Y532.620 Z-11.900 F3000.000 
G1 X-1204.218 Y532.736 Z-11.900 F3000.000 
G1 X-1203.721 Y532.775 Z-11.900 F3000.000 
G1 X-1010.125 Y532.775 Z-11.900 F3000.000 
G1 X-1003.628 Y532.775 Z-5.403 F1590.000 
G1 X-997.414 Y532.775 Z-5.403 F3000.000 
G1 X-990.917 Y532.775 Z-11.900 F1590.000 
G1 X-603.725 Y532.775 Z-11.900 F3000.000 
G1 X-597.228 Y532.775 Z-5.403 F1590.000 
G1 X-591.014 Y532.775 Z-5.403 F3000.000 
G1 X-584.517 Y532.775 Z-11.900 F1590.000 
G1 X-197.325 Y532.775 Z-11.900 F3000.000 
G1 X-190.828 Y532.775 Z-5.403 F1590.000 
G1 X-184.614 Y532.775 Z-5.403 F3000.000 
G1 X-178.117 Y532.775 Z-11.900 F1590.000 
G1 X15.479 Y532.775 Z-11.900 F3000.000 
G1 X16.030 Y532.727 Z-11.900 F3000.000 
G1 X16.513 Y532.602 Z-11.900 F3000.000 
G1 X16.970 Y532.403 Z-11.900 F3000.000 
G1 X17.390 Y532.136 Z-11.900 F3000.000 
G1 X17.763 Y531.806 Z-11.900 F3000.000 
G1 X18.080 Y531.421 Z-11.900 F3000.000 
G1 X18.333 Y530.992 Z-11.900 F3000.000 
G1 X18.515 Y530.528 Z-11.900 F3000.000 
G1 X18.623 Y530.042 Z-11.900 F3000.000 
G1 X18.623 Y530.042 Z-11.906 F180.000 
G1 X32.902 Y428.442 Z-11.906 F3000.000 
G1 X32.933 Y428.000 Z-11.906 F3000.000 
G1 X32.894 Y427.503 Z-11.906 F3000.000 
G1 X32.778 Y427.019 Z-11.906 F3000.000 
G1 X32.587 Y426.559 Z-11.906 F3000.000 
G1 X32.327 Y426.134 Z-11.906 F3000.000 
G1 X32.003 Y425.755 Z-11.906 F3000.000 
G1 X31.624 Y425.431 Z-11.906 F3000.000 
G1 X31.199 Y425.171 Z-11.906 F3000.000 
G1 X30.739 Y424.980 Z-11.906 F3000.000 
G1 X30.255 Y424.864 Z-11.906 F3000.000 
G1 X29.758 Y424.825 Z-11.906 F3000.000 
G1 X-168.592 Y424.825 Z-11.906 F3000.000 
G1 X-175.095 Y424.825 Z-5.403 F1590.000 
G1 X-181.309 Y424.825 Z-5.403 F3000.000 
G1 X-187.812 Y424.825 Z-11.906 F1590.000 
G1 X-584.511 Y424.825 Z-11.906 F3000.000 
G1 X-591.014 Y424.825 Z-5.403 F1590.000 
G1 X-597.228 Y424.825 Z-5.403 F3000.000 
G1 X-603.731 Y424.825 Z-11.906 F1590.000 
G1 X-1000.430 Y424.825 Z-11.906 F3000.000 
G1 X-1006.934 Y424.825 Z-5.403 F1590.000 
G1 X-1013.147 Y424.825 Z-5.403 F3000.000 
G1 X-1019.650 Y424.825 Z-11.906 F1590.000 
G1 X-1218.000 Y424.825 Z-11.906 F3000.000 
G1 X-1218.442 Y424.856 Z-11.906 F3000.000 
G1 X-1218.928 Y424.964 Z-11.906 F3000.000 
G1 X-1219.392 Y425.146 Z-11.906 F3000.000 
G1 X-1219.821 Y425.399 Z-11.906 F3000.000 
G1 X-1220.206 Y425.716 Z-11.906 F3000.000 
G1 X-1220.536 Y426.089 Z-11.906 F3000.000 
G1 X-1220.803 Y426.509 Z-11.906 F3000.000 
G1 X-1221.002 Y426.966 Z-11.906 F3000.000 
G1 X-1221.127 Y427.449 Z-11.906 F3000.000 
G1 X-1221.175 Y427.945 Z-11.906 F3000.000 
G1 X-1221.144 Y428.442 Z-11.906 F3000.000 
G1 X-1206.865 Y530.042 Z-11.906 F3000.000 
G1 X-1206.741 Y530.581 Z-11.906 F3000.000 
G1 X-1206.550 Y531.041 Z-11.906 F3000.000 
G1 X-1206.290 Y531.466 Z-11.906 F3000.000 
G1 X-1205.966 Y531.845 Z-11.906 F3000.000 
G1 X-1205.587 Y532.169 Z-11.906 F3000.000 
G1 X-1205.162 Y532.429 Z-11.906 F3000.000 
G1 X-1204.702 Y532.620 Z-11.906 F3000.000 
G1 X-1204.218 Y532.736 Z-11.906 F3000.000 
G1 X-1203.721 Y532.775 Z-11.906 F3000.000 
G1 X-1010.131 Y532.775 Z-11.906 F3000.000 
G1 X-1003.628 Y532.775 Z-5.403 F1590.000 
G1 X-997.414 Y532.775 Z-5.403 F3000.000 
G1 X-990.911 Y532.775 Z-11.906 F1590.000 
G1 X-603.731 Y532.775 Z-11.906 F3000.000 
G1 X-597.228 Y532.775 Z-5.403 F1590.000 
G1 X-591.014 Y532.775 Z-5.403 F3000.000 
G1 X-584.511 Y532.775 Z-11.906 F1590.000 
G1 X-197.331 Y532.775 Z-11.906 F3000.000 
G1 X-190.828 Y532.775 Z-5.403 F1590.000 
G1 X-184.614 Y532.775 Z-5.403 F3000.000 
G1 X-178.111 Y532.775 Z-11.906 F1590.000 
G1 X15.479 Y532.775 Z-11.906 F3000.000 
G1 X16.030 Y532.727 Z-11.906 F3000.000 
G1 X16.513 Y532.602 Z-11.906 F3000.000 
G1 X16.970 Y532.403 Z-11.906 F3000.000 
G1 X17.390 Y532.136 Z-11.906 F3000.000 
G1 X17.763 Y531.806 Z-11.906 F3000.000 
G1 X18.080 Y531.421 Z-11.906 F3000.000 
G1 X18.333 Y530.992 Z-11.906 F3000.000 
G1 X18.515 Y530.528 Z-11.906 F3000.000 
G1 X18.623 Y530.042 Z-11.906 F3000.000 
G0 X18.623 Y530.042 Z5.000 
(finish operation: DressupTag008)
(begin operation: DressupTag009)
(machine units: mm/min)
G0 Z5.000 
G0 X187.127 Y283.846 Z5.000 
G1 X187.127 Y283.846 Z-5.900 F180.000 
G1 X187.451 Y283.467 Z-5.900 F3000.000 
G1 X187.711 Y283.042 Z-5.900 F3000.000 
G1 X187.902 Y282.582 Z-5.900 F3000.000 
G1 X188.018 Y282.097 Z-5.900 F3000.000 
G1 X188.057 Y281.600 Z-5.900 F3000.000 
G1 X188.057 Y180.000 Z-5.900 F3000.000 
G1 X188.018 Y179.504 Z-5.900 F3000.000 
G1 X187.902 Y179.019 Z-5.900 F3000.000 
G1 X187.711 Y178.559 Z-5.900 F3000.000 
G1 X187.451 Y178.134 Z-5.900 F3000.000 
G1 X187.127 Y177.755 Z-5.900 F3000.000 
G1 X186.748 Y177.432 Z-5.900 F3000.000 
G1 X186.324 Y177.172 Z-5.900 F3000.000 
G1 X185.863 Y176.981 Z-5.900 F3000.000 
G1 X185.379 Y176.865 Z-5.900 F3000.000 
G1 X184.882 Y176.825 Z-5.900 F3000.000 
G1 X-388.999 Y176.825 Z-5.900 F3000.000 
G1 X-389.496 Y176.865 Z-5.900 F3000.000 
G1 X-389.980 Y176.981 Z-5.900 F3000.000 
G1 X-390.441 Y177.172 Z-5.900 F3000.000 
G1 X-390.865 Y177.432 Z-5.900 F3000.000 
G1 X-391.244 Y177.755 Z-5.900 F3000.000 
G1 X-391.568 Y178.134 Z-5.900 F3000.000 
G1 X-391.828 Y178.559 Z-5.900 F3000.000 
G1 X-392.019 Y179.019 Z-5.900 F3000.000 
G1 X-392.135 Y179.504 Z-5.900 F3000.000 
G1 X-392.174 Y180.000 Z-5.900 F3000.000 
G1 X-392.174 Y281.600 Z-5.900 F3000.000 
G1 X-392.135 Y282.097 Z-5.900 F3000.000 
G1 X-392.019 Y282.582 Z-5.900 F3000.000 
G1 X-391.828 Y283.042 Z-5.900 F3000.000 
G1 X-391.568 Y283.467 Z-5.900 F3000.000 
G1 X-391.244 Y283.846 Z-5.900 F3000.000 
G1 X-390.865 Y284.169 Z-5.900 F3000.000 
G1 X-390.441 Y284.429 Z-5.900 F3000.000 
G1 X-389.980 Y284.620 Z-5.900 F3000.000 
G1 X-389.496 Y284.736 Z-5.900 F3000.000 
G1 X-388.999 Y284.775 Z-5.900 F3000.000 
G1 X184.882 Y284.775 Z-5.900 F3000.000 
G1 X185.379 Y284.736 Z-5.900 F3000.000 
G1 X185.863 Y284.620 Z-5.900 F3000.000 
G1 X186.324 Y284.429 Z-5.900 F3000.000 
G1 X186.748 Y284.169 Z-5.900 F3000.000 
G1 X187.127 Y283.846 Z-5.900 F3000.000 
G1 X187.127 Y283.846 Z-11.900 F180.000 
G1 X187.451 Y283.467 Z-11.900 F3000.000 
G1 X187.711 Y283.042 Z-11.900 F3000.000 
G1 X187.902 Y282.582 Z-11.900 F3000.000 
G1 X188.018 Y282.097 Z-11.900 F3000.000 
G1 X188.057 Y281.600 Z-11.900 F3000.000 
G1 X188.057 Y180.000 Z-11.900 F3000.000 
G1 X188.018 Y179.504 Z-11.900 F3000.000 
G1 X187.902 Y179.019 Z-11.900 F3000.000 
G1 X187.711 Y178.559 Z-11.900 F3000.000 
G1 X187.451 Y178.134 Z-11.900 F3000.000 
G1 X187.127 Y177.755 Z-11.900 F3000.000 
G1 X186.748 Y177.432 Z-11.900 F3000.000 
G1 X186.324 Y177.172 Z-11.900 F3000.000 
G1 X185.863 Y176.981 Z-11.900 F3000.000 
G1 X185.379 Y176.865 Z-11.900 F3000.000 
G1 X184.882 Y176.825 Z-11.900 F3000.000 
G1 X-388.999 Y176.825 Z-11.900 F3000.000 
G1 X-389.496 Y176.865 Z-11.900 F3000.000 
G1 X-389.980 Y176.981 Z-11.900 F3000.000 
G1 X-390.441 Y177.172 Z-11.900 F3000.000 
G1 X-390.865 Y177.432 Z-11.900 F3000.000 
G1 X-391.244 Y177.755 Z-11.900 F3000.000 
G1 X-391.568 Y178.134 Z-11.900 F3000.000 
G1 X-391.828 Y178.559 Z-11.900 F3000.000 
G1 X-392.019 Y179.019 Z-11.900 F3000.000 
G1 X-392.135 Y179.504 Z-11.900 F3000.000 
G1 X-392.174 Y180.000 Z-11.900 F3000.000 
G1 X-392.174 Y281.600 Z-11.900 F3000.000 
G1 X-392.135 Y282.097 Z-11.900 F3000.000 
G1 X-392.019 Y282.582 Z-11.900 F3000.000 
G1 X-391.828 Y283.042 Z-11.900 F3000.000 
G1 X-391.568 Y283.467 Z-11.900 F3000.000 
G1 X-391.244 Y283.846 Z-11.900 F3000.000 
G1 X-390.865 Y284.169 Z-11.900 F3000.000 
G1 X-390.441 Y284.429 Z-11.900 F3000.000 
G1 X-389.980 Y284.620 Z-11.900 F3000.000 
G1 X-389.496 Y284.736 Z-11.900 F3000.000 
G1 X-388.999 Y284.775 Z-11.900 F3000.000 
G1 X184.882 Y284.775 Z-11.900 F3000.000 
G1 X185.379 Y284.736 Z-11.900 F3000.000 
G1 X185.863 Y284.620 Z-11.900 F3000.000 
G1 X186.324 Y284.429 Z-11.900 F3000.000 
G1 X186.748 Y284.169 Z-11.900 F3000.000 
G1 X187.127 Y283.846 Z-11.900 F3000.000 
G1 X187.127 Y283.846 Z-11.906 F180.000 
G1 X187.451 Y283.467 Z-11.906 F3000.000 
G1 X187.711 Y283.042 Z-11.906 F3000.000 
G1 X187.902 Y282.582 Z-11.906 F3000.000 
G1 X188.018 Y282.097 Z-11.906 F3000.000 
G1 X188.057 Y281.600 Z-11.906 F3000.000 
G1 X188.057 Y180.000 Z-11.906 F3000.000 
G1 X188.018 Y179.504 Z-11.906 F3000.000 
G1 X187.902 Y179.019 Z-11.906 F3000.000 
G1 X187.711 Y178.559 Z-11.906 F3000.000 
G1 X187.451 Y178.134 Z-11.906 F3000.000 
G1 X187.127 Y177.755 Z-11.906 F3000.000 
G1 X186.748 Y177.432 Z-11.906 F3000.000 
G1 X186.324 Y177.172 Z-11.906 F3000.000 
G1 X185.863 Y176.981 Z-11.906 F3000.000 
G1 X185.379 Y176.865 Z-11.906 F3000.000 
G1 X184.882 Y176.825 Z-11.906 F3000.000 
G1 X-388.999 Y176.825 Z-11.906 F3000.000 
G1 X-389.496 Y176.865 Z-11.906 F3000.000 
G1 X-389.980 Y176.981 Z-11.906 F3000.000 
G1 X-390.441 Y177.172 Z-11.906 F3000.000 
G1 X-390.865 Y177.432 Z-11.906 F3000.000 
G1 X-391.244 Y177.755 Z-11.906 F3000.000 
G1 X-391.568 Y178.134 Z-11.906 F3000.000 
G1 X-391.828 Y178.559 Z-11.906 F3000.000 
G1 X-392.019 Y179.019 Z-11.906 F3000.000 
G1 X-392.135 Y179.504 Z-11.906 F3000.000 
G1 X-392.174 Y180.000 Z-11.906 F3000.000 
G1 X-392.174 Y281.600 Z-11.906 F3000.000 
G1 X-392.135 Y282.097 Z-11.906 F3000.000 
G1 X-392.019 Y282.582 Z-11.906 F3000.000 
G1 X-391.828 Y283.042 Z-11.906 F3000.000 
G1 X-391.568 Y283.467 Z-11.906 F3000.000 
G1 X-391.244 Y283.846 Z-11.906 F3000.000 
G1 X-390.865 Y284.169 Z-11.906 F3000.000 
G1 X-390.441 Y284.429 Z-11.906 F3000.000 
G1 X-389.980 Y284.620 Z-11.906 F3000.000 
G1 X-389.496 Y284.736 Z-11.906 F3000.000 
G1 X-388.999 Y284.775 Z-11.906 F3000.000 
G1 X184.882 Y284.775 Z-11.906 F3000.000 
G1 X185.379 Y284.736 Z-11.906 F3000.000 
G1 X185.863 Y284.620 Z-11.906 F3000.000 
G1 X186.324 Y284.429 Z-11.906 F3000.000 
G1 X186.748 Y284.169 Z-11.906 F3000.000 
G1 X187.127 Y283.846 Z-11.906 F3000.000 
G0 X187.127 Y283.846 Z5.000 
(finish operation: DressupTag009)
(begin operation: DressupTag010)
(machine units: mm/min)
G0 Z5.000 
G0 X14.603 Y408.168 Z5.000 
G1 X14.603 Y408.168 Z-5.900 F180.000 
G2 X14.623 Y408.042 Z-5.900 I-3.124 J-0.568 F3000.000 
G1 X28.902 Y306.442 Z-5.900 F3000.000 
G2 X25.758 Y302.825 Z-5.900 I-3.144 J-0.442 F3000.000 
G1 X-122.711 Y302.825 Z-5.900 F3000.000 
G1 X-122.750 Y302.825 Z-5.861 F1590.000 
G1 X-241.653 Y302.825 Z-5.861 F3000.000 
G1 X-241.692 Y302.825 Z-5.900 F1590.000 
G1 X-538.630 Y302.825 Z-5.900 F3000.000 
G1 X-538.669 Y302.825 Z-5.861 F1590.000 
G1 X-657.573 Y302.825 Z-5.861 F3000.000 
G1 X-657.612 Y302.825 Z-5.900 F1590.000 
G1 X-954.550 Y302.825 Z-5.900 F3000.000 
G1 X-954.589 Y302.825 Z-5.861 F1590.000 
G1 X-1073.492 Y302.825 Z-5.861 F3000.000 
G1 X-1073.531 Y302.825 Z-5.900 F1590.000 
G1 X-1222.000 Y302.825 Z-5.900 F3000.000 
G2 X-1225.144 Y306.442 Z-5.900 I-0.000 J3.175 F3000.000 
G1 X-1210.865 Y408.042 Z-5.900 F3000.000 
G2 X-1207.721 Y410.775 Z-5.900 I3.144 J-0.442 F3000.000 
G1 X-657.612 Y410.775 Z-5.900 F3000.000 
G1 X-657.573 Y410.775 Z-5.861 F1590.000 
G1 X-538.669 Y410.775 Z-5.861 F3000.000 
G1 X-538.630 Y410.775 Z-5.900 F1590.000 
G1 X-251.212 Y410.775 Z-5.900 F3000.000 
G1 X-251.173 Y410.775 Z-5.861 F1590.000 
G1 X-132.269 Y410.775 Z-5.861 F3000.000 
G1 X-132.230 Y410.775 Z-5.900 F1590.000 
G1 X11.479 Y410.775 Z-5.900 F3000.000 
G2 X14.603 Y408.168 Z-5.900 I-0.000 J-3.175 F3000.000 
G1 X14.603 Y408.168 Z-11.900 F180.000 
G2 X14.623 Y408.042 Z-11.900 I-3.124 J-0.568 F3000.000 
G1 X28.902 Y306.442 Z-11.900 F3000.000 
G2 X25.758 Y302.825 Z-11.900 I-3.144 J-0.442 F3000.000 
G1 X-116.711 Y302.825 Z-11.900 F3000.000 
G1 X-122.750 Y302.825 Z-5.861 F1590.000 
G1 X-241.653 Y302.825 Z-5.861 F3000.000 
G1 X-247.692 Y302.825 Z-11.900 F1590.000 
G1 X-532.630 Y302.825 Z-11.900 F3000.000 
G1 X-538.669 Y302.825 Z-5.861 F1590.000 
G1 X-657.573 Y302.825 Z-5.861 F3000.000 
G1 X-663.612 Y302.825 Z-11.900 F1590.000 
G1 X-948.550 Y302.825 Z-11.900 F3000.000 
G1 X-954.589 Y302.825 Z-5.861 F1590.000 
G1 X-1073.492 Y302.825 Z-5.861 F3000.000 
G1 X-1079.531 Y302.825 Z-11.900 F1590.000 
G1 X-1222.000 Y302.825 Z-11.900 F3000.000 
G2 X-1225.144 Y306.442 Z-11.900 I-0.000 J3.175 F3000.000 
G1 X-1210.865 Y408.042 Z-11.900 F3000.000 
G2 X-1207.721 Y410.775 Z-11.900 I3.144 J-0.442 F3000.000 
G1 X-663.612 Y410.775 Z-11.900 F3000.000 
G1 X-657.573 Y410.775 Z-5.861 F1590.000 
G1 X-538.669 Y410.775 Z-5.861 F3000.000 
G1 X-532.630 Y410.775 Z-11.900 F1590.000 
G1 X-257.212 Y410.775 Z-11.900 F3000.000 
G1 X-251.173 Y410.775 Z-5.861 F1590.000 
G1 X-132.269 Y410.775 Z-5.861 F3000.000 
G1 X-126.230 Y410.775 Z-11.900 F1590.000 
G1 X11.479 Y410.775 Z-11.900 F3000.000 
G2 X14.603 Y408.168 Z-11.900 I-0.000 J-3.175 F3000.000 
G1 X14.603 Y408.168 Z-11.906 F180.000 
G2 X14.623 Y408.042 Z-11.906 I-3.124 J-0.568 F3000.000 
G1 X28.902 Y306.442 Z-11.906 F3000.000 
G2 X25.758 Y302.825 Z-11.906 I-3.144 J-0.442 F3000.000 
G1 X-116.705 Y302.825 Z-11.906 F3000.000 
G1 X-122.750 Y302.825 Z-5.861 F1590.000 
G1 X-241.653 Y302.825 Z-5.861 F3000.000 
G1 X-247.699 Y302.825 Z-11.906 F1590.000 
G1 X-532.624 Y302.825 Z-11.906 F3000.000 
G1 X-538.669 Y302.825 Z-5.861 F1590.000 
G1 X-657.573 Y302.825 Z-5.861 F3000.000 
G1 X-663.618 Y302.825 Z-11.906 F1590.000 
G1 X-948.543 Y302.825 Z-11.906 F3000.000 
G1 X-954.589 Y302.825 Z-5.861 F1590.000 
G1 X-1073.492 Y302.825 Z-5.861 F3000.000 
G1 X-1079.537 Y302.825 Z-11.906 F1590.000 
G1 X-1222.000 Y302.825 Z-11.906 F3000.000 
G2 X-1225.144 Y306.442 Z-11.906 I-0.000 J3.175 F3000.000 
G1 X-1210.865 Y408.042 Z-11.906 F3000.000 
G2 X-1207.721 Y410.775 Z-11.906 I3.144 J-0.442 F3000.000 
G1 X-663.618 Y410.775 Z-11.906 F3000.000 
G1 X-657.573 Y410.775 Z-5.861 F1590.000 
G1 X-538.669 Y410.775 Z-5.861 F3000.000 
G1 X-532.624 Y410.775 Z-11.906 F1590.000 
G1 X-257.218 Y410.775 Z-11.906 F3000.000 
G1 X-251.173 Y410.775 Z-5.861 F1590.000 
G1 X-132.269 Y410.775 Z-5.861 F3000.000 
G1 X-126.224 Y410.775 Z-11.906 F1590.000 
G1 X11.479 Y410.775 Z-11.906 F3000.000 
G2 X14.603 Y408.168 Z-11.906 I-0.000 J-3.175 F3000.000 
G0 X14.603 Y408.168 Z5.000 
(finish operation: DressupTag010)
(begin operation: DressupTag011)
(machine units: mm/min)
G0 Z5.000 
G0 X781.126 Y317.845 Z5.000 
G1 X781.126 Y317.845 Z-5.900 F180.000 
G2 X782.056 Y315.600 Z-5.900 I-2.245 J-2.245 F3000.000 
G1 X782.056 Y214.000 Z-5.900 F3000.000 
G2 X778.881 Y210.825 Z-5.900 I-3.175 J0.000 F3000.000 
G1 X709.032 Y210.825 Z-5.900 F3000.000 
G1 X708.993 Y210.825 Z-5.861 F1590.000 
G1 X657.475 Y210.825 Z-5.861 F3000.000 
G1 X657.436 Y210.825 Z-5.900 F1590.000 
G1 X517.738 Y210.825 Z-5.900 F3000.000 
G1 X517.699 Y210.825 Z-5.861 F1590.000 
G1 X466.182 Y210.825 Z-5.861 F3000.000 
G1 X466.143 Y210.825 Z-5.900 F1590.000 
G1 X326.444 Y210.825 Z-5.900 F3000.000 
G1 X326.405 Y210.825 Z-5.861 F1590.000 
G1 X274.888 Y210.825 Z-5.861 F3000.000 
G1 X274.849 Y210.825 Z-5.900 F1590.000 
G1 X205.000 Y210.825 Z-5.900 F3000.000 
G2 X201.825 Y214.000 Z-5.900 I0.000 J3.175 F3000.000 
G1 X201.825 Y315.600 Z-5.900 F3000.000 
G2 X205.000 Y318.775 Z-5.900 I3.175 J-0.000 F3000.000 
G1 X274.849 Y318.775 Z-5.900 F3000.000 
G1 X274.888 Y318.775 Z-5.861 F1590.000 
G1 X326.405 Y318.775 Z-5.861 F3000.000 
G1 X326.444 Y318.775 Z-5.900 F1590.000 
G1 X466.143 Y318.775 Z-5.900 F3000.000 
G1 X466.182 Y318.775 Z-5.861 F1590.000 
G1 X517.699 Y318.775 Z-5.861 F3000.000 
G1 X517.738 Y318.775 Z-5.900 F1590.000 
G1 X657.436 Y318.775 Z-5.900 F3000.000 
G1 X657.475 Y318.775 Z-5.861 F1590.000 
G1 X708.993 Y318.775 Z-5.861 F3000.000 
G1 X709.032 Y318.775 Z-5.900 F1590.000 
G1 X778.881 Y318.775 Z-5.900 F3000.000 
G2 X781.126 Y317.845 Z-5.900 I-0.000 J-3.175 F3000.000 
G1 X781.126 Y317.845 Z-11.900 F180.000 
G2 X782.056 Y315.600 Z-11.900 I-2.245 J-2.245 F3000.000 
G1 X782.056 Y214.000 Z-11.900 F3000.000 
G2 X778.881 Y210.825 Z-11.900 I-3.175 J0.000 F3000.000 
G1 X715.032 Y210.825 Z-11.900 F3000.000 
G1 X708.993 Y210.825 Z-5.861 F1590.000 
G1 X657.475 Y210.825 Z-5.861 F3000.000 
G1 X651.436 Y210.825 Z-11.900 F1590.000 
G1 X523.738 Y210.825 Z-11.900 F3000.000 
G1 X517.699 Y210.825 Z-5.861 F1590.000 
G1 X466.182 Y210.825 Z-5.861 F3000.000 
G1 X460.143 Y210.825 Z-11.900 F1590.000 
G1 X332.444 Y210.825 Z-11.900 F3000.000 
G1 X326.405 Y210.825 Z-5.861 F1590.000 
G1 X274.888 Y210.825 Z-5.861 F3000.000 
G1 X268.849 Y210.825 Z-11.900 F1590.000 
G1 X205.000 Y210.825 Z-11.900 F3000.000 
G2 X201.825 Y214.000 Z-11.900 I0.000 J3.175 F3000.000 
G1 X201.825 Y315.600 Z-11.900 F3000.000 
G2 X205.000 Y318.775 Z-11.900 I3.175 J-0.000 F3000.000 
G1 X268.849 Y318.775 Z-11.900 F3000.000 
G1 X274.888 Y318.775 Z-5.861 F1590.000 
G1 X326.405 Y318.775 Z-5.861 F3000.000 
G1 X332.444 Y318.775 Z-11.900 F1590.000 
G1 X460.143 Y318.775 Z-11.900 F3000.000 
G1 X466.182 Y318.775 Z-5.861 F1590.000 
G1 X517.699 Y318.775 Z-5.861 F3000.000 
G1 X523.738 Y318.775 Z-11.900 F1590.000 
G1 X651.436 Y318.775 Z-11.900 F3000.000 
G1 X657.475 Y318.775 Z-5.861 F1590.000 
G1 X708.993 Y318.775 Z-5.861 F3000.000 
G1 X715.032 Y318.775 Z-11.900 F1590.000 
G1 X778.881 Y318.775 Z-11.900 F3000.000 
G2 X781.126 Y317.845 Z-11.900 I-0.000 J-3.175 F3000.000 
G1 X781.126 Y317.845 Z-11.906 F180.000 
G2 X782.056 Y315.600 Z-11.906 I-2.245 J-2.245 F3000.000 
G1 X782.056 Y214.000 Z-11.906 F3000.000 
G2 X778.881 Y210.825 Z-11.906 I-3.175 J0.000 F3000.000 
G1 X715.038 Y210.825 Z-11.906 F3000.000 
G1 X708.993 Y210.825 Z-5.861 F1590.000 
G1 X657.475 Y210.825 Z-5.861 F3000.000 
G1 X651.430 Y210.825 Z-11.906 F1590.000 
G1 X523.744 Y210.825 Z-11.906 F3000.000 
G1 X517.699 Y210.825 Z-5.861 F1590.000 
G1 X466.182 Y210.825 Z-5.861 F3000.000 
G1 X460.136 Y210.825 Z-11.906 F1590.000 
G1 X332.450 Y210.825 Z-11.906 F3000.000 
G1 X326.405 Y210.825 Z-5.861 F1590.000 
G1 X274.888 Y210.825 Z-5.861 F3000.000 
G1 X268.843 Y210.825 Z-11.906 F1590.000 
G1 X205.000 Y210.825 Z-11.906 F3000.000 
G2 X201.825 Y214.000 Z-11.906 I0.000 J3.175 F3000.000 
G1 X201.825 Y315.600 Z-11.906 F3000.000 
G2 X205.000 Y318.775 Z-11.906 I3.175 J-0.000 F3000.000 
G1 X268.843 Y318.775 Z-11.906 F3000.000 
G1 X274.888 Y318.775 Z-5.861 F1590.000 
G1 X326.405 Y318.775 Z-5.861 F3000.000 
G1 X332.450 Y318.775 Z-11.906 F1590.000 
G1 X460.136 Y318.775 Z-11.906 F3000.000 
G1 X466.182 Y318.775 Z-5.861 F1590.000 
G1 X517.699 Y318.775 Z-5.861 F3000.000 
G1 X523.744 Y318.775 Z-11.906 F1590.000 
G1 X651.430 Y318.775 Z-11.906 F3000.000 
G1 X657.475 Y318.775 Z-5.861 F1590.000 
G1 X708.993 Y318.775 Z-5.861 F3000.000 
G1 X715.038 Y318.775 Z-11.906 F1590.000 
G1 X778.881 Y318.775 Z-11.906 F3000.000 
G2 X781.126 Y317.845 Z-11.906 I-0.000 J-3.175 F3000.000 
G0 X781.126 Y317.845 Z5.000 
(finish operation: DressupTag011)
(begin operation: DressupTag012)
(machine units: mm/min)
G0 Z5.000 
G0 X661.594 Y197.039 Z5.000 
G1 X661.594 Y197.039 Z-5.900 F180.000 
G1 X668.010 Y105.296 Z-5.900 F3000.000 
G1 X668.012 Y105.258 Z-5.861 F1590.000 
G1 X673.050 Y33.215 Z-5.861 F3000.000 
G1 X673.053 Y33.176 Z-5.900 F1590.000 
G1 X685.883 Y-150.309 Z-5.900 F3000.000 
G1 X685.886 Y-150.348 Z-5.861 F1590.000 
G1 X690.924 Y-222.391 Z-5.861 F3000.000 
G1 X690.927 Y-222.429 Z-5.900 F1590.000 
G1 X703.757 Y-405.915 Z-5.900 F3000.000 
G1 X703.760 Y-405.954 Z-5.861 F1590.000 
G1 X708.798 Y-477.996 Z-5.861 F3000.000 
G1 X708.800 Y-478.035 Z-5.900 F1590.000 
G1 X715.216 Y-569.778 Z-5.900 F3000.000 
G2 X712.708 Y-573.105 Z-5.900 I-3.167 J-0.221 F3000.000 
G1 X600.906 Y-596.870 Z-5.900 F3000.000 
G2 X597.071 Y-593.730 Z-5.900 I-0.660 J3.106 F3000.000 
G1 X598.087 Y-499.740 Z-5.900 F3000.000 
G1 X598.087 Y-499.701 Z-5.861 F1590.000 
G1 X598.867 Y-427.487 Z-5.861 F3000.000 
G1 X598.868 Y-427.448 Z-5.900 F1590.000 
G1 X600.898 Y-239.467 Z-5.900 F3000.000 
G1 X600.899 Y-239.428 Z-5.861 F1590.000 
G1 X601.679 Y-167.214 Z-5.861 F3000.000 
G1 X601.679 Y-167.175 Z-5.900 F1590.000 
G1 X603.710 Y20.805 Z-5.900 F3000.000 
G1 X603.711 Y20.844 Z-5.861 F1590.000 
G1 X604.491 Y93.058 Z-5.861 F3000.000 
G1 X604.491 Y93.097 Z-5.900 F1590.000 
G1 X605.507 Y187.087 Z-5.900 F3000.000 
G2 X608.021 Y190.158 Z-5.900 I3.175 J-0.034 F3000.000 
G1 X657.711 Y200.720 Z-5.900 F3000.000 
G2 X661.539 Y197.836 Z-5.900 I0.660 J-3.106 F3000.000 
G1 X661.594 Y197.039 Z-5.900 F3000.000 
G1 X661.594 Y197.039 Z-11.900 F180.000 
G1 X667.591 Y111.282 Z-11.900 F3000.000 
G1 X668.012 Y105.258 Z-5.861 F1590.000 
G1 X673.050 Y33.215 Z-5.861 F3000.000 
G1 X673.471 Y27.191 Z-11.900 F1590.000 
G1 X685.465 Y-144.324 Z-11.900 F3000.000 
G1 X685.886 Y-150.348 Z-5.861 F1590.000 
G1 X690.924 Y-222.391 Z-5.861 F3000.000 
G1 X691.345 Y-228.415 Z-11.900 F1590.000 
G1 X703.339 Y-399.930 Z-11.900 F3000.000 
G1 X703.760 Y-405.954 Z-5.861 F1590.000 
G1 X708.798 Y-477.996 Z-5.861 F3000.000 
G1 X709.219 Y-484.021 Z-11.900 F1590.000 
G1 X715.216 Y-569.778 Z-11.900 F3000.000 
G2 X712.708 Y-573.105 Z-11.900 I-3.167 J-0.221 F3000.000 
G1 X600.906 Y-596.870 Z-11.900 F3000.000 
G2 X597.071 Y-593.730 Z-11.900 I-0.660 J3.106 F3000.000 
G1 X598.022 Y-505.739 Z-11.900 F3000.000 
G1 X598.087 Y-499.701 Z-5.861 F1590.000 
G1 X598.867 Y-427.487 Z-5.861 F3000.000 
G1 X598.932 Y-421.448 Z-11.900 F1590.000 
G1 X600.834 Y-245.467 Z-11.900 F3000.000 
G1 X600.899 Y-239.428 Z-5.861 F1590.000 
G1 X601.679 Y-167.214 Z-5.861 F3000.000 
G1 X601.744 Y-161.176 Z-11.900 F1590.000 
G1 X603.645 Y14.805 Z-11.900 F3000.000 
G1 X603.711 Y20.844 Z-5.861 F1590.000 
G1 X604.491 Y93.058 Z-5.861 F3000.000 
G1 X604.556 Y99.096 Z-11.900 F1590.000 
G1 X605.507 Y187.087 Z-11.900 F3000.000 
G2 X608.021 Y190.158 Z-11.900 I3.175 J-0.034 F3000.000 
G1 X657.711 Y200.720 Z-11.900 F3000.000 
G2 X661.539 Y197.836 Z-11.900 I0.660 J-3.106 F3000.000 
G1 X661.594 Y197.039 Z-11.900 F3000.000 
G1 X661.594 Y197.039 Z-11.906 F180.000 
G1 X667.591 Y111.288 Z-11.906 F3000.000 
G1 X668.012 Y105.258 Z-5.861 F1590.000 
G1 X673.050 Y33.215 Z-5.861 F3000.000 
G1 X673.472 Y27.185 Z-11.906 F1590.000 
G1 X685.464 Y-144.318 Z-11.906 F3000.000 
G1 X685.886 Y-150.348 Z-5.861 F1590.000 
G1 X690.924 Y-222.391 Z-5.861 F3000.000 
G1 X691.346 Y-228.421 Z-11.906 F1590.000 
G1 X703.338 Y-399.924 Z-11.906 F3000.000 
G1 X703.760 Y-405.954 Z-5.861 F1590.000 
G1 X708.798 Y-477.996 Z-5.861 F3000.000 
G1 X709.219 Y-484.027 Z-11.906 F1590.000 
G1 X715.216 Y-569.778 Z-11.906 F3000.000 
G2 X712.708 Y-573.105 Z-11.906 I-3.167 J-0.221 F3000.000 
G1 X600.906 Y-596.870 Z-11.906 F3000.000 
G2 X597.071 Y-593.730 Z-11.906 I-0.660 J3.106 F3000.000 
G1 X598.022 Y-505.745 Z-11.906 F3000.000 
G1 X598.087 Y-499.701 Z-5.861 F1590.000 
G1 X598.867 Y-427.487 Z-5.861 F3000.000 
G1 X598.932 Y-421.442 Z-11.906 F1590.000 
G1 X600.834 Y-245.473 Z-11.906 F3000.000 
G1 X600.899 Y-239.428 Z-5.861 F1590.000 
G1 X601.679 Y-167.214 Z-5.861 F3000.000 
G1 X601.744 Y-161.170 Z-11.906 F1590.000 
G1 X603.645 Y14.799 Z-11.906 F3000.000 
G1 X603.711 Y20.844 Z-5.861 F1590.000 
G1 X604.491 Y93.058 Z-5.861 F3000.000 
G1 X604.556 Y99.103 Z-11.906 F1590.000 
G1 X605.507 Y187.087 Z-11.906 F3000.000 
G2 X608.021 Y190.158 Z-11.906 I3.175 J-0.034 F3000.000 
G1 X657.711 Y200.720 Z-11.906 F3000.000 
G2 X661.539 Y197.836 Z-11.906 I0.660 J-3.106 F3000.000 
G1 X661.594 Y197.039 Z-11.906 F3000.000 
G0 X661.594 Y197.039 Z5.000 
(finish operation: DressupTag012)
(begin operation: DressupTag013)
(machine units: mm/min)
G0 Z5.000 
G0 X769.414 Y187.896 Z5.000 
G1 X769.414 Y187.896 Z-5.900 F180.000 
G2 X770.267 Y184.957 Z-5.900 I-2.245 J-2.245 F3000.000 
G1 X758.894 Y134.157 Z-5.900 F3000.000 
G2 X755.796 Y131.676 Z-5.900 I-3.098 J0.694 F3000.000 
G1 X704.996 Y131.676 Z-5.900 F3000.000 
G2 X701.852 Y135.293 Z-5.900 I-0.000 J3.175 F3000.000 
G1 X708.992 Y186.093 Z-5.900 F3000.000 
G2 X712.136 Y188.826 Z-5.900 I3.144 J-0.442 F3000.000 
G1 X767.169 Y188.826 Z-5.900 F3000.000 
G2 X769.414 Y187.896 Z-5.900 I0.000 J-3.175 F3000.000 
G1 X769.414 Y187.896 Z-11.900 F180.000 
G2 X770.267 Y184.957 Z-11.900 I-2.245 J-2.245 F3000.000 
G1 X765.862 Y165.281 Z-11.900 F3000.000 
G1 X764.581 Y159.557 Z-5.976 F1581.068 
G1 X763.299 Y153.833 Z-11.900 F1581.068 
G1 X758.894 Y134.157 Z-11.900 F3000.000 
G2 X755.796 Y131.676 Z-11.900 I-3.098 J0.694 F3000.000 
G1 X736.262 Y131.676 Z-11.900 F3000.000 
G1 X730.396 Y131.676 Z-5.976 F1581.068 
G1 X724.531 Y131.676 Z-11.900 F1581.068 
G1 X704.996 Y131.676 Z-11.900 F3000.000 
G2 X701.852 Y135.293 Z-11.900 I-0.000 J3.175 F3000.000 
G1 X704.605 Y154.884 Z-11.900 F3000.000 
G1 X705.422 Y160.693 Z-5.976 F1581.068 
G1 X706.238 Y166.501 Z-11.900 F1581.068 
G1 X708.992 Y186.093 Z-11.900 F3000.000 
G2 X712.136 Y188.826 Z-11.900 I3.144 J-0.442 F3000.000 
G1 X733.787 Y188.826 Z-11.900 F3000.000 
G1 X739.652 Y188.826 Z-5.976 F1581.068 
G1 X745.518 Y188.826 Z-11.900 F1581.068 
G1 X767.169 Y188.826 Z-11.900 F3000.000 
G2 X769.414 Y187.896 Z-11.900 I0.000 J-3.175 F3000.000 
G1 X769.414 Y187.896 Z-11.906 F180.000 
G2 X770.267 Y184.957 Z-11.906 I-2.245 J-2.245 F3000.000 
G1 X765.864 Y165.287 Z-11.906 F3000.000 
G1 X764.581 Y159.557 Z-5.976 F1581.068 
G1 X763.298 Y153.827 Z-11.906 F1581.068 
G1 X758.894 Y134.157 Z-11.906 F3000.000 
G2 X755.796 Y131.676 Z-11.906 I-3.098 J0.694 F3000.000 
G1 X736.268 Y131.676 Z-11.906 F3000.000 
G1 X730.396 Y131.676 Z-5.976 F1581.068 
G1 X724.525 Y131.676 Z-11.906 F1581.068 
G1 X704.996 Y131.676 Z-11.906 F3000.000 
G2 X701.852 Y135.293 Z-11.906 I-0.000 J3.175 F3000.000 
G1 X704.605 Y154.878 Z-11.906 F3000.000 
G1 X705.422 Y160.693 Z-5.976 F1581.068 
G1 X706.239 Y166.507 Z-11.906 F1581.068 
G1 X708.992 Y186.093 Z-11.906 F3000.000 
G2 X712.136 Y188.826 Z-11.906 I3.144 J-0.442 F3000.000 
G1 X733.781 Y188.826 Z-11.906 F3000.000 
G1 X739.652 Y188.826 Z-5.976 F1581.068 
G1 X745.524 Y188.826 Z-11.906 F1581.068 
G1 X767.169 Y188.826 Z-11.906 F3000.000 
G2 X769.414 Y187.896 Z-11.906 I0.000 J-3.175 F3000.000 
G0 X769.414 Y187.896 Z5.000 
(finish operation: DressupTag013)
(begin operation: DressupTag014)
(machine units: mm/min)
G0 Z5.000 
G0 X774.414 Y106.896 Z5.000 
G1 X774.414 Y106.896 Z-5.900 F180.000 
G2 X775.267 Y103.957 Z-5.900 I-2.245 J-2.245 F3000.000 
G1 X763.894 Y53.157 Z-5.900 F3000.000 
G2 X760.796 Y50.676 Z-5.900 I-3.098 J0.694 F3000.000 
G1 X709.996 Y50.676 Z-5.900 F3000.000 
G2 X706.852 Y54.293 Z-5.900 I-0.000 J3.175 F3000.000 
G1 X713.992 Y105.093 Z-5.900 F3000.000 
G2 X717.136 Y107.826 Z-5.900 I3.144 J-0.442 F3000.000 
G1 X772.169 Y107.826 Z-5.900 F3000.000 
G2 X774.414 Y106.896 Z-5.900 I-0.000 J-3.175 F3000.000 
G1 X774.414 Y106.896 Z-11.900 F180.000 
G2 X775.267 Y103.957 Z-11.900 I-2.245 J-2.245 F3000.000 
G1 X770.862 Y84.281 Z-11.900 F3000.000 
G1 X769.581 Y78.557 Z-5.976 F1581.068 
G1 X768.299 Y72.834 Z-11.900 F1581.068 
G1 X763.894 Y53.157 Z-11.900 F3000.000 
G2 X760.796 Y50.676 Z-11.900 I-3.098 J0.694 F3000.000 
G1 X741.262 Y50.676 Z-11.900 F3000.000 
G1 X735.396 Y50.676 Z-5.976 F1581.068 
G1 X729.531 Y50.676 Z-11.900 F1581.068 
G1 X709.996 Y50.676 Z-11.900 F3000.000 
G2 X706.852 Y54.293 Z-11.900 I-0.000 J3.175 F3000.000 
G1 X709.605 Y73.884 Z-11.900 F3000.000 
G1 X710.422 Y79.693 Z-5.976 F1581.068 
G1 X711.238 Y85.501 Z-11.900 F1581.068 
G1 X713.992 Y105.093 Z-11.900 F3000.000 
G2 X717.136 Y107.826 Z-11.900 I3.144 J-0.442 F3000.000 
G1 X738.787 Y107.826 Z-11.900 F3000.000 
G1 X744.652 Y107.826 Z-5.976 F1581.068 
G1 X750.518 Y107.826 Z-11.900 F1581.068 
G1 X772.169 Y107.826 Z-11.900 F3000.000 
G2 X774.414 Y106.896 Z-11.900 I-0.000 J-3.175 F3000.000 
G1 X774.414 Y106.896 Z-11.906 F180.000 
G2 X775.267 Y103.957 Z-11.906 I-2.245 J-2.245 F3000.000 
G1 X770.864 Y84.287 Z-11.906 F3000.000 
G1 X769.581 Y78.557 Z-5.976 F1581.068 
G1 X768.298 Y72.828 Z-11.906 F1581.068 
G1 X763.894 Y53.157 Z-11.906 F3000.000 
G2 X760.796 Y50.676 Z-11.906 I-3.098 J0.694 F3000.000 
G1 X741.268 Y50.676 Z-11.906 F3000.000 
G1 X735.396 Y50.676 Z-5.976 F1581.068 
G1 X729.525 Y50.676 Z-11.906 F1581.068 
G1 X709.996 Y50.676 Z-11.906 F3000.000 
G2 X706.852 Y54.293 Z-11.906 I-0.000 J3.175 F3000.000 
G1 X709.605 Y73.878 Z-11.906 F3000.000 
G1 X710.422 Y79.693 Z-5.976 F1581.068 
G1 X711.239 Y85.507 Z-11.906 F1581.068 
G1 X713.992 Y105.093 Z-11.906 F3000.000 
G2 X717.136 Y107.826 Z-11.906 I3.144 J-0.442 F3000.000 
G1 X738.781 Y107.826 Z-11.906 F3000.000 
G1 X744.652 Y107.826 Z-5.976 F1581.068 
G1 X750.524 Y107.826 Z-11.906 F1581.068 
G1 X772.169 Y107.826 Z-11.906 F3000.000 
G2 X774.414 Y106.896 Z-11.906 I-0.000 J-3.175 F3000.000 
G0 X774.414 Y106.896 Z5.000 
(finish operation: DressupTag014)
(begin operation: DressupTag015)
(machine units: mm/min)
G0 Z5.000 
G0 X764.414 Y27.896 Z5.000 
G1 X764.414 Y27.896 Z-5.900 F180.000 
G2 X765.267 Y24.957 Z-5.900 I-2.245 J-2.245 F3000.000 
G1 X753.894 Y-25.843 Z-5.900 F3000.000 
G2 X750.796 Y-28.324 Z-5.900 I-3.098 J0.694 F3000.000 
G1 X699.996 Y-28.324 Z-5.900 F3000.000 
G2 X696.852 Y-24.707 Z-5.900 I-0.000 J3.175 F3000.000 
G1 X703.992 Y26.093 Z-5.900 F3000.000 
G2 X707.136 Y28.826 Z-5.900 I3.144 J-0.442 F3000.000 
G1 X762.169 Y28.826 Z-5.900 F3000.000 
G2 X764.414 Y27.896 Z-5.900 I-0.000 J-3.175 F3000.000 
G1 X764.414 Y27.896 Z-11.900 F180.000 
G2 X765.267 Y24.957 Z-11.900 I-2.245 J-2.245 F3000.000 
G1 X760.862 Y5.281 Z-11.900 F3000.000 
G1 X759.581 Y-0.443 Z-5.976 F1581.068 
G1 X758.299 Y-6.166 Z-11.900 F1581.068 
G1 X753.894 Y-25.843 Z-11.900 F3000.000 
G2 X750.796 Y-28.324 Z-11.900 I-3.098 J0.694 F3000.000 
G1 X731.262 Y-28.324 Z-11.900 F3000.000 
G1 X725.396 Y-28.324 Z-5.976 F1581.068 
G1 X719.531 Y-28.324 Z-11.900 F1581.068 
G1 X699.996 Y-28.324 Z-11.900 F3000.000 
G2 X696.852 Y-24.707 Z-11.900 I-0.000 J3.175 F3000.000 
G1 X699.605 Y-5.115 Z-11.900 F3000.000 
G1 X700.422 Y0.693 Z-5.976 F1581.068 
G1 X701.238 Y6.501 Z-11.900 F1581.068 
G1 X703.992 Y26.093 Z-11.900 F3000.000 
G2 X707.136 Y28.826 Z-11.900 I3.144 J-0.442 F3000.000 
G1 X728.787 Y28.826 Z-11.900 F3000.000 
G1 X734.652 Y28.826 Z-5.976 F1581.068 
G1 X740.518 Y28.826 Z-11.900 F1581.068 
G1 X762.169 Y28.826 Z-11.900 F3000.000 
G2 X764.414 Y27.896 Z-11.900 I-0.000 J-3.175 F3000.000 
G1 X764.414 Y27.896 Z-11.906 F180.000 
G2 X765.267 Y24.957 Z-11.906 I-2.245 J-2.245 F3000.000 
G1 X760.864 Y5.287 Z-11.906 F3000.000 
G1 X759.581 Y-0.443 Z-5.976 F1581.068 
G1 X758.298 Y-6.172 Z-11.906 F1581.068 
G1 X753.894 Y-25.843 Z-11.906 F3000.000 
G2 X750.796 Y-28.324 Z-11.906 I-3.098 J0.694 F3000.000 
G1 X731.268 Y-28.324 Z-11.906 F3000.000 
G1 X725.396 Y-28.324 Z-5.976 F1581.068 
G1 X719.525 Y-28.324 Z-11.906 F1581.068 
G1 X699.996 Y-28.324 Z-11.906 F3000.000 
G2 X696.852 Y-24.707 Z-11.906 I-0.000 J3.175 F3000.000 
G1 X699.605 Y-5.121 Z-11.906 F3000.000 
G1 X700.422 Y0.693 Z-5.976 F1581.068 
G1 X701.239 Y6.507 Z-11.906 F1581.068 
G1 X703.992 Y26.093 Z-11.906 F3000.000 
G2 X707.136 Y28.826 Z-11.906 I3.144 J-0.442 F3000.000 
G1 X728.781 Y28.826 Z-11.906 F3000.000 
G1 X734.652 Y28.826 Z-5.976 F1581.068 
G1 X740.524 Y28.826 Z-11.906 F1581.068 
G1 X762.169 Y28.826 Z-11.906 F3000.000 
G2 X764.414 Y27.896 Z-11.906 I-0.000 J-3.175 F3000.000 
G0 X764.414 Y27.896 Z5.000 
(finish operation: DressupTag015)
(begin operation: DressupTag016)
(machine units: mm/min)
G0 Z5.000 
G0 X759.414 Y-35.104 Z5.000 
G1 X759.414 Y-35.104 Z-5.900 F180.000 
G2 X760.267 Y-38.042 Z-5.900 I-2.245 J-2.245 F3000.000 
G1 X748.894 Y-88.842 Z-5.900 F3000.000 
G2 X745.796 Y-91.324 Z-5.900 I-3.098 J0.694 F3000.000 
G1 X694.996 Y-91.324 Z-5.900 F3000.000 
G2 X691.852 Y-87.707 Z-5.900 I-0.000 J3.175 F3000.000 
G1 X698.992 Y-36.907 Z-5.900 F3000.000 
G2 X702.136 Y-34.174 Z-5.900 I3.144 J-0.442 F3000.000 
G1 X757.169 Y-34.174 Z-5.900 F3000.000 
G2 X759.414 Y-35.104 Z-5.900 I-0.000 J-3.175 F3000.000 
G1 X759.414 Y-35.104 Z-11.900 F180.000 
G2 X760.267 Y-38.042 Z-11.900 I-2.245 J-2.245 F3000.000 
G1 X755.862 Y-57.719 Z-11.900 F3000.000 
G1 X754.581 Y-63.442 Z-5.976 F1581.068 
G1 X753.299 Y-69.166 Z-11.900 F1581.068 
G1 X748.894 Y-88.842 Z-11.900 F3000.000 
G2 X745.796 Y-91.324 Z-11.900 I-3.098 J0.694 F3000.000 
G1 X726.262 Y-91.324 Z-11.900 F3000.000 
G1 X720.396 Y-91.324 Z-5.976 F1581.068 
G1 X714.531 Y-91.324 Z-11.900 F1581.068 
G1 X694.996 Y-91.324 Z-11.900 F3000.000 
G2 X691.852 Y-87.707 Z-11.900 I-0.000 J3.175 F3000.000 
G1 X694.606 Y-68.115 Z-11.900 F3000.000 
G1 X695.422 Y-62.307 Z-5.976 F1581.068 
G1 X696.238 Y-56.499 Z-11.900 F1581.068 
G1 X698.992 Y-36.907 Z-11.900 F3000.000 
G2 X702.136 Y-34.174 Z-11.900 I3.144 J-0.442 F3000.000 
G1 X723.787 Y-34.174 Z-11.900 F3000.000 
G1 X729.652 Y-34.174 Z-5.976 F1581.068 
G1 X735.518 Y-34.174 Z-11.900 F1581.068 
G1 X757.169 Y-34.174 Z-11.900 F3000.000 
G2 X759.414 Y-35.104 Z-11.900 I-0.000 J-3.175 F3000.000 
G1 X759.414 Y-35.104 Z-11.906 F180.000 
G2 X760.267 Y-38.042 Z-11.906 I-2.245 J-2.245 F3000.000 
G1 X755.864 Y-57.713 Z-11.906 F3000.000 
G1 X754.581 Y-63.442 Z-5.976 F1581.068 
G1 X753.298 Y-69.172 Z-11.906 F1581.068 
G1 X748.894 Y-88.842 Z-11.906 F3000.000 
G2 X745.796 Y-91.324 Z-11.906 I-3.098 J0.694 F3000.000 
G1 X726.268 Y-91.324 Z-11.906 F3000.000 
G1 X720.396 Y-91.324 Z-5.976 F1581.068 
G1 X714.525 Y-91.324 Z-11.906 F1581.068 
G1 X694.996 Y-91.324 Z-11.906 F3000.000 
G2 X691.852 Y-87.707 Z-11.906 I-0.000 J3.175 F3000.000 
G1 X694.605 Y-68.121 Z-11.906 F3000.000 
G1 X695.422 Y-62.307 Z-5.976 F1581.068 
G1 X696.239 Y-56.492 Z-11.906 F1581.068 
G1 X698.992 Y-36.907 Z-11.906 F3000.000 
G2 X702.136 Y-34.174 Z-11.906 I3.144 J-0.442 F3000.000 
G1 X723.781 Y-34.174 Z-11.906 F3000.000 
G1 X729.652 Y-34.174 Z-5.976 F1581.068 
G1 X735.524 Y-34.174 Z-11.906 F1581.068 
G1 X757.169 Y-34.174 Z-11.906 F3000.000 
G2 X759.414 Y-35.104 Z-11.906 I-0.000 J-3.175 F3000.000 
G0 X759.414 Y-35.104 Z5.000 
(finish operation: DressupTag016)
(begin postamble)
M05
G17 G54 G90 G80 G40
M2
