(Exported by FreeCAD)
(Post Processor: linuxcnc_post)
(Output Time:2024-09-14 00:09:32.393177)
(begin preamble)
G17 G54 G40 G49 G80 G90
G21
(begin operation: G54)
(machine units: mm/min)
G54 
G0 Z5.000 
(finish operation: G54)
(begin operation: TC: TC1 6.35mm)
(machine units: mm/min)
(TC: TC1 6.35mm) 
M5
M6 T1 
G43 H1 
(finish operation: TC: TC1 6.35mm)
(begin operation: DressupTag)
(machine units: mm/min)
G0 Z5.000 
G0 X155.845 Y155.245 Z5.000 
G1 X155.845 Y155.245 Z-7.900 F180.000 
G1 X156.169 Y154.866 Z-7.900 F3000.000 
G1 X156.429 Y154.441 Z-7.900 F3000.000 
G1 X156.620 Y153.981 Z-7.900 F3000.000 
G1 X156.736 Y153.497 Z-7.900 F3000.000 
G1 X156.775 Y153.000 Z-7.900 F3000.000 
G1 X156.775 Y-223.396 Z-7.900 F3000.000 
G1 X156.775 Y-224.893 Z-6.403 F1590.000 
G1 X156.775 Y-231.107 Z-6.403 F3000.000 
G1 X156.775 Y-232.604 Z-7.900 F1590.000 
G1 X156.775 Y-609.000 Z-7.900 F3000.000 
G1 X156.736 Y-609.497 Z-7.900 F3000.000 
G1 X156.620 Y-609.981 Z-7.900 F3000.000 
G1 X156.429 Y-610.441 Z-7.900 F3000.000 
G1 X156.169 Y-610.866 Z-7.900 F3000.000 
G1 X155.845 Y-611.245 Z-7.900 F3000.000 
G1 X155.466 Y-611.569 Z-7.900 F3000.000 
G1 X155.041 Y-611.829 Z-7.900 F3000.000 
G1 X154.581 Y-612.020 Z-7.900 F3000.000 
G1 X154.097 Y-612.136 Z-7.900 F3000.000 
G1 X153.600 Y-612.175 Z-7.900 F3000.000 
G1 X-13.246 Y-612.175 Z-7.900 F3000.000 
G1 X-14.743 Y-612.175 Z-6.403 F1590.000 
G1 X-20.957 Y-612.175 Z-6.403 F3000.000 
G1 X-22.454 Y-612.175 Z-7.900 F1590.000 
G1 X-356.146 Y-612.175 Z-7.900 F3000.000 
G1 X-357.643 Y-612.175 Z-6.403 F1590.000 
G1 X-363.857 Y-612.175 Z-6.403 F3000.000 
G1 X-365.354 Y-612.175 Z-7.900 F1590.000 
G1 X-699.046 Y-612.175 Z-7.900 F3000.000 
G1 X-700.543 Y-612.175 Z-6.403 F1590.000 
G1 X-706.757 Y-612.175 Z-6.403 F3000.000 
G1 X-708.254 Y-612.175 Z-7.900 F1590.000 
G1 X-1041.946 Y-612.175 Z-7.900 F3000.000 
G1 X-1043.443 Y-612.175 Z-6.403 F1590.000 
G1 X-1049.657 Y-612.175 Z-6.403 F3000.000 
G1 X-1051.154 Y-612.175 Z-7.900 F1590.000 
G1 X-1218.000 Y-612.175 Z-7.900 F3000.000 
G1 X-1218.497 Y-612.136 Z-7.900 F3000.000 
G1 X-1218.981 Y-612.020 Z-7.900 F3000.000 
G1 X-1219.441 Y-611.829 Z-7.900 F3000.000 
G1 X-1219.866 Y-611.569 Z-7.900 F3000.000 
G1 X-1220.245 Y-611.245 Z-7.900 F3000.000 
G1 X-1220.569 Y-610.866 Z-7.900 F3000.000 
G1 X-1220.829 Y-610.441 Z-7.900 F3000.000 
G1 X-1221.020 Y-609.981 Z-7.900 F3000.000 
G1 X-1221.136 Y-609.497 Z-7.900 F3000.000 
G1 X-1221.175 Y-609.000 Z-7.900 F3000.000 
G1 X-1221.175 Y-232.604 Z-7.900 F3000.000 
G1 X-1221.175 Y-231.107 Z-6.403 F1590.000 
G1 X-1221.175 Y-224.893 Z-6.403 F3000.000 
G1 X-1221.175 Y-223.396 Z-7.900 F1590.000 
G1 X-1221.175 Y153.000 Z-7.900 F3000.000 
G1 X-1221.136 Y153.497 Z-7.900 F3000.000 
G1 X-1221.020 Y153.981 Z-7.900 F3000.000 
G1 X-1220.829 Y154.441 Z-7.900 F3000.000 
G1 X-1220.569 Y154.866 Z-7.900 F3000.000 
G1 X-1220.245 Y155.245 Z-7.900 F3000.000 
G1 X-1219.866 Y155.569 Z-7.900 F3000.000 
G1 X-1219.441 Y155.829 Z-7.900 F3000.000 
G1 X-1218.981 Y156.020 Z-7.900 F3000.000 
G1 X-1218.497 Y156.136 Z-7.900 F3000.000 
G1 X-1218.000 Y156.175 Z-7.900 F3000.000 
G1 X-1051.154 Y156.175 Z-7.900 F3000.000 
G1 X-1049.657 Y156.175 Z-6.403 F1590.000 
G1 X-1043.443 Y156.175 Z-6.403 F3000.000 
G1 X-1041.946 Y156.175 Z-7.900 F1590.000 
G1 X-708.254 Y156.175 Z-7.900 F3000.000 
G1 X-706.757 Y156.175 Z-6.403 F1590.000 
G1 X-700.543 Y156.175 Z-6.403 F3000.000 
G1 X-699.046 Y156.175 Z-7.900 F1590.000 
G1 X-365.354 Y156.175 Z-7.900 F3000.000 
G1 X-363.857 Y156.175 Z-6.403 F1590.000 
G1 X-357.643 Y156.175 Z-6.403 F3000.000 
G1 X-356.146 Y156.175 Z-7.900 F1590.000 
G1 X-22.454 Y156.175 Z-7.900 F3000.000 
G1 X-20.957 Y156.175 Z-6.403 F1590.000 
G1 X-14.743 Y156.175 Z-6.403 F3000.000 
G1 X-13.246 Y156.175 Z-7.900 F1590.000 
G1 X153.600 Y156.175 Z-7.900 F3000.000 
G1 X154.097 Y156.136 Z-7.900 F3000.000 
G1 X154.581 Y156.020 Z-7.900 F3000.000 
G1 X155.041 Y155.829 Z-7.900 F3000.000 
G1 X155.466 Y155.569 Z-7.900 F3000.000 
G1 X155.845 Y155.245 Z-7.900 F3000.000 
G1 X155.845 Y155.245 Z-12.906 F180.000 
G1 X156.169 Y154.866 Z-12.906 F3000.000 
G1 X156.429 Y154.441 Z-12.906 F3000.000 
G1 X156.620 Y153.981 Z-12.906 F3000.000 
G1 X156.736 Y153.497 Z-12.906 F3000.000 
G1 X156.775 Y153.000 Z-12.906 F3000.000 
G1 X156.775 Y-218.390 Z-12.906 F3000.000 
G1 X156.775 Y-224.893 Z-6.403 F1590.000 
G1 X156.775 Y-231.107 Z-6.403 F3000.000 
G1 X156.775 Y-237.610 Z-12.906 F1590.000 
G1 X156.775 Y-609.000 Z-12.906 F3000.000 
G1 X156.736 Y-609.497 Z-12.906 F3000.000 
G1 X156.620 Y-609.981 Z-12.906 F3000.000 
G1 X156.429 Y-610.441 Z-12.906 F3000.000 
G1 X156.169 Y-610.866 Z-12.906 F3000.000 
G1 X155.845 Y-611.245 Z-12.906 F3000.000 
G1 X155.466 Y-611.569 Z-12.906 F3000.000 
G1 X155.041 Y-611.829 Z-12.906 F3000.000 
G1 X154.581 Y-612.020 Z-12.906 F3000.000 
G1 X154.097 Y-612.136 Z-12.906 F3000.000 
G1 X153.600 Y-612.175 Z-12.906 F3000.000 
G1 X-8.240 Y-612.175 Z-12.906 F3000.000 
G1 X-14.743 Y-612.175 Z-6.403 F1590.000 
G1 X-20.957 Y-612.175 Z-6.403 F3000.000 
G1 X-27.460 Y-612.175 Z-12.906 F1590.000 
G1 X-351.140 Y-612.175 Z-12.906 F3000.000 
G1 X-357.643 Y-612.175 Z-6.403 F1590.000 
G1 X-363.857 Y-612.175 Z-6.403 F3000.000 
G1 X-370.360 Y-612.175 Z-12.906 F1590.000 
G1 X-694.040 Y-612.175 Z-12.906 F3000.000 
G1 X-700.543 Y-612.175 Z-6.403 F1590.000 
G1 X-706.757 Y-612.175 Z-6.403 F3000.000 
G1 X-713.260 Y-612.175 Z-12.906 F1590.000 
G1 X-1036.940 Y-612.175 Z-12.906 F3000.000 
G1 X-1043.443 Y-612.175 Z-6.403 F1590.000 
G1 X-1049.657 Y-612.175 Z-6.403 F3000.000 
G1 X-1056.160 Y-612.175 Z-12.906 F1590.000 
G1 X-1218.000 Y-612.175 Z-12.906 F3000.000 
G1 X-1218.497 Y-612.136 Z-12.906 F3000.000 
G1 X-1218.981 Y-612.020 Z-12.906 F3000.000 
G1 X-1219.441 Y-611.829 Z-12.906 F3000.000 
G1 X-1219.866 Y-611.569 Z-12.906 F3000.000 
G1 X-1220.245 Y-611.245 Z-12.906 F3000.000 
G1 X-1220.569 Y-610.866 Z-12.906 F3000.000 
G1 X-1220.829 Y-610.441 Z-12.906 F3000.000 
G1 X-1221.020 Y-609.981 Z-12.906 F3000.000 
G1 X-1221.136 Y-609.497 Z-12.906 F3000.000 
G1 X-1221.175 Y-609.000 Z-12.906 F3000.000 
G1 X-1221.175 Y-237.610 Z-12.906 F3000.000 
G1 X-1221.175 Y-231.107 Z-6.403 F1590.000 
G1 X-1221.175 Y-224.893 Z-6.403 F3000.000 
G1 X-1221.175 Y-218.390 Z-12.906 F1590.000 
G1 X-1221.175 Y153.000 Z-12.906 F3000.000 
G1 X-1221.136 Y153.497 Z-12.906 F3000.000 
G1 X-1221.020 Y153.981 Z-12.906 F3000.000 
G1 X-1220.829 Y154.441 Z-12.906 F3000.000 
G1 X-1220.569 Y154.866 Z-12.906 F3000.000 
G1 X-1220.245 Y155.245 Z-12.906 F3000.000 
G1 X-1219.866 Y155.569 Z-12.906 F3000.000 
G1 X-1219.441 Y155.829 Z-12.906 F3000.000 
G1 X-1218.981 Y156.020 Z-12.906 F3000.000 
G1 X-1218.497 Y156.136 Z-12.906 F3000.000 
G1 X-1218.000 Y156.175 Z-12.906 F3000.000 
G1 X-1056.160 Y156.175 Z-12.906 F3000.000 
G1 X-1049.657 Y156.175 Z-6.403 F1590.000 
G1 X-1043.443 Y156.175 Z-6.403 F3000.000 
G1 X-1036.940 Y156.175 Z-12.906 F1590.000 
G1 X-713.260 Y156.175 Z-12.906 F3000.000 
G1 X-706.757 Y156.175 Z-6.403 F1590.000 
G1 X-700.543 Y156.175 Z-6.403 F3000.000 
G1 X-694.040 Y156.175 Z-12.906 F1590.000 
G1 X-370.360 Y156.175 Z-12.906 F3000.000 
G1 X-363.857 Y156.175 Z-6.403 F1590.000 
G1 X-357.643 Y156.175 Z-6.403 F3000.000 
G1 X-351.140 Y156.175 Z-12.906 F1590.000 
G1 X-27.460 Y156.175 Z-12.906 F3000.000 
G1 X-20.957 Y156.175 Z-6.403 F1590.000 
G1 X-14.743 Y156.175 Z-6.403 F3000.000 
G1 X-8.240 Y156.175 Z-12.906 F1590.000 
G1 X153.600 Y156.175 Z-12.906 F3000.000 
G1 X154.097 Y156.136 Z-12.906 F3000.000 
G1 X154.581 Y156.020 Z-12.906 F3000.000 
G1 X155.041 Y155.829 Z-12.906 F3000.000 
G1 X155.466 Y155.569 Z-12.906 F3000.000 
G1 X155.845 Y155.245 Z-12.906 F3000.000 
G0 X155.845 Y155.245 Z5.000 
(finish operation: DressupTag)
(begin operation: DressupTag001)
(machine units: mm/min)
G0 Z5.000 
G0 X-415.042 Y232.341 Z5.000 
G1 X-415.042 Y232.341 Z-7.900 F180.000 
G1 X-414.560 Y232.216 Z-7.900 F3000.000 
G1 X-414.103 Y232.018 Z-7.900 F3000.000 
G1 X-413.683 Y231.750 Z-7.900 F3000.000 
G1 X-413.310 Y231.420 Z-7.900 F3000.000 
G1 X-412.993 Y231.035 Z-7.900 F3000.000 
G1 X-412.740 Y230.606 Z-7.900 F3000.000 
G1 X-412.557 Y230.143 Z-7.900 F3000.000 
G1 X-412.450 Y229.656 Z-7.900 F3000.000 
G1 X-405.380 Y179.351 Z-7.900 F3000.000 
G1 X-405.349 Y178.909 Z-7.900 F3000.000 
G1 X-405.388 Y178.412 Z-7.900 F3000.000 
G1 X-405.504 Y177.928 Z-7.900 F3000.000 
G1 X-405.695 Y177.467 Z-7.900 F3000.000 
G1 X-405.955 Y177.042 Z-7.900 F3000.000 
G1 X-406.279 Y176.664 Z-7.900 F3000.000 
G1 X-406.658 Y176.340 Z-7.900 F3000.000 
G1 X-407.082 Y176.080 Z-7.900 F3000.000 
G1 X-407.543 Y175.889 Z-7.900 F3000.000 
G1 X-408.027 Y175.773 Z-7.900 F3000.000 
G1 X-408.524 Y175.734 Z-7.900 F3000.000 
G1 X-1178.012 Y175.734 Z-7.900 F3000.000 
G1 X-1178.564 Y175.782 Z-7.900 F3000.000 
G1 X-1179.046 Y175.907 Z-7.900 F3000.000 
G1 X-1179.503 Y176.105 Z-7.900 F3000.000 
G1 X-1179.923 Y176.373 Z-7.900 F3000.000 
G1 X-1180.296 Y176.703 Z-7.900 F3000.000 
G1 X-1180.613 Y177.088 Z-7.900 F3000.000 
G1 X-1180.866 Y177.517 Z-7.900 F3000.000 
G1 X-1181.049 Y177.980 Z-7.900 F3000.000 
G1 X-1181.156 Y178.467 Z-7.900 F3000.000 
G1 X-1197.064 Y291.654 Z-7.900 F3000.000 
G1 X-1197.085 Y292.352 Z-7.900 F3000.000 
G1 X-1197.006 Y292.844 Z-7.900 F3000.000 
G1 X-1196.851 Y293.317 Z-7.900 F3000.000 
G1 X-1196.624 Y293.761 Z-7.900 F3000.000 
G1 X-1196.330 Y294.163 Z-7.900 F3000.000 
G1 X-1195.977 Y294.515 Z-7.900 F3000.000 
G1 X-1195.573 Y294.807 Z-7.900 F3000.000 
G1 X-1195.129 Y295.032 Z-7.900 F3000.000 
G1 X-1194.655 Y295.185 Z-7.900 F3000.000 
G1 X-1194.162 Y295.262 Z-7.900 F3000.000 
G1 X-1193.664 Y295.261 Z-7.900 F3000.000 
G1 X-415.338 Y232.379 Z-7.900 F3000.000 
G1 X-415.042 Y232.341 Z-7.900 F3000.000 
G1 X-415.042 Y232.341 Z-12.906 F180.000 
G1 X-414.560 Y232.216 Z-12.906 F3000.000 
G1 X-414.103 Y232.018 Z-12.906 F3000.000 
G1 X-413.683 Y231.750 Z-12.906 F3000.000 
G1 X-413.310 Y231.420 Z-12.906 F3000.000 
G1 X-412.993 Y231.035 Z-12.906 F3000.000 
G1 X-412.740 Y230.606 Z-12.906 F3000.000 
G1 X-412.557 Y230.143 Z-12.906 F3000.000 
G1 X-412.450 Y229.656 Z-12.906 F3000.000 
G1 X-405.380 Y179.351 Z-12.906 F3000.000 
G1 X-405.349 Y178.909 Z-12.906 F3000.000 
G1 X-405.388 Y178.412 Z-12.906 F3000.000 
G1 X-405.504 Y177.928 Z-12.906 F3000.000 
G1 X-405.695 Y177.467 Z-12.906 F3000.000 
G1 X-405.955 Y177.042 Z-12.906 F3000.000 
G1 X-406.279 Y176.664 Z-12.906 F3000.000 
G1 X-406.658 Y176.340 Z-12.906 F3000.000 
G1 X-407.082 Y176.080 Z-12.906 F3000.000 
G1 X-407.543 Y175.889 Z-12.906 F3000.000 
G1 X-408.027 Y175.773 Z-12.906 F3000.000 
G1 X-408.524 Y175.734 Z-12.906 F3000.000 
G1 X-1178.012 Y175.734 Z-12.906 F3000.000 
G1 X-1178.564 Y175.782 Z-12.906 F3000.000 
G1 X-1179.046 Y175.907 Z-12.906 F3000.000 
G1 X-1179.503 Y176.105 Z-12.906 F3000.000 
G1 X-1179.923 Y176.373 Z-12.906 F3000.000 
G1 X-1180.296 Y176.703 Z-12.906 F3000.000 
G1 X-1180.613 Y177.088 Z-12.906 F3000.000 
G1 X-1180.866 Y177.517 Z-12.906 F3000.000 
G1 X-1181.049 Y177.980 Z-12.906 F3000.000 
G1 X-1181.156 Y178.467 Z-12.906 F3000.000 
G1 X-1197.064 Y291.654 Z-12.906 F3000.000 
G1 X-1197.085 Y292.352 Z-12.906 F3000.000 
G1 X-1197.006 Y292.844 Z-12.906 F3000.000 
G1 X-1196.851 Y293.317 Z-12.906 F3000.000 
G1 X-1196.624 Y293.761 Z-12.906 F3000.000 
G1 X-1196.330 Y294.163 Z-12.906 F3000.000 
G1 X-1195.977 Y294.515 Z-12.906 F3000.000 
G1 X-1195.573 Y294.807 Z-12.906 F3000.000 
G1 X-1195.129 Y295.032 Z-12.906 F3000.000 
G1 X-1194.655 Y295.185 Z-12.906 F3000.000 
G1 X-1194.162 Y295.262 Z-12.906 F3000.000 
G1 X-1193.664 Y295.261 Z-12.906 F3000.000 
G1 X-415.338 Y232.379 Z-12.906 F3000.000 
G1 X-415.042 Y232.341 Z-12.906 F3000.000 
G0 X-415.042 Y232.341 Z5.000 
(finish operation: DressupTag001)
(begin operation: DressupTag002)
(machine units: mm/min)
G0 Z5.000 
G0 X827.831 Y528.123 Z5.000 
G1 X827.831 Y528.123 Z-7.900 F180.000 
G1 X843.739 Y414.935 Z-7.900 F3000.000 
G1 X843.759 Y414.238 Z-7.900 F3000.000 
G1 X843.680 Y413.746 Z-7.900 F3000.000 
G1 X843.525 Y413.272 Z-7.900 F3000.000 
G1 X843.298 Y412.829 Z-7.900 F3000.000 
G1 X843.005 Y412.427 Z-7.900 F3000.000 
G1 X842.652 Y412.075 Z-7.900 F3000.000 
G1 X842.248 Y411.783 Z-7.900 F3000.000 
G1 X841.804 Y411.558 Z-7.900 F3000.000 
G1 X841.329 Y411.405 Z-7.900 F3000.000 
G1 X840.837 Y411.328 Z-7.900 F3000.000 
G1 X840.339 Y411.329 Z-7.900 F3000.000 
G1 X62.013 Y474.211 Z-7.900 F3000.000 
G1 X61.717 Y474.249 Z-7.900 F3000.000 
G1 X61.235 Y474.374 Z-7.900 F3000.000 
G1 X60.778 Y474.572 Z-7.900 F3000.000 
G1 X60.358 Y474.840 Z-7.900 F3000.000 
G1 X59.985 Y475.170 Z-7.900 F3000.000 
G1 X59.668 Y475.554 Z-7.900 F3000.000 
G1 X59.415 Y475.984 Z-7.900 F3000.000 
G1 X59.232 Y476.447 Z-7.900 F3000.000 
G1 X59.124 Y476.934 Z-7.900 F3000.000 
G1 X52.054 Y527.239 Z-7.900 F3000.000 
G1 X52.024 Y527.681 Z-7.900 F3000.000 
G1 X52.063 Y528.178 Z-7.900 F3000.000 
G1 X52.179 Y528.662 Z-7.900 F3000.000 
G1 X52.370 Y529.123 Z-7.900 F3000.000 
G1 X52.630 Y529.547 Z-7.900 F3000.000 
G1 X52.954 Y529.926 Z-7.900 F3000.000 
G1 X53.332 Y530.250 Z-7.900 F3000.000 
G1 X53.757 Y530.510 Z-7.900 F3000.000 
G1 X54.217 Y530.701 Z-7.900 F3000.000 
G1 X54.702 Y530.817 Z-7.900 F3000.000 
G1 X55.199 Y530.856 Z-7.900 F3000.000 
G1 X824.687 Y530.856 Z-7.900 F3000.000 
G1 X825.239 Y530.808 Z-7.900 F3000.000 
G1 X825.721 Y530.683 Z-7.900 F3000.000 
G1 X826.178 Y530.485 Z-7.900 F3000.000 
G1 X826.598 Y530.217 Z-7.900 F3000.000 
G1 X826.971 Y529.887 Z-7.900 F3000.000 
G1 X827.288 Y529.502 Z-7.900 F3000.000 
G1 X827.541 Y529.073 Z-7.900 F3000.000 
G1 X827.723 Y528.609 Z-7.900 F3000.000 
G1 X827.831 Y528.123 Z-7.900 F3000.000 
G1 X827.831 Y528.123 Z-12.906 F180.000 
G1 X843.739 Y414.935 Z-12.906 F3000.000 
G1 X843.759 Y414.238 Z-12.906 F3000.000 
G1 X843.680 Y413.746 Z-12.906 F3000.000 
G1 X843.525 Y413.272 Z-12.906 F3000.000 
G1 X843.298 Y412.829 Z-12.906 F3000.000 
G1 X843.005 Y412.427 Z-12.906 F3000.000 
G1 X842.652 Y412.075 Z-12.906 F3000.000 
G1 X842.248 Y411.783 Z-12.906 F3000.000 
G1 X841.804 Y411.558 Z-12.906 F3000.000 
G1 X841.329 Y411.405 Z-12.906 F3000.000 
G1 X840.837 Y411.328 Z-12.906 F3000.000 
G1 X840.339 Y411.329 Z-12.906 F3000.000 
G1 X62.013 Y474.211 Z-12.906 F3000.000 
G1 X61.717 Y474.249 Z-12.906 F3000.000 
G1 X61.235 Y474.374 Z-12.906 F3000.000 
G1 X60.778 Y474.572 Z-12.906 F3000.000 
G1 X60.358 Y474.840 Z-12.906 F3000.000 
G1 X59.985 Y475.170 Z-12.906 F3000.000 
G1 X59.668 Y475.554 Z-12.906 F3000.000 
G1 X59.415 Y475.984 Z-12.906 F3000.000 
G1 X59.232 Y476.447 Z-12.906 F3000.000 
G1 X59.124 Y476.934 Z-12.906 F3000.000 
G1 X52.054 Y527.239 Z-12.906 F3000.000 
G1 X52.024 Y527.681 Z-12.906 F3000.000 
G1 X52.063 Y528.178 Z-12.906 F3000.000 
G1 X52.179 Y528.662 Z-12.906 F3000.000 
G1 X52.370 Y529.123 Z-12.906 F3000.000 
G1 X52.630 Y529.547 Z-12.906 F3000.000 
G1 X52.954 Y529.926 Z-12.906 F3000.000 
G1 X53.332 Y530.250 Z-12.906 F3000.000 
G1 X53.757 Y530.510 Z-12.906 F3000.000 
G1 X54.217 Y530.701 Z-12.906 F3000.000 
G1 X54.702 Y530.817 Z-12.906 F3000.000 
G1 X55.199 Y530.856 Z-12.906 F3000.000 
G1 X824.687 Y530.856 Z-12.906 F3000.000 
G1 X825.239 Y530.808 Z-12.906 F3000.000 
G1 X825.721 Y530.683 Z-12.906 F3000.000 
G1 X826.178 Y530.485 Z-12.906 F3000.000 
G1 X826.598 Y530.217 Z-12.906 F3000.000 
G1 X826.971 Y529.887 Z-12.906 F3000.000 
G1 X827.288 Y529.502 Z-12.906 F3000.000 
G1 X827.541 Y529.073 Z-12.906 F3000.000 
G1 X827.723 Y528.609 Z-12.906 F3000.000 
G1 X827.831 Y528.123 Z-12.906 F3000.000 
G0 X827.831 Y528.123 Z5.000 
(finish operation: DressupTag002)
(begin operation: DressupTag003)
(machine units: mm/min)
G0 Z5.000 
G0 X295.910 Y183.070 Z5.000 
G1 X295.910 Y183.070 Z-7.900 F180.000 
G1 X296.092 Y182.887 Z-7.900 F3000.000 
G1 X296.384 Y182.484 Z-7.900 F3000.000 
G1 X296.609 Y182.039 Z-7.900 F3000.000 
G1 X296.762 Y181.565 Z-7.900 F3000.000 
G1 X296.839 Y181.073 Z-7.900 F3000.000 
G1 X296.838 Y180.575 Z-7.900 F3000.000 
G1 X233.956 Y-597.751 Z-7.900 F3000.000 
G1 X233.918 Y-598.047 Z-7.900 F3000.000 
G1 X233.794 Y-598.529 Z-7.900 F3000.000 
G1 X233.595 Y-598.986 Z-7.900 F3000.000 
G1 X233.327 Y-599.406 Z-7.900 F3000.000 
G1 X232.997 Y-599.780 Z-7.900 F3000.000 
G1 X232.613 Y-600.096 Z-7.900 F3000.000 
G1 X232.183 Y-600.349 Z-7.900 F3000.000 
G1 X231.720 Y-600.532 Z-7.900 F3000.000 
G1 X231.233 Y-600.640 Z-7.900 F3000.000 
G1 X180.928 Y-607.710 Z-7.900 F3000.000 
G1 X180.486 Y-607.741 Z-7.900 F3000.000 
G1 X179.989 Y-607.702 Z-7.900 F3000.000 
G1 X179.505 Y-607.585 Z-7.900 F3000.000 
G1 X179.045 Y-607.395 Z-7.900 F3000.000 
G1 X178.620 Y-607.134 Z-7.900 F3000.000 
G1 X178.241 Y-606.811 Z-7.900 F3000.000 
G1 X177.917 Y-606.432 Z-7.900 F3000.000 
G1 X177.657 Y-606.007 Z-7.900 F3000.000 
G1 X177.466 Y-605.547 Z-7.900 F3000.000 
G1 X177.350 Y-605.062 Z-7.900 F3000.000 
G1 X177.311 Y-604.566 Z-7.900 F3000.000 
G1 X177.311 Y164.923 Z-7.900 F3000.000 
G1 X177.359 Y165.474 Z-7.900 F3000.000 
G1 X177.484 Y165.957 Z-7.900 F3000.000 
G1 X177.683 Y166.414 Z-7.900 F3000.000 
G1 X177.950 Y166.834 Z-7.900 F3000.000 
G1 X178.280 Y167.207 Z-7.900 F3000.000 
G1 X178.665 Y167.524 Z-7.900 F3000.000 
G1 X179.094 Y167.777 Z-7.900 F3000.000 
G1 X179.558 Y167.959 Z-7.900 F3000.000 
G1 X180.044 Y168.067 Z-7.900 F3000.000 
G1 X293.232 Y183.975 Z-7.900 F3000.000 
G1 X293.929 Y183.995 Z-7.900 F3000.000 
G1 X294.421 Y183.916 Z-7.900 F3000.000 
G1 X294.895 Y183.761 Z-7.900 F3000.000 
G1 X295.338 Y183.534 Z-7.900 F3000.000 
G1 X295.741 Y183.240 Z-7.900 F3000.000 
G1 X295.910 Y183.070 Z-7.900 F3000.000 
G1 X295.910 Y183.070 Z-12.906 F180.000 
G1 X296.092 Y182.887 Z-12.906 F3000.000 
G1 X296.384 Y182.484 Z-12.906 F3000.000 
G1 X296.609 Y182.039 Z-12.906 F3000.000 
G1 X296.762 Y181.565 Z-12.906 F3000.000 
G1 X296.839 Y181.073 Z-12.906 F3000.000 
G1 X296.838 Y180.575 Z-12.906 F3000.000 
G1 X233.956 Y-597.751 Z-12.906 F3000.000 
G1 X233.918 Y-598.047 Z-12.906 F3000.000 
G1 X233.794 Y-598.529 Z-12.906 F3000.000 
G1 X233.595 Y-598.986 Z-12.906 F3000.000 
G1 X233.327 Y-599.406 Z-12.906 F3000.000 
G1 X232.997 Y-599.780 Z-12.906 F3000.000 
G1 X232.613 Y-600.096 Z-12.906 F3000.000 
G1 X232.183 Y-600.349 Z-12.906 F3000.000 
G1 X231.720 Y-600.532 Z-12.906 F3000.000 
G1 X231.233 Y-600.640 Z-12.906 F3000.000 
G1 X180.928 Y-607.710 Z-12.906 F3000.000 
G1 X180.486 Y-607.741 Z-12.906 F3000.000 
G1 X179.989 Y-607.702 Z-12.906 F3000.000 
G1 X179.505 Y-607.585 Z-12.906 F3000.000 
G1 X179.045 Y-607.395 Z-12.906 F3000.000 
G1 X178.620 Y-607.134 Z-12.906 F3000.000 
G1 X178.241 Y-606.811 Z-12.906 F3000.000 
G1 X177.917 Y-606.432 Z-12.906 F3000.000 
G1 X177.657 Y-606.007 Z-12.906 F3000.000 
G1 X177.466 Y-605.547 Z-12.906 F3000.000 
G1 X177.350 Y-605.062 Z-12.906 F3000.000 
G1 X177.311 Y-604.566 Z-12.906 F3000.000 
G1 X177.311 Y164.923 Z-12.906 F3000.000 
G1 X177.359 Y165.474 Z-12.906 F3000.000 
G1 X177.484 Y165.957 Z-12.906 F3000.000 
G1 X177.683 Y166.414 Z-12.906 F3000.000 
G1 X177.950 Y166.834 Z-12.906 F3000.000 
G1 X178.280 Y167.207 Z-12.906 F3000.000 
G1 X178.665 Y167.524 Z-12.906 F3000.000 
G1 X179.094 Y167.777 Z-12.906 F3000.000 
G1 X179.558 Y167.959 Z-12.906 F3000.000 
G1 X180.044 Y168.067 Z-12.906 F3000.000 
G1 X293.232 Y183.975 Z-12.906 F3000.000 
G1 X293.929 Y183.995 Z-12.906 F3000.000 
G1 X294.421 Y183.916 Z-12.906 F3000.000 
G1 X294.895 Y183.761 Z-12.906 F3000.000 
G1 X295.338 Y183.534 Z-12.906 F3000.000 
G1 X295.741 Y183.240 Z-12.906 F3000.000 
G1 X295.910 Y183.070 Z-12.906 F3000.000 
G0 X295.910 Y183.070 Z5.000 
(finish operation: DressupTag003)
(begin operation: DressupTag004)
(machine units: mm/min)
G0 Z5.000 
G0 X580.672 Y197.544 Z5.000 
G1 X580.672 Y197.544 Z-7.900 F180.000 
G1 X580.996 Y197.165 Z-7.900 F3000.000 
G1 X581.256 Y196.740 Z-7.900 F3000.000 
G1 X581.447 Y196.280 Z-7.900 F3000.000 
G1 X581.563 Y195.795 Z-7.900 F3000.000 
G1 X581.602 Y195.299 Z-7.900 F3000.000 
G1 X581.602 Y-574.190 Z-7.900 F3000.000 
G1 X581.554 Y-574.741 Z-7.900 F3000.000 
G1 X581.429 Y-575.224 Z-7.900 F3000.000 
G1 X581.230 Y-575.680 Z-7.900 F3000.000 
G1 X580.963 Y-576.101 Z-7.900 F3000.000 
G1 X580.633 Y-576.474 Z-7.900 F3000.000 
G1 X580.248 Y-576.791 Z-7.900 F3000.000 
G1 X579.819 Y-577.044 Z-7.900 F3000.000 
G1 X579.355 Y-577.226 Z-7.900 F3000.000 
G1 X578.869 Y-577.334 Z-7.900 F3000.000 
G1 X465.681 Y-593.241 Z-7.900 F3000.000 
G1 X464.984 Y-593.262 Z-7.900 F3000.000 
G1 X464.492 Y-593.183 Z-7.900 F3000.000 
G1 X464.018 Y-593.028 Z-7.900 F3000.000 
G1 X463.575 Y-592.801 Z-7.900 F3000.000 
G1 X463.172 Y-592.507 Z-7.900 F3000.000 
G1 X462.821 Y-592.154 Z-7.900 F3000.000 
G1 X462.529 Y-591.751 Z-7.900 F3000.000 
G1 X462.304 Y-591.306 Z-7.900 F3000.000 
G1 X462.151 Y-590.832 Z-7.900 F3000.000 
G1 X462.074 Y-590.340 Z-7.900 F3000.000 
G1 X462.075 Y-589.842 Z-7.900 F3000.000 
G1 X524.957 Y188.484 Z-7.900 F3000.000 
G1 X524.995 Y188.780 Z-7.900 F3000.000 
G1 X525.119 Y189.262 Z-7.900 F3000.000 
G1 X525.318 Y189.719 Z-7.900 F3000.000 
G1 X525.586 Y190.140 Z-7.900 F3000.000 
G1 X525.916 Y190.513 Z-7.900 F3000.000 
G1 X526.300 Y190.830 Z-7.900 F3000.000 
G1 X526.730 Y191.082 Z-7.900 F3000.000 
G1 X527.193 Y191.265 Z-7.900 F3000.000 
G1 X527.680 Y191.373 Z-7.900 F3000.000 
G1 X577.985 Y198.443 Z-7.900 F3000.000 
G1 X578.427 Y198.474 Z-7.900 F3000.000 
G1 X578.924 Y198.435 Z-7.900 F3000.000 
G1 X579.408 Y198.318 Z-7.900 F3000.000 
G1 X579.869 Y198.128 Z-7.900 F3000.000 
G1 X580.293 Y197.867 Z-7.900 F3000.000 
G1 X580.672 Y197.544 Z-7.900 F3000.000 
G1 X580.672 Y197.544 Z-12.906 F180.000 
G1 X580.996 Y197.165 Z-12.906 F3000.000 
G1 X581.256 Y196.740 Z-12.906 F3000.000 
G1 X581.447 Y196.280 Z-12.906 F3000.000 
G1 X581.563 Y195.795 Z-12.906 F3000.000 
G1 X581.602 Y195.299 Z-12.906 F3000.000 
G1 X581.602 Y-574.190 Z-12.906 F3000.000 
G1 X581.554 Y-574.741 Z-12.906 F3000.000 
G1 X581.429 Y-575.224 Z-12.906 F3000.000 
G1 X581.230 Y-575.680 Z-12.906 F3000.000 
G1 X580.963 Y-576.101 Z-12.906 F3000.000 
G1 X580.633 Y-576.474 Z-12.906 F3000.000 
G1 X580.248 Y-576.791 Z-12.906 F3000.000 
G1 X579.819 Y-577.044 Z-12.906 F3000.000 
G1 X579.355 Y-577.226 Z-12.906 F3000.000 
G1 X578.869 Y-577.334 Z-12.906 F3000.000 
G1 X465.681 Y-593.241 Z-12.906 F3000.000 
G1 X464.984 Y-593.262 Z-12.906 F3000.000 
G1 X464.492 Y-593.183 Z-12.906 F3000.000 
G1 X464.018 Y-593.028 Z-12.906 F3000.000 
G1 X463.575 Y-592.801 Z-12.906 F3000.000 
G1 X463.172 Y-592.507 Z-12.906 F3000.000 
G1 X462.821 Y-592.154 Z-12.906 F3000.000 
G1 X462.529 Y-591.751 Z-12.906 F3000.000 
G1 X462.304 Y-591.306 Z-12.906 F3000.000 
G1 X462.151 Y-590.832 Z-12.906 F3000.000 
G1 X462.074 Y-590.340 Z-12.906 F3000.000 
G1 X462.075 Y-589.842 Z-12.906 F3000.000 
G1 X524.957 Y188.484 Z-12.906 F3000.000 
G1 X524.995 Y188.780 Z-12.906 F3000.000 
G1 X525.119 Y189.262 Z-12.906 F3000.000 
G1 X525.318 Y189.719 Z-12.906 F3000.000 
G1 X525.586 Y190.140 Z-12.906 F3000.000 
G1 X525.916 Y190.513 Z-12.906 F3000.000 
G1 X526.300 Y190.830 Z-12.906 F3000.000 
G1 X526.730 Y191.082 Z-12.906 F3000.000 
G1 X527.193 Y191.265 Z-12.906 F3000.000 
G1 X527.680 Y191.373 Z-12.906 F3000.000 
G1 X577.985 Y198.443 Z-12.906 F3000.000 
G1 X578.427 Y198.474 Z-12.906 F3000.000 
G1 X578.924 Y198.435 Z-12.906 F3000.000 
G1 X579.408 Y198.318 Z-12.906 F3000.000 
G1 X579.869 Y198.128 Z-12.906 F3000.000 
G1 X580.293 Y197.867 Z-12.906 F3000.000 
G1 X580.672 Y197.544 Z-12.906 F3000.000 
G0 X580.672 Y197.544 Z5.000 
(finish operation: DressupTag004)
(begin operation: DressupTag005)
(machine units: mm/min)
G0 Z5.000 
G0 X367.671 Y183.381 Z5.000 
G1 X367.671 Y183.381 Z-7.900 F180.000 
G1 X367.995 Y183.003 Z-7.900 F3000.000 
G1 X368.255 Y182.578 Z-7.900 F3000.000 
G1 X368.446 Y182.117 Z-7.900 F3000.000 
G1 X368.562 Y181.633 Z-7.900 F3000.000 
G1 X368.601 Y181.136 Z-7.900 F3000.000 
G1 X368.601 Y-588.352 Z-7.900 F3000.000 
G1 X368.553 Y-588.904 Z-7.900 F3000.000 
G1 X368.428 Y-589.386 Z-7.900 F3000.000 
G1 X368.229 Y-589.843 Z-7.900 F3000.000 
G1 X367.962 Y-590.263 Z-7.900 F3000.000 
G1 X367.632 Y-590.636 Z-7.900 F3000.000 
G1 X367.247 Y-590.953 Z-7.900 F3000.000 
G1 X366.818 Y-591.206 Z-7.900 F3000.000 
G1 X366.354 Y-591.389 Z-7.900 F3000.000 
G1 X365.868 Y-591.496 Z-7.900 F3000.000 
G1 X252.680 Y-607.404 Z-7.900 F3000.000 
G1 X251.983 Y-607.424 Z-7.900 F3000.000 
G1 X251.491 Y-607.345 Z-7.900 F3000.000 
G1 X251.017 Y-607.191 Z-7.900 F3000.000 
G1 X250.574 Y-606.963 Z-7.900 F3000.000 
G1 X250.171 Y-606.670 Z-7.900 F3000.000 
G1 X249.820 Y-606.317 Z-7.900 F3000.000 
G1 X249.528 Y-605.913 Z-7.900 F3000.000 
G1 X249.303 Y-605.469 Z-7.900 F3000.000 
G1 X249.150 Y-604.995 Z-7.900 F3000.000 
G1 X249.073 Y-604.502 Z-7.900 F3000.000 
G1 X249.074 Y-604.004 Z-7.900 F3000.000 
G1 X311.956 Y174.322 Z-7.900 F3000.000 
G1 X311.994 Y174.618 Z-7.900 F3000.000 
G1 X312.118 Y175.100 Z-7.900 F3000.000 
G1 X312.317 Y175.557 Z-7.900 F3000.000 
G1 X312.585 Y175.977 Z-7.900 F3000.000 
G1 X312.915 Y176.350 Z-7.900 F3000.000 
G1 X313.299 Y176.667 Z-7.900 F3000.000 
G1 X313.729 Y176.920 Z-7.900 F3000.000 
G1 X314.192 Y177.103 Z-7.900 F3000.000 
G1 X314.679 Y177.210 Z-7.900 F3000.000 
G1 X364.984 Y184.280 Z-7.900 F3000.000 
G1 X365.426 Y184.311 Z-7.900 F3000.000 
G1 X365.923 Y184.272 Z-7.900 F3000.000 
G1 X366.407 Y184.156 Z-7.900 F3000.000 
G1 X366.867 Y183.965 Z-7.900 F3000.000 
G1 X367.292 Y183.705 Z-7.900 F3000.000 
G1 X367.671 Y183.381 Z-7.900 F3000.000 
G1 X367.671 Y183.381 Z-12.906 F180.000 
G1 X367.995 Y183.003 Z-12.906 F3000.000 
G1 X368.255 Y182.578 Z-12.906 F3000.000 
G1 X368.446 Y182.117 Z-12.906 F3000.000 
G1 X368.562 Y181.633 Z-12.906 F3000.000 
G1 X368.601 Y181.136 Z-12.906 F3000.000 
G1 X368.601 Y-588.352 Z-12.906 F3000.000 
G1 X368.553 Y-588.904 Z-12.906 F3000.000 
G1 X368.428 Y-589.386 Z-12.906 F3000.000 
G1 X368.229 Y-589.843 Z-12.906 F3000.000 
G1 X367.962 Y-590.263 Z-12.906 F3000.000 
G1 X367.632 Y-590.636 Z-12.906 F3000.000 
G1 X367.247 Y-590.953 Z-12.906 F3000.000 
G1 X366.818 Y-591.206 Z-12.906 F3000.000 
G1 X366.354 Y-591.389 Z-12.906 F3000.000 
G1 X365.868 Y-591.496 Z-12.906 F3000.000 
G1 X252.680 Y-607.404 Z-12.906 F3000.000 
G1 X251.983 Y-607.424 Z-12.906 F3000.000 
G1 X251.491 Y-607.345 Z-12.906 F3000.000 
G1 X251.017 Y-607.191 Z-12.906 F3000.000 
G1 X250.574 Y-606.963 Z-12.906 F3000.000 
G1 X250.171 Y-606.670 Z-12.906 F3000.000 
G1 X249.820 Y-606.317 Z-12.906 F3000.000 
G1 X249.528 Y-605.913 Z-12.906 F3000.000 
G1 X249.303 Y-605.469 Z-12.906 F3000.000 
G1 X249.150 Y-604.995 Z-12.906 F3000.000 
G1 X249.073 Y-604.502 Z-12.906 F3000.000 
G1 X249.074 Y-604.004 Z-12.906 F3000.000 
G1 X311.956 Y174.322 Z-12.906 F3000.000 
G1 X311.994 Y174.618 Z-12.906 F3000.000 
G1 X312.118 Y175.100 Z-12.906 F3000.000 
G1 X312.317 Y175.557 Z-12.906 F3000.000 
G1 X312.585 Y175.977 Z-12.906 F3000.000 
G1 X312.915 Y176.350 Z-12.906 F3000.000 
G1 X313.299 Y176.667 Z-12.906 F3000.000 
G1 X313.729 Y176.920 Z-12.906 F3000.000 
G1 X314.192 Y177.103 Z-12.906 F3000.000 
G1 X314.679 Y177.210 Z-12.906 F3000.000 
G1 X364.984 Y184.280 Z-12.906 F3000.000 
G1 X365.426 Y184.311 Z-12.906 F3000.000 
G1 X365.923 Y184.272 Z-12.906 F3000.000 
G1 X366.407 Y184.156 Z-12.906 F3000.000 
G1 X366.867 Y183.965 Z-12.906 F3000.000 
G1 X367.292 Y183.705 Z-12.906 F3000.000 
G1 X367.671 Y183.381 Z-12.906 F3000.000 
G0 X367.671 Y183.381 Z5.000 
(finish operation: DressupTag005)
(begin operation: DressupTag006)
(machine units: mm/min)
G0 Z5.000 
G0 X838.128 Y394.357 Z5.000 
G1 X838.128 Y394.357 Z-7.900 F180.000 
G1 X838.610 Y394.232 Z-7.900 F3000.000 
G1 X839.067 Y394.033 Z-7.900 F3000.000 
G1 X839.487 Y393.766 Z-7.900 F3000.000 
G1 X839.861 Y393.435 Z-7.900 F3000.000 
G1 X840.178 Y393.051 Z-7.900 F3000.000 
G1 X840.430 Y392.622 Z-7.900 F3000.000 
G1 X840.613 Y392.158 Z-7.900 F3000.000 
G1 X840.721 Y391.672 Z-7.900 F3000.000 
G1 X847.791 Y341.366 Z-7.900 F3000.000 
G1 X847.822 Y340.924 Z-7.900 F3000.000 
G1 X847.783 Y340.428 Z-7.900 F3000.000 
G1 X847.666 Y339.943 Z-7.900 F3000.000 
G1 X847.476 Y339.483 Z-7.900 F3000.000 
G1 X847.215 Y339.058 Z-7.900 F3000.000 
G1 X846.892 Y338.679 Z-7.900 F3000.000 
G1 X846.513 Y338.356 Z-7.900 F3000.000 
G1 X846.088 Y338.095 Z-7.900 F3000.000 
G1 X845.628 Y337.905 Z-7.900 F3000.000 
G1 X845.143 Y337.788 Z-7.900 F3000.000 
G1 X844.647 Y337.749 Z-7.900 F3000.000 
G1 X75.158 Y337.749 Z-7.900 F3000.000 
G1 X74.607 Y337.797 Z-7.900 F3000.000 
G1 X74.124 Y337.922 Z-7.900 F3000.000 
G1 X73.668 Y338.121 Z-7.900 F3000.000 
G1 X73.247 Y338.389 Z-7.900 F3000.000 
G1 X72.874 Y338.719 Z-7.900 F3000.000 
G1 X72.557 Y339.103 Z-7.900 F3000.000 
G1 X72.304 Y339.532 Z-7.900 F3000.000 
G1 X72.122 Y339.996 Z-7.900 F3000.000 
G1 X72.014 Y340.482 Z-7.900 F3000.000 
G1 X56.107 Y453.670 Z-7.900 F3000.000 
G1 X56.086 Y454.368 Z-7.900 F3000.000 
G1 X56.165 Y454.859 Z-7.900 F3000.000 
G1 X56.320 Y455.333 Z-7.900 F3000.000 
G1 X56.547 Y455.776 Z-7.900 F3000.000 
G1 X56.841 Y456.179 Z-7.900 F3000.000 
G1 X57.194 Y456.530 Z-7.900 F3000.000 
G1 X57.597 Y456.822 Z-7.900 F3000.000 
G1 X58.042 Y457.048 Z-7.900 F3000.000 
G1 X58.516 Y457.201 Z-7.900 F3000.000 
G1 X59.008 Y457.278 Z-7.900 F3000.000 
G1 X59.506 Y457.277 Z-7.900 F3000.000 
G1 X837.832 Y394.395 Z-7.900 F3000.000 
G1 X838.128 Y394.357 Z-7.900 F3000.000 
G1 X838.128 Y394.357 Z-12.906 F180.000 
G1 X838.610 Y394.232 Z-12.906 F3000.000 
G1 X839.067 Y394.033 Z-12.906 F3000.000 
G1 X839.487 Y393.766 Z-12.906 F3000.000 
G1 X839.861 Y393.435 Z-12.906 F3000.000 
G1 X840.178 Y393.051 Z-12.906 F3000.000 
G1 X840.430 Y392.622 Z-12.906 F3000.000 
G1 X840.613 Y392.158 Z-12.906 F3000.000 
G1 X840.721 Y391.672 Z-12.906 F3000.000 
G1 X847.791 Y341.366 Z-12.906 F3000.000 
G1 X847.822 Y340.924 Z-12.906 F3000.000 
G1 X847.783 Y340.428 Z-12.906 F3000.000 
G1 X847.666 Y339.943 Z-12.906 F3000.000 
G1 X847.476 Y339.483 Z-12.906 F3000.000 
G1 X847.215 Y339.058 Z-12.906 F3000.000 
G1 X846.892 Y338.679 Z-12.906 F3000.000 
G1 X846.513 Y338.356 Z-12.906 F3000.000 
G1 X846.088 Y338.095 Z-12.906 F3000.000 
G1 X845.628 Y337.905 Z-12.906 F3000.000 
G1 X845.143 Y337.788 Z-12.906 F3000.000 
G1 X844.647 Y337.749 Z-12.906 F3000.000 
G1 X75.158 Y337.749 Z-12.906 F3000.000 
G1 X74.607 Y337.797 Z-12.906 F3000.000 
G1 X74.124 Y337.922 Z-12.906 F3000.000 
G1 X73.668 Y338.121 Z-12.906 F3000.000 
G1 X73.247 Y338.389 Z-12.906 F3000.000 
G1 X72.874 Y338.719 Z-12.906 F3000.000 
G1 X72.557 Y339.103 Z-12.906 F3000.000 
G1 X72.304 Y339.532 Z-12.906 F3000.000 
G1 X72.122 Y339.996 Z-12.906 F3000.000 
G1 X72.014 Y340.482 Z-12.906 F3000.000 
G1 X56.107 Y453.670 Z-12.906 F3000.000 
G1 X56.086 Y454.368 Z-12.906 F3000.000 
G1 X56.165 Y454.859 Z-12.906 F3000.000 
G1 X56.320 Y455.333 Z-12.906 F3000.000 
G1 X56.547 Y455.776 Z-12.906 F3000.000 
G1 X56.841 Y456.179 Z-12.906 F3000.000 
G1 X57.194 Y456.530 Z-12.906 F3000.000 
G1 X57.597 Y456.822 Z-12.906 F3000.000 
G1 X58.042 Y457.048 Z-12.906 F3000.000 
G1 X58.516 Y457.201 Z-12.906 F3000.000 
G1 X59.008 Y457.278 Z-12.906 F3000.000 
G1 X59.506 Y457.277 Z-12.906 F3000.000 
G1 X837.832 Y394.395 Z-12.906 F3000.000 
G1 X838.128 Y394.357 Z-12.906 F3000.000 
G0 X838.128 Y394.357 Z5.000 
(finish operation: DressupTag006)
(begin operation: DressupTag007)
(machine units: mm/min)
G0 Z5.000 
G0 X503.645 Y197.381 Z5.000 
G1 X503.645 Y197.381 Z-7.900 F180.000 
G1 X503.826 Y197.199 Z-7.900 F3000.000 
G1 X504.118 Y196.795 Z-7.900 F3000.000 
G1 X504.344 Y196.351 Z-7.900 F3000.000 
G1 X504.497 Y195.877 Z-7.900 F3000.000 
G1 X504.574 Y195.384 Z-7.900 F3000.000 
G1 X504.573 Y194.886 Z-7.900 F3000.000 
G1 X441.690 Y-583.440 Z-7.900 F3000.000 
G1 X441.653 Y-583.736 Z-7.900 F3000.000 
G1 X441.528 Y-584.218 Z-7.900 F3000.000 
G1 X441.329 Y-584.675 Z-7.900 F3000.000 
G1 X441.061 Y-585.095 Z-7.900 F3000.000 
G1 X440.731 Y-585.468 Z-7.900 F3000.000 
G1 X440.347 Y-585.785 Z-7.900 F3000.000 
G1 X439.918 Y-586.038 Z-7.900 F3000.000 
G1 X439.454 Y-586.221 Z-7.900 F3000.000 
G1 X438.968 Y-586.328 Z-7.900 F3000.000 
G1 X388.662 Y-593.398 Z-7.900 F3000.000 
G1 X388.220 Y-593.429 Z-7.900 F3000.000 
G1 X387.724 Y-593.390 Z-7.900 F3000.000 
G1 X387.239 Y-593.274 Z-7.900 F3000.000 
G1 X386.779 Y-593.083 Z-7.900 F3000.000 
G1 X386.354 Y-592.823 Z-7.900 F3000.000 
G1 X385.975 Y-592.499 Z-7.900 F3000.000 
G1 X385.652 Y-592.121 Z-7.900 F3000.000 
G1 X385.391 Y-591.696 Z-7.900 F3000.000 
G1 X385.201 Y-591.235 Z-7.900 F3000.000 
G1 X385.084 Y-590.751 Z-7.900 F3000.000 
G1 X385.045 Y-590.254 Z-7.900 F3000.000 
G1 X385.045 Y179.234 Z-7.900 F3000.000 
G1 X385.093 Y179.786 Z-7.900 F3000.000 
G1 X385.218 Y180.268 Z-7.900 F3000.000 
G1 X385.417 Y180.725 Z-7.900 F3000.000 
G1 X385.685 Y181.145 Z-7.900 F3000.000 
G1 X386.015 Y181.518 Z-7.900 F3000.000 
G1 X386.399 Y181.835 Z-7.900 F3000.000 
G1 X386.828 Y182.088 Z-7.900 F3000.000 
G1 X387.292 Y182.271 Z-7.900 F3000.000 
G1 X387.778 Y182.378 Z-7.900 F3000.000 
G1 X500.966 Y198.286 Z-7.900 F3000.000 
G1 X501.664 Y198.306 Z-7.900 F3000.000 
G1 X502.155 Y198.227 Z-7.900 F3000.000 
G1 X502.629 Y198.073 Z-7.900 F3000.000 
G1 X503.072 Y197.845 Z-7.900 F3000.000 
G1 X503.475 Y197.552 Z-7.900 F3000.000 
G1 X503.645 Y197.381 Z-7.900 F3000.000 
G1 X503.645 Y197.381 Z-12.906 F180.000 
G1 X503.826 Y197.199 Z-12.906 F3000.000 
G1 X504.118 Y196.795 Z-12.906 F3000.000 
G1 X504.344 Y196.351 Z-12.906 F3000.000 
G1 X504.497 Y195.877 Z-12.906 F3000.000 
G1 X504.574 Y195.384 Z-12.906 F3000.000 
G1 X504.573 Y194.886 Z-12.906 F3000.000 
G1 X441.690 Y-583.440 Z-12.906 F3000.000 
G1 X441.653 Y-583.736 Z-12.906 F3000.000 
G1 X441.528 Y-584.218 Z-12.906 F3000.000 
G1 X441.329 Y-584.675 Z-12.906 F3000.000 
G1 X441.061 Y-585.095 Z-12.906 F3000.000 
G1 X440.731 Y-585.468 Z-12.906 F3000.000 
G1 X440.347 Y-585.785 Z-12.906 F3000.000 
G1 X439.918 Y-586.038 Z-12.906 F3000.000 
G1 X439.454 Y-586.221 Z-12.906 F3000.000 
G1 X438.968 Y-586.328 Z-12.906 F3000.000 
G1 X388.662 Y-593.398 Z-12.906 F3000.000 
G1 X388.220 Y-593.429 Z-12.906 F3000.000 
G1 X387.724 Y-593.390 Z-12.906 F3000.000 
G1 X387.239 Y-593.274 Z-12.906 F3000.000 
G1 X386.779 Y-593.083 Z-12.906 F3000.000 
G1 X386.354 Y-592.823 Z-12.906 F3000.000 
G1 X385.975 Y-592.499 Z-12.906 F3000.000 
G1 X385.652 Y-592.121 Z-12.906 F3000.000 
G1 X385.391 Y-591.696 Z-12.906 F3000.000 
G1 X385.201 Y-591.235 Z-12.906 F3000.000 
G1 X385.084 Y-590.751 Z-12.906 F3000.000 
G1 X385.045 Y-590.254 Z-12.906 F3000.000 
G1 X385.045 Y179.234 Z-12.906 F3000.000 
G1 X385.093 Y179.786 Z-12.906 F3000.000 
G1 X385.218 Y180.268 Z-12.906 F3000.000 
G1 X385.417 Y180.725 Z-12.906 F3000.000 
G1 X385.685 Y181.145 Z-12.906 F3000.000 
G1 X386.015 Y181.518 Z-12.906 F3000.000 
G1 X386.399 Y181.835 Z-12.906 F3000.000 
G1 X386.828 Y182.088 Z-12.906 F3000.000 
G1 X387.292 Y182.271 Z-12.906 F3000.000 
G1 X387.778 Y182.378 Z-12.906 F3000.000 
G1 X500.966 Y198.286 Z-12.906 F3000.000 
G1 X501.664 Y198.306 Z-12.906 F3000.000 
G1 X502.155 Y198.227 Z-12.906 F3000.000 
G1 X502.629 Y198.073 Z-12.906 F3000.000 
G1 X503.072 Y197.845 Z-12.906 F3000.000 
G1 X503.475 Y197.552 Z-12.906 F3000.000 
G1 X503.645 Y197.381 Z-12.906 F3000.000 
G0 X503.645 Y197.381 Z5.000 
(finish operation: DressupTag007)
(begin operation: DressupTag008)
(machine units: mm/min)
G0 Z5.000 
G0 X18.623 Y530.042 Z5.000 
G1 X18.623 Y530.042 Z-7.900 F180.000 
G1 X32.902 Y428.442 Z-7.900 F3000.000 
G1 X32.933 Y428.000 Z-7.900 F3000.000 
G1 X32.894 Y427.503 Z-7.900 F3000.000 
G1 X32.778 Y427.019 Z-7.900 F3000.000 
G1 X32.587 Y426.559 Z-7.900 F3000.000 
G1 X32.327 Y426.134 Z-7.900 F3000.000 
G1 X32.003 Y425.755 Z-7.900 F3000.000 
G1 X31.624 Y425.431 Z-7.900 F3000.000 
G1 X31.199 Y425.171 Z-7.900 F3000.000 
G1 X30.739 Y424.980 Z-7.900 F3000.000 
G1 X30.255 Y424.864 Z-7.900 F3000.000 
G1 X29.758 Y424.825 Z-7.900 F3000.000 
G1 X-173.598 Y424.825 Z-7.900 F3000.000 
G1 X-175.095 Y424.825 Z-6.403 F1590.000 
G1 X-181.309 Y424.825 Z-6.403 F3000.000 
G1 X-182.805 Y424.825 Z-7.900 F1590.000 
G1 X-589.517 Y424.825 Z-7.900 F3000.000 
G1 X-591.014 Y424.825 Z-6.403 F1590.000 
G1 X-597.228 Y424.825 Z-6.403 F3000.000 
G1 X-598.725 Y424.825 Z-7.900 F1590.000 
G1 X-1005.437 Y424.825 Z-7.900 F3000.000 
G1 X-1006.934 Y424.825 Z-6.403 F1590.000 
G1 X-1013.147 Y424.825 Z-6.403 F3000.000 
G1 X-1014.644 Y424.825 Z-7.900 F1590.000 
G1 X-1218.000 Y424.825 Z-7.900 F3000.000 
G1 X-1218.442 Y424.856 Z-7.900 F3000.000 
G1 X-1218.928 Y424.964 Z-7.900 F3000.000 
G1 X-1219.392 Y425.146 Z-7.900 F3000.000 
G1 X-1219.821 Y425.399 Z-7.900 F3000.000 
G1 X-1220.206 Y425.716 Z-7.900 F3000.000 
G1 X-1220.536 Y426.089 Z-7.900 F3000.000 
G1 X-1220.803 Y426.509 Z-7.900 F3000.000 
G1 X-1221.002 Y426.966 Z-7.900 F3000.000 
G1 X-1221.127 Y427.449 Z-7.900 F3000.000 
G1 X-1221.175 Y427.945 Z-7.900 F3000.000 
G1 X-1221.144 Y428.442 Z-7.900 F3000.000 
G1 X-1206.865 Y530.042 Z-7.900 F3000.000 
G1 X-1206.741 Y530.581 Z-7.900 F3000.000 
G1 X-1206.550 Y531.041 Z-7.900 F3000.000 
G1 X-1206.290 Y531.466 Z-7.900 F3000.000 
G1 X-1205.966 Y531.845 Z-7.900 F3000.000 
G1 X-1205.587 Y532.169 Z-7.900 F3000.000 
G1 X-1205.162 Y532.429 Z-7.900 F3000.000 
G1 X-1204.702 Y532.620 Z-7.900 F3000.000 
G1 X-1204.218 Y532.736 Z-7.900 F3000.000 
G1 X-1203.721 Y532.775 Z-7.900 F3000.000 
G1 X-1005.125 Y532.775 Z-7.900 F3000.000 
G1 X-1003.628 Y532.775 Z-6.403 F1590.000 
G1 X-997.414 Y532.775 Z-6.403 F3000.000 
G1 X-995.917 Y532.775 Z-7.900 F1590.000 
G1 X-598.725 Y532.775 Z-7.900 F3000.000 
G1 X-597.228 Y532.775 Z-6.403 F1590.000 
G1 X-591.014 Y532.775 Z-6.403 F3000.000 
G1 X-589.517 Y532.775 Z-7.900 F1590.000 
G1 X-192.325 Y532.775 Z-7.900 F3000.000 
G1 X-190.828 Y532.775 Z-6.403 F1590.000 
G1 X-184.614 Y532.775 Z-6.403 F3000.000 
G1 X-183.117 Y532.775 Z-7.900 F1590.000 
G1 X15.479 Y532.775 Z-7.900 F3000.000 
G1 X16.030 Y532.727 Z-7.900 F3000.000 
G1 X16.513 Y532.602 Z-7.900 F3000.000 
G1 X16.970 Y532.403 Z-7.900 F3000.000 
G1 X17.390 Y532.136 Z-7.900 F3000.000 
G1 X17.763 Y531.806 Z-7.900 F3000.000 
G1 X18.080 Y531.421 Z-7.900 F3000.000 
G1 X18.333 Y530.992 Z-7.900 F3000.000 
G1 X18.515 Y530.528 Z-7.900 F3000.000 
G1 X18.623 Y530.042 Z-7.900 F3000.000 
G1 X18.623 Y530.042 Z-12.906 F180.000 
G1 X32.902 Y428.442 Z-12.906 F3000.000 
G1 X32.933 Y428.000 Z-12.906 F3000.000 
G1 X32.894 Y427.503 Z-12.906 F3000.000 
G1 X32.778 Y427.019 Z-12.906 F3000.000 
G1 X32.587 Y426.559 Z-12.906 F3000.000 
G1 X32.327 Y426.134 Z-12.906 F3000.000 
G1 X32.003 Y425.755 Z-12.906 F3000.000 
G1 X31.624 Y425.431 Z-12.906 F3000.000 
G1 X31.199 Y425.171 Z-12.906 F3000.000 
G1 X30.739 Y424.980 Z-12.906 F3000.000 
G1 X30.255 Y424.864 Z-12.906 F3000.000 
G1 X29.758 Y424.825 Z-12.906 F3000.000 
G1 X-168.592 Y424.825 Z-12.906 F3000.000 
G1 X-175.095 Y424.825 Z-6.403 F1590.000 
G1 X-181.309 Y424.825 Z-6.403 F3000.000 
G1 X-187.812 Y424.825 Z-12.906 F1590.000 
G1 X-584.511 Y424.825 Z-12.906 F3000.000 
G1 X-591.014 Y424.825 Z-6.403 F1590.000 
G1 X-597.228 Y424.825 Z-6.403 F3000.000 
G1 X-603.731 Y424.825 Z-12.906 F1590.000 
G1 X-1000.430 Y424.825 Z-12.906 F3000.000 
G1 X-1006.934 Y424.825 Z-6.403 F1590.000 
G1 X-1013.147 Y424.825 Z-6.403 F3000.000 
G1 X-1019.650 Y424.825 Z-12.906 F1590.000 
G1 X-1218.000 Y424.825 Z-12.906 F3000.000 
G1 X-1218.442 Y424.856 Z-12.906 F3000.000 
G1 X-1218.928 Y424.964 Z-12.906 F3000.000 
G1 X-1219.392 Y425.146 Z-12.906 F3000.000 
G1 X-1219.821 Y425.399 Z-12.906 F3000.000 
G1 X-1220.206 Y425.716 Z-12.906 F3000.000 
G1 X-1220.536 Y426.089 Z-12.906 F3000.000 
G1 X-1220.803 Y426.509 Z-12.906 F3000.000 
G1 X-1221.002 Y426.966 Z-12.906 F3000.000 
G1 X-1221.127 Y427.449 Z-12.906 F3000.000 
G1 X-1221.175 Y427.945 Z-12.906 F3000.000 
G1 X-1221.144 Y428.442 Z-12.906 F3000.000 
G1 X-1206.865 Y530.042 Z-12.906 F3000.000 
G1 X-1206.741 Y530.581 Z-12.906 F3000.000 
G1 X-1206.550 Y531.041 Z-12.906 F3000.000 
G1 X-1206.290 Y531.466 Z-12.906 F3000.000 
G1 X-1205.966 Y531.845 Z-12.906 F3000.000 
G1 X-1205.587 Y532.169 Z-12.906 F3000.000 
G1 X-1205.162 Y532.429 Z-12.906 F3000.000 
G1 X-1204.702 Y532.620 Z-12.906 F3000.000 
G1 X-1204.218 Y532.736 Z-12.906 F3000.000 
G1 X-1203.721 Y532.775 Z-12.906 F3000.000 
G1 X-1010.131 Y532.775 Z-12.906 F3000.000 
G1 X-1003.628 Y532.775 Z-6.403 F1590.000 
G1 X-997.414 Y532.775 Z-6.403 F3000.000 
G1 X-990.911 Y532.775 Z-12.906 F1590.000 
G1 X-603.731 Y532.775 Z-12.906 F3000.000 
G1 X-597.228 Y532.775 Z-6.403 F1590.000 
G1 X-591.014 Y532.775 Z-6.403 F3000.000 
G1 X-584.511 Y532.775 Z-12.906 F1590.000 
G1 X-197.331 Y532.775 Z-12.906 F3000.000 
G1 X-190.828 Y532.775 Z-6.403 F1590.000 
G1 X-184.614 Y532.775 Z-6.403 F3000.000 
G1 X-178.111 Y532.775 Z-12.906 F1590.000 
G1 X15.479 Y532.775 Z-12.906 F3000.000 
G1 X16.030 Y532.727 Z-12.906 F3000.000 
G1 X16.513 Y532.602 Z-12.906 F3000.000 
G1 X16.970 Y532.403 Z-12.906 F3000.000 
G1 X17.390 Y532.136 Z-12.906 F3000.000 
G1 X17.763 Y531.806 Z-12.906 F3000.000 
G1 X18.080 Y531.421 Z-12.906 F3000.000 
G1 X18.333 Y530.992 Z-12.906 F3000.000 
G1 X18.515 Y530.528 Z-12.906 F3000.000 
G1 X18.623 Y530.042 Z-12.906 F3000.000 
G0 X18.623 Y530.042 Z5.000 
(finish operation: DressupTag008)
(begin operation: DressupTag009)
(machine units: mm/min)
G0 Z5.000 
G0 X187.127 Y283.846 Z5.000 
G1 X187.127 Y283.846 Z-7.900 F180.000 
G1 X187.451 Y283.467 Z-7.900 F3000.000 
G1 X187.711 Y283.042 Z-7.900 F3000.000 
G1 X187.902 Y282.582 Z-7.900 F3000.000 
G1 X188.018 Y282.097 Z-7.900 F3000.000 
G1 X188.057 Y281.600 Z-7.900 F3000.000 
G1 X188.057 Y180.000 Z-7.900 F3000.000 
G1 X188.018 Y179.504 Z-7.900 F3000.000 
G1 X187.902 Y179.019 Z-7.900 F3000.000 
G1 X187.711 Y178.559 Z-7.900 F3000.000 
G1 X187.451 Y178.134 Z-7.900 F3000.000 
G1 X187.127 Y177.755 Z-7.900 F3000.000 
G1 X186.748 Y177.432 Z-7.900 F3000.000 
G1 X186.324 Y177.172 Z-7.900 F3000.000 
G1 X185.863 Y176.981 Z-7.900 F3000.000 
G1 X185.379 Y176.865 Z-7.900 F3000.000 
G1 X184.882 Y176.825 Z-7.900 F3000.000 
G1 X-388.999 Y176.825 Z-7.900 F3000.000 
G1 X-389.496 Y176.865 Z-7.900 F3000.000 
G1 X-389.980 Y176.981 Z-7.900 F3000.000 
G1 X-390.441 Y177.172 Z-7.900 F3000.000 
G1 X-390.865 Y177.432 Z-7.900 F3000.000 
G1 X-391.244 Y177.755 Z-7.900 F3000.000 
G1 X-391.568 Y178.134 Z-7.900 F3000.000 
G1 X-391.828 Y178.559 Z-7.900 F3000.000 
G1 X-392.019 Y179.019 Z-7.900 F3000.000 
G1 X-392.135 Y179.504 Z-7.900 F3000.000 
G1 X-392.174 Y180.000 Z-7.900 F3000.000 
G1 X-392.174 Y281.600 Z-7.900 F3000.000 
G1 X-392.135 Y282.097 Z-7.900 F3000.000 
G1 X-392.019 Y282.582 Z-7.900 F3000.000 
G1 X-391.828 Y283.042 Z-7.900 F3000.000 
G1 X-391.568 Y283.467 Z-7.900 F3000.000 
G1 X-391.244 Y283.846 Z-7.900 F3000.000 
G1 X-390.865 Y284.169 Z-7.900 F3000.000 
G1 X-390.441 Y284.429 Z-7.900 F3000.000 
G1 X-389.980 Y284.620 Z-7.900 F3000.000 
G1 X-389.496 Y284.736 Z-7.900 F3000.000 
G1 X-388.999 Y284.775 Z-7.900 F3000.000 
G1 X184.882 Y284.775 Z-7.900 F3000.000 
G1 X185.379 Y284.736 Z-7.900 F3000.000 
G1 X185.863 Y284.620 Z-7.900 F3000.000 
G1 X186.324 Y284.429 Z-7.900 F3000.000 
G1 X186.748 Y284.169 Z-7.900 F3000.000 
G1 X187.127 Y283.846 Z-7.900 F3000.000 
G1 X187.127 Y283.846 Z-12.906 F180.000 
G1 X187.451 Y283.467 Z-12.906 F3000.000 
G1 X187.711 Y283.042 Z-12.906 F3000.000 
G1 X187.902 Y282.582 Z-12.906 F3000.000 
G1 X188.018 Y282.097 Z-12.906 F3000.000 
G1 X188.057 Y281.600 Z-12.906 F3000.000 
G1 X188.057 Y180.000 Z-12.906 F3000.000 
G1 X188.018 Y179.504 Z-12.906 F3000.000 
G1 X187.902 Y179.019 Z-12.906 F3000.000 
G1 X187.711 Y178.559 Z-12.906 F3000.000 
G1 X187.451 Y178.134 Z-12.906 F3000.000 
G1 X187.127 Y177.755 Z-12.906 F3000.000 
G1 X186.748 Y177.432 Z-12.906 F3000.000 
G1 X186.324 Y177.172 Z-12.906 F3000.000 
G1 X185.863 Y176.981 Z-12.906 F3000.000 
G1 X185.379 Y176.865 Z-12.906 F3000.000 
G1 X184.882 Y176.825 Z-12.906 F3000.000 
G1 X-388.999 Y176.825 Z-12.906 F3000.000 
G1 X-389.496 Y176.865 Z-12.906 F3000.000 
G1 X-389.980 Y176.981 Z-12.906 F3000.000 
G1 X-390.441 Y177.172 Z-12.906 F3000.000 
G1 X-390.865 Y177.432 Z-12.906 F3000.000 
G1 X-391.244 Y177.755 Z-12.906 F3000.000 
G1 X-391.568 Y178.134 Z-12.906 F3000.000 
G1 X-391.828 Y178.559 Z-12.906 F3000.000 
G1 X-392.019 Y179.019 Z-12.906 F3000.000 
G1 X-392.135 Y179.504 Z-12.906 F3000.000 
G1 X-392.174 Y180.000 Z-12.906 F3000.000 
G1 X-392.174 Y281.600 Z-12.906 F3000.000 
G1 X-392.135 Y282.097 Z-12.906 F3000.000 
G1 X-392.019 Y282.582 Z-12.906 F3000.000 
G1 X-391.828 Y283.042 Z-12.906 F3000.000 
G1 X-391.568 Y283.467 Z-12.906 F3000.000 
G1 X-391.244 Y283.846 Z-12.906 F3000.000 
G1 X-390.865 Y284.169 Z-12.906 F3000.000 
G1 X-390.441 Y284.429 Z-12.906 F3000.000 
G1 X-389.980 Y284.620 Z-12.906 F3000.000 
G1 X-389.496 Y284.736 Z-12.906 F3000.000 
G1 X-388.999 Y284.775 Z-12.906 F3000.000 
G1 X184.882 Y284.775 Z-12.906 F3000.000 
G1 X185.379 Y284.736 Z-12.906 F3000.000 
G1 X185.863 Y284.620 Z-12.906 F3000.000 
G1 X186.324 Y284.429 Z-12.906 F3000.000 
G1 X186.748 Y284.169 Z-12.906 F3000.000 
G1 X187.127 Y283.846 Z-12.906 F3000.000 
G0 X187.127 Y283.846 Z5.000 
(finish operation: DressupTag009)
(begin operation: DressupTag010)
(machine units: mm/min)
G0 Z5.000 
G0 X14.603 Y408.168 Z5.000 
G1 X14.603 Y408.168 Z-7.900 F180.000 
G2 X14.623 Y408.042 Z-7.900 I-3.124 J-0.568 F3000.000 
G1 X28.902 Y306.442 Z-7.900 F3000.000 
G2 X25.758 Y302.825 Z-7.900 I-3.144 J-0.442 F3000.000 
G1 X-120.805 Y302.825 Z-7.900 F3000.000 
G1 X-122.750 Y302.825 Z-5.955 F1590.000 
G1 X-241.653 Y302.825 Z-5.955 F3000.000 
G1 X-243.599 Y302.825 Z-7.900 F1590.000 
G1 X-536.724 Y302.825 Z-7.900 F3000.000 
G1 X-538.669 Y302.825 Z-5.955 F1590.000 
G1 X-657.573 Y302.825 Z-5.955 F3000.000 
G1 X-659.518 Y302.825 Z-7.900 F1590.000 
G1 X-952.643 Y302.825 Z-7.900 F3000.000 
G1 X-954.589 Y302.825 Z-5.955 F1590.000 
G1 X-1073.492 Y302.825 Z-5.955 F3000.000 
G1 X-1075.437 Y302.825 Z-7.900 F1590.000 
G1 X-1222.000 Y302.825 Z-7.900 F3000.000 
G2 X-1225.144 Y306.442 Z-7.900 I-0.000 J3.175 F3000.000 
G1 X-1210.865 Y408.042 Z-7.900 F3000.000 
G2 X-1207.721 Y410.775 Z-7.900 I3.144 J-0.442 F3000.000 
G1 X-659.518 Y410.775 Z-7.900 F3000.000 
G1 X-657.573 Y410.775 Z-5.955 F1590.000 
G1 X-538.669 Y410.775 Z-5.955 F3000.000 
G1 X-536.724 Y410.775 Z-7.900 F1590.000 
G1 X-253.118 Y410.775 Z-7.900 F3000.000 
G1 X-251.173 Y410.775 Z-5.955 F1590.000 
G1 X-132.269 Y410.775 Z-5.955 F3000.000 
G1 X-130.324 Y410.775 Z-7.900 F1590.000 
G1 X11.479 Y410.775 Z-7.900 F3000.000 
G2 X14.603 Y408.168 Z-7.900 I-0.000 J-3.175 F3000.000 
G1 X14.603 Y408.168 Z-12.000 F180.000 
G2 X14.623 Y408.042 Z-12.000 I-3.124 J-0.568 F3000.000 
G1 X28.902 Y306.442 Z-12.000 F3000.000 
G2 X25.758 Y302.825 Z-12.000 I-3.144 J-0.442 F3000.000 
G1 X-116.705 Y302.825 Z-12.000 F3000.000 
G1 X-122.750 Y302.825 Z-5.955 F1590.000 
G1 X-241.653 Y302.825 Z-5.955 F3000.000 
G1 X-247.699 Y302.825 Z-12.000 F1590.000 
G1 X-532.624 Y302.825 Z-12.000 F3000.000 
G1 X-538.669 Y302.825 Z-5.955 F1590.000 
G1 X-657.573 Y302.825 Z-5.955 F3000.000 
G1 X-663.618 Y302.825 Z-12.000 F1590.000 
G1 X-948.543 Y302.825 Z-12.000 F3000.000 
G1 X-954.589 Y302.825 Z-5.955 F1590.000 
G1 X-1073.492 Y302.825 Z-5.955 F3000.000 
G1 X-1079.537 Y302.825 Z-12.000 F1590.000 
G1 X-1222.000 Y302.825 Z-12.000 F3000.000 
G2 X-1225.144 Y306.442 Z-12.000 I-0.000 J3.175 F3000.000 
G1 X-1210.865 Y408.042 Z-12.000 F3000.000 
G2 X-1207.721 Y410.775 Z-12.000 I3.144 J-0.442 F3000.000 
G1 X-663.618 Y410.775 Z-12.000 F3000.000 
G1 X-657.573 Y410.775 Z-5.955 F1590.000 
G1 X-538.669 Y410.775 Z-5.955 F3000.000 
G1 X-532.624 Y410.775 Z-12.000 F1590.000 
G1 X-257.218 Y410.775 Z-12.000 F3000.000 
G1 X-251.173 Y410.775 Z-5.955 F1590.000 
G1 X-132.269 Y410.775 Z-5.955 F3000.000 
G1 X-126.224 Y410.775 Z-12.000 F1590.000 
G1 X11.479 Y410.775 Z-12.000 F3000.000 
G2 X14.603 Y408.168 Z-12.000 I-0.000 J-3.175 F3000.000 
G0 X14.603 Y408.168 Z5.000 
(finish operation: DressupTag010)
(begin operation: DressupTag011)
(machine units: mm/min)
G0 Z5.000 
G0 X781.126 Y317.845 Z5.000 
G1 X781.126 Y317.845 Z-7.900 F180.000 
G2 X782.056 Y315.600 Z-7.900 I-2.245 J-2.245 F3000.000 
G1 X782.056 Y214.000 Z-7.900 F3000.000 
G2 X778.881 Y210.825 Z-7.900 I-3.175 J0.000 F3000.000 
G1 X710.938 Y210.825 Z-7.900 F3000.000 
G1 X708.993 Y210.825 Z-5.955 F1590.000 
G1 X657.475 Y210.825 Z-5.955 F3000.000 
G1 X655.530 Y210.825 Z-7.900 F1590.000 
G1 X519.644 Y210.825 Z-7.900 F3000.000 
G1 X517.699 Y210.825 Z-5.955 F1590.000 
G1 X466.182 Y210.825 Z-5.955 F3000.000 
G1 X464.236 Y210.825 Z-7.900 F1590.000 
G1 X328.350 Y210.825 Z-7.900 F3000.000 
G1 X326.405 Y210.825 Z-5.955 F1590.000 
G1 X274.888 Y210.825 Z-5.955 F3000.000 
G1 X272.943 Y210.825 Z-7.900 F1590.000 
G1 X205.000 Y210.825 Z-7.900 F3000.000 
G2 X201.825 Y214.000 Z-7.900 I0.000 J3.175 F3000.000 
G1 X201.825 Y315.600 Z-7.900 F3000.000 
G2 X205.000 Y318.775 Z-7.900 I3.175 J-0.000 F3000.000 
G1 X272.943 Y318.775 Z-7.900 F3000.000 
G1 X274.888 Y318.775 Z-5.955 F1590.000 
G1 X326.405 Y318.775 Z-5.955 F3000.000 
G1 X328.350 Y318.775 Z-7.900 F1590.000 
G1 X464.236 Y318.775 Z-7.900 F3000.000 
G1 X466.182 Y318.775 Z-5.955 F1590.000 
G1 X517.699 Y318.775 Z-5.955 F3000.000 
G1 X519.644 Y318.775 Z-7.900 F1590.000 
G1 X655.530 Y318.775 Z-7.900 F3000.000 
G1 X657.475 Y318.775 Z-5.955 F1590.000 
G1 X708.993 Y318.775 Z-5.955 F3000.000 
G1 X710.938 Y318.775 Z-7.900 F1590.000 
G1 X778.881 Y318.775 Z-7.900 F3000.000 
G2 X781.126 Y317.845 Z-7.900 I-0.000 J-3.175 F3000.000 
G1 X781.126 Y317.845 Z-12.000 F180.000 
G2 X782.056 Y315.600 Z-12.000 I-2.245 J-2.245 F3000.000 
G1 X782.056 Y214.000 Z-12.000 F3000.000 
G2 X778.881 Y210.825 Z-12.000 I-3.175 J0.000 F3000.000 
G1 X715.038 Y210.825 Z-12.000 F3000.000 
G1 X708.993 Y210.825 Z-5.955 F1590.000 
G1 X657.475 Y210.825 Z-5.955 F3000.000 
G1 X651.430 Y210.825 Z-12.000 F1590.000 
G1 X523.744 Y210.825 Z-12.000 F3000.000 
G1 X517.699 Y210.825 Z-5.955 F1590.000 
G1 X466.182 Y210.825 Z-5.955 F3000.000 
G1 X460.136 Y210.825 Z-12.000 F1590.000 
G1 X332.450 Y210.825 Z-12.000 F3000.000 
G1 X326.405 Y210.825 Z-5.955 F1590.000 
G1 X274.888 Y210.825 Z-5.955 F3000.000 
G1 X268.843 Y210.825 Z-12.000 F1590.000 
G1 X205.000 Y210.825 Z-12.000 F3000.000 
G2 X201.825 Y214.000 Z-12.000 I0.000 J3.175 F3000.000 
G1 X201.825 Y315.600 Z-12.000 F3000.000 
G2 X205.000 Y318.775 Z-12.000 I3.175 J-0.000 F3000.000 
G1 X268.843 Y318.775 Z-12.000 F3000.000 
G1 X274.888 Y318.775 Z-5.955 F1590.000 
G1 X326.405 Y318.775 Z-5.955 F3000.000 
G1 X332.450 Y318.775 Z-12.000 F1590.000 
G1 X460.136 Y318.775 Z-12.000 F3000.000 
G1 X466.182 Y318.775 Z-5.955 F1590.000 
G1 X517.699 Y318.775 Z-5.955 F3000.000 
G1 X523.744 Y318.775 Z-12.000 F1590.000 
G1 X651.430 Y318.775 Z-12.000 F3000.000 
G1 X657.475 Y318.775 Z-5.955 F1590.000 
G1 X708.993 Y318.775 Z-5.955 F3000.000 
G1 X715.038 Y318.775 Z-12.000 F1590.000 
G1 X778.881 Y318.775 Z-12.000 F3000.000 
G2 X781.126 Y317.845 Z-12.000 I-0.000 J-3.175 F3000.000 
G0 X781.126 Y317.845 Z5.000 
(finish operation: DressupTag011)
(begin operation: DressupTag012)
(machine units: mm/min)
G0 Z5.000 
G0 X661.594 Y197.039 Z5.000 
G1 X661.594 Y197.039 Z-7.900 F180.000 
G1 X667.877 Y107.198 Z-7.900 F3000.000 
G1 X668.012 Y105.258 Z-5.955 F1590.000 
G1 X673.050 Y33.215 Z-5.955 F3000.000 
G1 X673.186 Y31.275 Z-7.900 F1590.000 
G1 X685.750 Y-148.408 Z-7.900 F3000.000 
G1 X685.886 Y-150.348 Z-5.955 F1590.000 
G1 X690.924 Y-222.391 Z-5.955 F3000.000 
G1 X691.060 Y-224.331 Z-7.900 F1590.000 
G1 X703.624 Y-404.014 Z-7.900 F3000.000 
G1 X703.760 Y-405.954 Z-5.955 F1590.000 
G1 X708.798 Y-477.996 Z-5.955 F3000.000 
G1 X708.933 Y-479.937 Z-7.900 F1590.000 
G1 X715.216 Y-569.778 Z-7.900 F3000.000 
G2 X712.708 Y-573.105 Z-7.900 I-3.167 J-0.221 F3000.000 
G1 X600.906 Y-596.870 Z-7.900 F3000.000 
G2 X597.071 Y-593.730 Z-7.900 I-0.660 J3.106 F3000.000 
G1 X598.066 Y-501.646 Z-7.900 F3000.000 
G1 X598.087 Y-499.701 Z-5.955 F1590.000 
G1 X598.867 Y-427.487 Z-5.955 F3000.000 
G1 X598.888 Y-425.541 Z-7.900 F1590.000 
G1 X600.878 Y-241.374 Z-7.900 F3000.000 
G1 X600.899 Y-239.428 Z-5.955 F1590.000 
G1 X601.679 Y-167.214 Z-5.955 F3000.000 
G1 X601.700 Y-165.269 Z-7.900 F1590.000 
G1 X603.690 Y18.899 Z-7.900 F3000.000 
G1 X603.711 Y20.844 Z-5.955 F1590.000 
G1 X604.491 Y93.058 Z-5.955 F3000.000 
G1 X604.512 Y95.003 Z-7.900 F1590.000 
G1 X605.507 Y187.087 Z-7.900 F3000.000 
G2 X608.021 Y190.158 Z-7.900 I3.175 J-0.034 F3000.000 
G1 X657.711 Y200.720 Z-7.900 F3000.000 
G2 X661.539 Y197.836 Z-7.900 I0.660 J-3.106 F3000.000 
G1 X661.594 Y197.039 Z-7.900 F3000.000 
G1 X661.594 Y197.039 Z-12.000 F180.000 
G1 X667.591 Y111.288 Z-12.000 F3000.000 
G1 X668.012 Y105.258 Z-5.955 F1590.000 
G1 X673.050 Y33.215 Z-5.955 F3000.000 
G1 X673.472 Y27.185 Z-12.000 F1590.000 
G1 X685.464 Y-144.318 Z-12.000 F3000.000 
G1 X685.886 Y-150.348 Z-5.955 F1590.000 
G1 X690.924 Y-222.391 Z-5.955 F3000.000 
G1 X691.346 Y-228.421 Z-12.000 F1590.000 
G1 X703.338 Y-399.924 Z-12.000 F3000.000 
G1 X703.760 Y-405.954 Z-5.955 F1590.000 
G1 X708.798 Y-477.996 Z-5.955 F3000.000 
G1 X709.219 Y-484.027 Z-12.000 F1590.000 
G1 X715.216 Y-569.778 Z-12.000 F3000.000 
G2 X712.708 Y-573.105 Z-12.000 I-3.167 J-0.221 F3000.000 
G1 X600.906 Y-596.870 Z-12.000 F3000.000 
G2 X597.071 Y-593.730 Z-12.000 I-0.660 J3.106 F3000.000 
G1 X598.022 Y-505.745 Z-12.000 F3000.000 
G1 X598.087 Y-499.701 Z-5.955 F1590.000 
G1 X598.867 Y-427.487 Z-5.955 F3000.000 
G1 X598.932 Y-421.442 Z-12.000 F1590.000 
G1 X600.834 Y-245.473 Z-12.000 F3000.000 
G1 X600.899 Y-239.428 Z-5.955 F1590.000 
G1 X601.679 Y-167.214 Z-5.955 F3000.000 
G1 X601.744 Y-161.170 Z-12.000 F1590.000 
G1 X603.645 Y14.799 Z-12.000 F3000.000 
G1 X603.711 Y20.844 Z-5.955 F1590.000 
G1 X604.491 Y93.058 Z-5.955 F3000.000 
G1 X604.556 Y99.103 Z-12.000 F1590.000 
G1 X605.507 Y187.087 Z-12.000 F3000.000 
G2 X608.021 Y190.158 Z-12.000 I3.175 J-0.034 F3000.000 
G1 X657.711 Y200.720 Z-12.000 F3000.000 
G2 X661.539 Y197.836 Z-12.000 I0.660 J-3.106 F3000.000 
G1 X661.594 Y197.039 Z-12.000 F3000.000 
G0 X661.594 Y197.039 Z5.000 
(finish operation: DressupTag012)
(begin operation: DressupTag013)
(machine units: mm/min)
G0 Z5.000 
G0 X769.414 Y187.896 Z5.000 
G1 X769.414 Y187.896 Z-7.900 F180.000 
G2 X770.267 Y184.957 Z-7.900 I-2.245 J-2.245 F3000.000 
G1 X764.977 Y161.326 Z-7.900 F3000.000 
G1 X764.581 Y159.557 Z-6.070 F1581.068 
G1 X764.185 Y157.789 Z-7.900 F1581.068 
G1 X758.894 Y134.157 Z-7.900 F3000.000 
G2 X755.796 Y131.676 Z-7.900 I-3.098 J0.694 F3000.000 
G1 X732.208 Y131.676 Z-7.900 F3000.000 
G1 X730.396 Y131.676 Z-6.070 F1581.068 
G1 X728.584 Y131.676 Z-7.900 F1581.068 
G1 X704.996 Y131.676 Z-7.900 F3000.000 
G2 X701.852 Y135.293 Z-7.900 I-0.000 J3.175 F3000.000 
G1 X705.170 Y158.898 Z-7.900 F3000.000 
G1 X705.422 Y160.693 Z-6.070 F1581.068 
G1 X705.674 Y162.487 Z-7.900 F1581.068 
G1 X708.992 Y186.093 Z-7.900 F3000.000 
G2 X712.136 Y188.826 Z-7.900 I3.144 J-0.442 F3000.000 
G1 X737.840 Y188.826 Z-7.900 F3000.000 
G1 X739.652 Y188.826 Z-6.070 F1581.068 
G1 X741.464 Y188.826 Z-7.900 F1581.068 
G1 X767.169 Y188.826 Z-7.900 F3000.000 
G2 X769.414 Y187.896 Z-7.900 I0.000 J-3.175 F3000.000 
G1 X769.414 Y187.896 Z-12.000 F180.000 
G2 X770.267 Y184.957 Z-12.000 I-2.245 J-2.245 F3000.000 
G1 X765.864 Y165.287 Z-12.000 F3000.000 
G1 X764.581 Y159.557 Z-6.070 F1581.068 
G1 X763.298 Y153.827 Z-12.000 F1581.068 
G1 X758.894 Y134.157 Z-12.000 F3000.000 
G2 X755.796 Y131.676 Z-12.000 I-3.098 J0.694 F3000.000 
G1 X736.268 Y131.676 Z-12.000 F3000.000 
G1 X730.396 Y131.676 Z-6.070 F1581.068 
G1 X724.525 Y131.676 Z-12.000 F1581.068 
G1 X704.996 Y131.676 Z-12.000 F3000.000 
G2 X701.852 Y135.293 Z-12.000 I-0.000 J3.175 F3000.000 
G1 X704.605 Y154.878 Z-12.000 F3000.000 
G1 X705.422 Y160.693 Z-6.070 F1581.068 
G1 X706.239 Y166.507 Z-12.000 F1581.068 
G1 X708.992 Y186.093 Z-12.000 F3000.000 
G2 X712.136 Y188.826 Z-12.000 I3.144 J-0.442 F3000.000 
G1 X733.781 Y188.826 Z-12.000 F3000.000 
G1 X739.652 Y188.826 Z-6.070 F1581.068 
G1 X745.524 Y188.826 Z-12.000 F1581.068 
G1 X767.169 Y188.826 Z-12.000 F3000.000 
G2 X769.414 Y187.896 Z-12.000 I0.000 J-3.175 F3000.000 
G0 X769.414 Y187.896 Z5.000 
(finish operation: DressupTag013)
(begin operation: DressupTag014)
(machine units: mm/min)
G0 Z5.000 
G0 X774.414 Y106.896 Z5.000 
G1 X774.414 Y106.896 Z-7.900 F180.000 
G2 X775.267 Y103.957 Z-7.900 I-2.245 J-2.245 F3000.000 
G1 X769.977 Y80.326 Z-7.900 F3000.000 
G1 X769.581 Y78.557 Z-6.070 F1581.068 
G1 X769.185 Y76.789 Z-7.900 F1581.068 
G1 X763.894 Y53.157 Z-7.900 F3000.000 
G2 X760.796 Y50.676 Z-7.900 I-3.098 J0.694 F3000.000 
G1 X737.208 Y50.676 Z-7.900 F3000.000 
G1 X735.396 Y50.676 Z-6.070 F1581.068 
G1 X733.584 Y50.676 Z-7.900 F1581.068 
G1 X709.996 Y50.676 Z-7.900 F3000.000 
G2 X706.852 Y54.293 Z-7.900 I-0.000 J3.175 F3000.000 
G1 X710.170 Y77.898 Z-7.900 F3000.000 
G1 X710.422 Y79.693 Z-6.070 F1581.068 
G1 X710.674 Y81.487 Z-7.900 F1581.068 
G1 X713.992 Y105.093 Z-7.900 F3000.000 
G2 X717.136 Y107.826 Z-7.900 I3.144 J-0.442 F3000.000 
G1 X742.840 Y107.826 Z-7.900 F3000.000 
G1 X744.652 Y107.826 Z-6.070 F1581.068 
G1 X746.464 Y107.826 Z-7.900 F1581.068 
G1 X772.169 Y107.826 Z-7.900 F3000.000 
G2 X774.414 Y106.896 Z-7.900 I0.000 J-3.175 F3000.000 
G1 X774.414 Y106.896 Z-12.000 F180.000 
G2 X775.267 Y103.957 Z-12.000 I-2.245 J-2.245 F3000.000 
G1 X770.864 Y84.287 Z-12.000 F3000.000 
G1 X769.581 Y78.557 Z-6.070 F1581.068 
G1 X768.298 Y72.828 Z-12.000 F1581.068 
G1 X763.894 Y53.157 Z-12.000 F3000.000 
G2 X760.796 Y50.676 Z-12.000 I-3.098 J0.694 F3000.000 
G1 X741.268 Y50.676 Z-12.000 F3000.000 
G1 X735.396 Y50.676 Z-6.070 F1581.068 
G1 X729.525 Y50.676 Z-12.000 F1581.068 
G1 X709.996 Y50.676 Z-12.000 F3000.000 
G2 X706.852 Y54.293 Z-12.000 I-0.000 J3.175 F3000.000 
G1 X709.605 Y73.878 Z-12.000 F3000.000 
G1 X710.422 Y79.693 Z-6.070 F1581.068 
G1 X711.239 Y85.507 Z-12.000 F1581.068 
G1 X713.992 Y105.093 Z-12.000 F3000.000 
G2 X717.136 Y107.826 Z-12.000 I3.144 J-0.442 F3000.000 
G1 X738.781 Y107.826 Z-12.000 F3000.000 
G1 X744.652 Y107.826 Z-6.070 F1581.068 
G1 X750.524 Y107.826 Z-12.000 F1581.068 
G1 X772.169 Y107.826 Z-12.000 F3000.000 
G2 X774.414 Y106.896 Z-12.000 I0.000 J-3.175 F3000.000 
G0 X774.414 Y106.896 Z5.000 
(finish operation: DressupTag014)
(begin operation: DressupTag015)
(machine units: mm/min)
G0 Z5.000 
G0 X764.414 Y27.896 Z5.000 
G1 X764.414 Y27.896 Z-7.900 F180.000 
G2 X765.267 Y24.957 Z-7.900 I-2.245 J-2.245 F3000.000 
G1 X759.977 Y1.326 Z-7.900 F3000.000 
G1 X759.581 Y-0.443 Z-6.070 F1581.068 
G1 X759.185 Y-2.211 Z-7.900 F1581.068 
G1 X753.894 Y-25.843 Z-7.900 F3000.000 
G2 X750.796 Y-28.324 Z-7.900 I-3.098 J0.694 F3000.000 
G1 X727.208 Y-28.324 Z-7.900 F3000.000 
G1 X725.396 Y-28.324 Z-6.070 F1581.068 
G1 X723.584 Y-28.324 Z-7.900 F1581.068 
G1 X699.996 Y-28.324 Z-7.900 F3000.000 
G2 X696.852 Y-24.707 Z-7.900 I-0.000 J3.175 F3000.000 
G1 X700.170 Y-1.102 Z-7.900 F3000.000 
G1 X700.422 Y0.693 Z-6.070 F1581.068 
G1 X700.674 Y2.488 Z-7.900 F1581.068 
G1 X703.992 Y26.093 Z-7.900 F3000.000 
G2 X707.136 Y28.826 Z-7.900 I3.144 J-0.442 F3000.000 
G1 X732.840 Y28.826 Z-7.900 F3000.000 
G1 X734.652 Y28.826 Z-6.070 F1581.068 
G1 X736.464 Y28.826 Z-7.900 F1581.068 
G1 X762.169 Y28.826 Z-7.900 F3000.000 
G2 X764.414 Y27.896 Z-7.900 I0.000 J-3.175 F3000.000 
G1 X764.414 Y27.896 Z-12.000 F180.000 
G2 X765.267 Y24.957 Z-12.000 I-2.245 J-2.245 F3000.000 
G1 X760.864 Y5.287 Z-12.000 F3000.000 
G1 X759.581 Y-0.443 Z-6.070 F1581.068 
G1 X758.298 Y-6.172 Z-12.000 F1581.068 
G1 X753.894 Y-25.843 Z-12.000 F3000.000 
G2 X750.796 Y-28.324 Z-12.000 I-3.098 J0.694 F3000.000 
G1 X731.268 Y-28.324 Z-12.000 F3000.000 
G1 X725.396 Y-28.324 Z-6.070 F1581.068 
G1 X719.525 Y-28.324 Z-12.000 F1581.068 
G1 X699.996 Y-28.324 Z-12.000 F3000.000 
G2 X696.852 Y-24.707 Z-12.000 I-0.000 J3.175 F3000.000 
G1 X699.605 Y-5.121 Z-12.000 F3000.000 
G1 X700.422 Y0.693 Z-6.070 F1581.068 
G1 X701.239 Y6.507 Z-12.000 F1581.068 
G1 X703.992 Y26.093 Z-12.000 F3000.000 
G2 X707.136 Y28.826 Z-12.000 I3.144 J-0.442 F3000.000 
G1 X728.781 Y28.826 Z-12.000 F3000.000 
G1 X734.652 Y28.826 Z-6.070 F1581.068 
G1 X740.524 Y28.826 Z-12.000 F1581.068 
G1 X762.169 Y28.826 Z-12.000 F3000.000 
G2 X764.414 Y27.896 Z-12.000 I0.000 J-3.175 F3000.000 
G0 X764.414 Y27.896 Z5.000 
(finish operation: DressupTag015)
(begin operation: DressupTag016)
(machine units: mm/min)
G0 Z5.000 
G0 X759.414 Y-35.104 Z5.000 
G1 X759.414 Y-35.104 Z-7.900 F180.000 
G2 X760.267 Y-38.042 Z-7.900 I-2.245 J-2.245 F3000.000 
G1 X754.977 Y-61.674 Z-7.900 F3000.000 
G1 X754.581 Y-63.442 Z-6.070 F1581.068 
G1 X754.185 Y-65.211 Z-7.900 F1581.068 
G1 X748.894 Y-88.842 Z-7.900 F3000.000 
G2 X745.796 Y-91.324 Z-7.900 I-3.098 J0.694 F3000.000 
G1 X722.208 Y-91.324 Z-7.900 F3000.000 
G1 X720.396 Y-91.324 Z-6.070 F1581.068 
G1 X718.584 Y-91.324 Z-7.900 F1581.068 
G1 X694.996 Y-91.324 Z-7.900 F3000.000 
G2 X691.852 Y-87.707 Z-7.900 I-0.000 J3.175 F3000.000 
G1 X695.170 Y-64.101 Z-7.900 F3000.000 
G1 X695.422 Y-62.307 Z-6.070 F1581.068 
G1 X695.674 Y-60.512 Z-7.900 F1581.068 
G1 X698.992 Y-36.907 Z-7.900 F3000.000 
G2 X702.136 Y-34.174 Z-7.900 I3.144 J-0.442 F3000.000 
G1 X727.840 Y-34.174 Z-7.900 F3000.000 
G1 X729.652 Y-34.174 Z-6.070 F1581.068 
G1 X731.465 Y-34.174 Z-7.900 F1581.068 
G1 X757.169 Y-34.174 Z-7.900 F3000.000 
G2 X759.414 Y-35.104 Z-7.900 I0.000 J-3.175 F3000.000 
G1 X759.414 Y-35.104 Z-12.000 F180.000 
G2 X760.267 Y-38.042 Z-12.000 I-2.245 J-2.245 F3000.000 
G1 X755.864 Y-57.713 Z-12.000 F3000.000 
G1 X754.581 Y-63.442 Z-6.070 F1581.068 
G1 X753.298 Y-69.172 Z-12.000 F1581.068 
G1 X748.894 Y-88.842 Z-12.000 F3000.000 
G2 X745.796 Y-91.324 Z-12.000 I-3.098 J0.694 F3000.000 
G1 X726.268 Y-91.324 Z-12.000 F3000.000 
G1 X720.396 Y-91.324 Z-6.070 F1581.068 
G1 X714.525 Y-91.324 Z-12.000 F1581.068 
G1 X694.996 Y-91.324 Z-12.000 F3000.000 
G2 X691.852 Y-87.707 Z-12.000 I-0.000 J3.175 F3000.000 
G1 X694.605 Y-68.121 Z-12.000 F3000.000 
G1 X695.422 Y-62.307 Z-6.070 F1581.068 
G1 X696.239 Y-56.492 Z-12.000 F1581.068 
G1 X698.992 Y-36.907 Z-12.000 F3000.000 
G2 X702.136 Y-34.174 Z-12.000 I3.144 J-0.442 F3000.000 
G1 X723.781 Y-34.174 Z-12.000 F3000.000 
G1 X729.652 Y-34.174 Z-6.070 F1581.068 
G1 X735.524 Y-34.174 Z-12.000 F1581.068 
G1 X757.169 Y-34.174 Z-12.000 F3000.000 
G2 X759.414 Y-35.104 Z-12.000 I0.000 J-3.175 F3000.000 
G0 X759.414 Y-35.104 Z5.000 
(finish operation: DressupTag016)
(begin postamble)
M05
G17 G54 G90 G80 G40
M2
